%
O01001
(JDH - laser power, powder flow rate, gas flow rates are specified in recipe P9101)
(JDH - recipes are defined in the DED controller, NOT in the G-code)
(JDH - G-code calls individual recipes; recipes can be changed on-the-fly)
(JDH - Code generated using Autodesk Fusion 360 + Custom UMC 750 Post Processor)
(JDH - IMPORTANT M CODES)
(M98 P910X - Recipe assignment for recipe X, e.g. P9101, P9102, etc.)
(M110 - Turn Media on, media includes powder and gas flows)
(M111 - Turn Media off)
(M120 - Turn Laser on)
(M121 - Turn Laser off)
(Using G0 which travels along dogleg path.)
(T3 D=0. CR=0. - ZMIN=0. - laser powder)
N10 G90 G94 G17
N15 G20
N20 G28 G91 Z0.
N25 G90

(Feature Construction2)
N30 G17 G90 G94
N35 G54
N40 G53 G0 X-29. Y-8.
N45 M11
N50 M13
N55 G0 B0. C0.
N60 M10
N65 M12
N70 (ADDITIVE RECIPE ASSIGNMENT)
N75 M98P9101
N80 /M110 (MEDIA ON - powder + gas)
N85 G4 P20000 (JDH media purge delay - wait for steady flow)
N90 G187 P3
N95 G0 X0.6665 Y-0.636
N100 G43 Z3.6 H3
N105 G0 Z0.0997
N110 G1 Z0.0197 F19.685
N115 /M110 (MEDIA ON)
N120 X0.6667 Y-0.6358 Z0.0163
N125 X0.6673 Y-0.6351 Z0.013
N130 X0.6683 Y-0.6341 Z0.0098
N135 X0.6696 Y-0.6326 Z0.007
N140 X0.6713 Y-0.6308 Z0.0046
N145 X0.6732 Y-0.6288 Z0.0026
N150 X0.6753 Y-0.6265 Z0.0012
N155 X0.6775 Y-0.624 Z0.0003
N160 X0.6798 Y-0.6215 Z0.
N165 /M120 (LASER ON)
N170 X0.6887 Y-0.6119
N175 X0.7054 Y-0.5925
N180 X0.7228 Y-0.5711
N185 X0.7415 Y-0.5466
N190 X0.7535 Y-0.5301
N195 X0.7715 Y-0.5033
N200 X0.782 Y-0.4869
N205 X0.809 Y-0.4406
N210 X0.83 Y-0.3998
N215 X0.8438 Y-0.3697
N220 X0.8541 Y-0.345
N225 X0.8621 Y-0.3248
N230 X0.8713 Y-0.2991
N235 X0.8861 Y-0.2519
N240 X0.8989 Y-0.2014
N245 X0.9041 Y-0.1766
N250 X0.9087 Y-0.1508
N255 X0.9156 Y-0.1013
N260 X0.9199 Y-0.0478
N265 X0.9212 Y0.0028
N270 X0.9197 Y0.0525
N275 X0.9151 Y0.1053
N280 X0.908 Y0.1555
N285 X0.9018 Y0.1882
N290 X0.8966 Y0.211
N295 X0.8848 Y0.2564
N300 X0.8683 Y0.3077
N305 X0.8605 Y0.3288
N310 X0.8519 Y0.3506
N315 X0.8396 Y0.3791
N320 X0.8295 Y0.4007
N325 X0.8061 Y0.4459
N330 X0.7799 Y0.4903
N335 X0.7676 Y0.5094
N340 X0.7518 Y0.5324
N345 X0.7347 Y0.5558
N350 X0.7186 Y0.5764
N355 X0.701 Y0.5977
N360 X0.6806 Y0.6208
N365 X0.6666 Y0.6359
N370 X0.6452 Y0.6575
N375 X0.6084 Y0.6917
N380 X0.5706 Y0.7231
N385 X0.5438 Y0.7436
N390 X0.5153 Y0.7637
N395 X0.4861 Y0.7826
N400 X0.4549 Y0.801
N405 X0.4267 Y0.8164
N410 X0.3938 Y0.8328
N415 X0.3589 Y0.8483
N420 X0.3329 Y0.859
N425 X0.3002 Y0.8709
N430 X0.2627 Y0.8829
N435 X0.2332 Y0.8912
N440 X0.205 Y0.8982
N445 X0.165 Y0.9063
N450 X0.1349 Y0.9113
N455 X0.0995 Y0.9158
N460 X0.0656 Y0.9189
N465 X0.033 Y0.9206
N470 X-0.0027 Y0.9212
N475 X-0.0405 Y0.9203
N480 X-0.0722 Y0.9184
N485 X-0.1087 Y0.9147
N490 X-0.1401 Y0.9105
N495 X-0.1769 Y0.904
N500 X-0.2075 Y0.8975
N505 X-0.2564 Y0.8848
N510 X-0.3058 Y0.869
N515 X-0.3295 Y0.8603
N520 X-0.36 Y0.8479
N525 X-0.3779 Y0.8401
N530 X-0.4026 Y0.8285
N535 X-0.4447 Y0.8067
N540 X-0.4902 Y0.78
N545 X-0.5141 Y0.7643
N550 X-0.5323 Y0.7519
N555 X-0.5558 Y0.7346
N560 X-0.5764 Y0.7186
N565 X-0.602 Y0.6972
N570 X-0.6169 Y0.6842
N575 X-0.6382 Y0.6644
N580 X-0.656 Y0.6468
N585 X-0.6917 Y0.6084
N590 X-0.7226 Y0.5714
N595 X-0.7386 Y0.5505
N600 X-0.7585 Y0.5228
N605 X-0.7695 Y0.5065
N610 X-0.7835 Y0.4845
N615 X-0.809 Y0.4406
N620 X-0.8309 Y0.3978
N625 X-0.8445 Y0.3681
N630 X-0.8557 Y0.3412
N635 X-0.8623 Y0.3241
N640 X-0.8711 Y0.2996
N645 X-0.886 Y0.2522
N650 X-0.8991 Y0.2008
N655 X-0.9038 Y0.1783
N660 X-0.9087 Y0.1509
N665 X-0.9156 Y0.1018
N670 X-0.9199 Y0.0483
N675 X-0.9212 Y-0.0009
N680 X-0.9196 Y-0.0542
N685 X-0.9151 Y-0.1054
N690 X-0.9077 Y-0.1574
N695 X-0.903 Y-0.1822
N700 X-0.8974 Y-0.2082
N705 X-0.8852 Y-0.255
N710 X-0.8688 Y-0.3063
N715 X-0.8591 Y-0.3324
N720 X-0.8487 Y-0.3582
N725 X-0.8413 Y-0.3754
N730 X-0.8286 Y-0.4024
N735 X-0.8065 Y-0.4452
N740 X-0.78 Y-0.4902
N745 X-0.7628 Y-0.5164
N750 X-0.7506 Y-0.5341
N755 X-0.736 Y-0.554
N760 X-0.7182 Y-0.5769
N765 X-0.6901 Y-0.6103
N770 X-0.6528 Y-0.65
N775 X-0.6335 Y-0.6688
N780 X-0.6119 Y-0.6887
N785 X-0.5925 Y-0.7054
N790 X-0.5712 Y-0.7228
N795 X-0.5455 Y-0.7423
N800 X-0.5278 Y-0.755
N805 X-0.5008 Y-0.7731
N810 X-0.486 Y-0.7825
N815 X-0.442 Y-0.8082
N820 X-0.3965 Y-0.8315
N825 X-0.3723 Y-0.8426
N830 X-0.3435 Y-0.8548
N835 X-0.3241 Y-0.8623
N840 X-0.2992 Y-0.8712
N845 X-0.2508 Y-0.8864
N850 X-0.2016 Y-0.8989
N855 X-0.1673 Y-0.9059
N860 X-0.1303 Y-0.9119
N865 X-0.0955 Y-0.9162
N870 X-0.0672 Y-0.9188
N875 X-0.0341 Y-0.9206
N880 X0.0009 Y-0.9212
N885 X0.0384 Y-0.9204
N890 X0.0749 Y-0.9181
N895 X0.103 Y-0.9155
N900 X0.1427 Y-0.91
N905 X0.1737 Y-0.9047
N910 X0.2074 Y-0.8976
N915 X0.2374 Y-0.8901
N920 X0.2698 Y-0.8808
N925 X0.3042 Y-0.8695
N930 X0.3329 Y-0.859
N935 X0.3678 Y-0.8446
N940 X0.3985 Y-0.8305
N945 X0.4328 Y-0.8132
N950 X0.4638 Y-0.7959
N955 X0.4942 Y-0.7774
N960 X0.5203 Y-0.7602
N965 X0.5486 Y-0.7401
N970 X0.5739 Y-0.7207
N975 X0.6132 Y-0.6874
N980 X0.65 Y-0.6528
N985 X0.6688 Y-0.6335
N990 X0.6798 Y-0.6215
N995 /M121 (LASER OFF)
N1000 X0.6821 Y-0.619 Z0.0003
N1005 X0.6844 Y-0.6166 Z0.0012
N1010 X0.6865 Y-0.6143 Z0.0026
N1015 X0.6884 Y-0.6122 Z0.0046
N1020 X0.69 Y-0.6104 Z0.007
N1025 X0.6913 Y-0.609 Z0.0098
N1030 X0.6923 Y-0.6079 Z0.013
N1035 X0.6929 Y-0.6072 Z0.0163
N1040 X0.6931 Y-0.607 Z0.0197
N1045 G0 Z0.1797
N1050 X-1.0006 Y0.0197
N1055 Z0.0997
N1060 G1 Z0.0197 F19.685
N1065 /M110 (MEDIA ON)
N1070 Y0.0194 Z0.0163
N1075 Y0.0185 Z0.013
N1080 X-1.0005 Y0.017 Z0.0098
N1085 Y0.0151 Z0.007
N1090 X-1.0004 Y0.0126 Z0.0046
N1095 X-1.0003 Y0.0098 Z0.0026
N1100 X-1.0002 Y0.0067 Z0.0012
N1105 X-1.0001 Y0.0034 Z0.0003
N1110 X-1. Y0. Z0.
N1115 /M120 (LASER ON)
N1120 X-0.9982 Y-0.059
N1125 X-0.9934 Y-0.1146
N1130 X-0.9853 Y-0.1705
N1135 X-0.9803 Y-0.1974
N1140 X-0.9739 Y-0.2266
N1145 X-0.9603 Y-0.2789
N1150 X-0.9434 Y-0.3317
N1155 X-0.9339 Y-0.3573
N1160 X-0.9228 Y-0.3852
N1165 X-0.9121 Y-0.4098
N1170 X-0.8991 Y-0.4376
N1175 X-0.8748 Y-0.4845
N1180 X-0.8468 Y-0.5318
N1185 X-0.832 Y-0.5547
N1190 X-0.8147 Y-0.5798
N1195 X-0.7987 Y-0.6017
N1200 X-0.7792 Y-0.6267
N1205 X-0.7486 Y-0.6631
N1210 X-0.7088 Y-0.7054
N1215 X-0.688 Y-0.7257
N1220 X-0.6641 Y-0.7476
N1225 X-0.6435 Y-0.7654
N1230 X-0.6199 Y-0.7847
N1235 X-0.5979 Y-0.8015
N1240 X-0.5724 Y-0.8199
N1245 X-0.5501 Y-0.835
N1250 X-0.5251 Y-0.851
N1255 X-0.4781 Y-0.8783
N1260 X-0.4305 Y-0.9026
N1265 X-0.4051 Y-0.9142
N1270 X-0.3769 Y-0.9262
N1275 X-0.3522 Y-0.9359
N1280 X-0.3242 Y-0.9459
N1285 X-0.2719 Y-0.9623
N1290 X-0.2183 Y-0.9759
N1295 X-0.1828 Y-0.9831
N1300 X-0.1455 Y-0.9893
N1305 X-0.1083 Y-0.9941
N1310 X-0.0711 Y-0.9974
N1315 X-0.034 Y-0.9994
N1320 X0.0032 Y-1.
N1325 X0.0398 Y-0.9992
N1330 X0.0775 Y-0.997
N1335 X0.1144 Y-0.9934
N1340 X0.1513 Y-0.9885
N1345 X0.1882 Y-0.9821
N1350 X0.2253 Y-0.9743
N1355 X0.2564 Y-0.9666
N1360 X0.2936 Y-0.9559
N1365 X0.3267 Y-0.9451
N1370 X0.3638 Y-0.9314
N1375 X0.4006 Y-0.9161
N1380 X0.4351 Y-0.9003
N1385 X0.4692 Y-0.883
N1390 X0.5028 Y-0.8644
N1395 X0.5329 Y-0.8462
N1400 X0.5639 Y-0.8258
N1405 X0.5944 Y-0.8041
N1410 X0.6265 Y-0.7794
N1415 X0.6631 Y-0.7485
N1420 X0.7054 Y-0.7088
N1425 X0.7257 Y-0.688
N1430 X0.7476 Y-0.6641
N1435 X0.7654 Y-0.6435
N1440 X0.7847 Y-0.6199
N1445 X0.8015 Y-0.5979
N1450 X0.8199 Y-0.5724
N1455 X0.835 Y-0.5501
N1460 X0.851 Y-0.5251
N1465 X0.8783 Y-0.4781
N1470 X0.9026 Y-0.4304
N1475 X0.9142 Y-0.4051
N1480 X0.9262 Y-0.3769
N1485 X0.9359 Y-0.3522
N1490 X0.9459 Y-0.3242
N1495 X0.9623 Y-0.2719
N1500 X0.9757 Y-0.2189
N1505 X0.9814 Y-0.192
N1510 X0.9866 Y-0.163
N1515 X0.9941 Y-0.1079
N1520 X0.9986 Y-0.0523
N1525 X1. Y0.0034
N1530 X0.9982 Y0.059
N1535 X0.9934 Y0.1146
N1540 X0.9853 Y0.1705
N1545 X0.9803 Y0.1974
N1550 X0.974 Y0.2263
N1555 X0.9604 Y0.2786
N1560 X0.9434 Y0.3317
N1565 X0.9339 Y0.3573
N1570 X0.9228 Y0.3852
N1575 X0.9121 Y0.4098
N1580 X0.8991 Y0.4376
N1585 X0.8749 Y0.4843
N1590 X0.8468 Y0.5318
N1595 X0.832 Y0.5547
N1600 X0.8147 Y0.5798
N1605 X0.7987 Y0.6017
N1610 X0.779 Y0.6269
N1615 X0.762 Y0.6475
N1620 X0.7415 Y0.6709
N1625 X0.7227 Y0.6911
N1630 X0.6999 Y0.7141
N1635 X0.6604 Y0.7509
N1640 X0.6203 Y0.7844
N1645 X0.5866 Y0.8098
N1650 X0.5583 Y0.8296
N1655 X0.5295 Y0.8483
N1660 X0.499 Y0.8666
N1665 X0.4613 Y0.8872
N1670 X0.4263 Y0.9045
N1675 X0.3935 Y0.9193
N1680 X0.3586 Y0.9334
N1685 X0.3239 Y0.946
N1690 X0.2893 Y0.9572
N1695 X0.2545 Y0.9671
N1700 X0.22 Y0.9755
N1705 X0.1811 Y0.9834
N1710 X0.1429 Y0.9897
N1715 X0.1073 Y0.9942
N1720 X0.0699 Y0.9975
N1725 X0.0351 Y0.9994
N1730 X-0.0023 Y1.
N1735 X-0.0391 Y0.9992
N1740 X-0.0766 Y0.997
N1745 X-0.1138 Y0.9935
N1750 X-0.1509 Y0.9885
N1755 X-0.188 Y0.9821
N1760 X-0.2228 Y0.9748
N1765 X-0.2773 Y0.9608
N1770 X-0.3317 Y0.9434
N1775 X-0.3573 Y0.9339
N1780 X-0.3852 Y0.9228
N1785 X-0.4098 Y0.9121
N1790 X-0.4376 Y0.8991
N1795 X-0.4843 Y0.8749
N1800 X-0.5318 Y0.8468
N1805 X-0.5547 Y0.832
N1810 X-0.5798 Y0.8147
N1815 X-0.6017 Y0.7987
N1820 X-0.6269 Y0.779
N1825 X-0.6475 Y0.762
N1830 X-0.6709 Y0.7415
N1835 X-0.6911 Y0.7227
N1840 X-0.7142 Y0.6999
N1845 X-0.7509 Y0.6604
N1850 X-0.7842 Y0.6204
N1855 X-0.8015 Y0.5979
N1860 X-0.8199 Y0.5724
N1865 X-0.835 Y0.5501
N1870 X-0.8508 Y0.5254
N1875 X-0.8783 Y0.4781
N1880 X-0.9026 Y0.4305
N1885 X-0.9142 Y0.4051
N1890 X-0.9262 Y0.3769
N1895 X-0.9359 Y0.3522
N1900 X-0.9458 Y0.3245
N1905 X-0.9622 Y0.2721
N1910 X-0.9757 Y0.2189
N1915 X-0.9814 Y0.192
N1920 X-0.9866 Y0.163
N1925 X-0.9941 Y0.1079
N1930 X-0.9986 Y0.0523
N1935 X-1. Y0.
N1940 /M121 (LASER OFF)
N1945 X-1.0001 Y-0.0034 Z0.0003
N1950 X-1.0002 Y-0.0067 Z0.0012
N1955 X-1.0003 Y-0.0098 Z0.0026
N1960 Y-0.0126 Z0.0046
N1965 X-1.0004 Y-0.0151 Z0.007
N1970 X-1.0005 Y-0.017 Z0.0098
N1975 Y-0.0185 Z0.013
N1980 Y-0.0194 Z0.0163
N1985 Y-0.0197 Z0.0197
N1990 G0 Z0.2191
N1995 X-0.5687 Y-0.7084
N2000 Z0.1391
N2005 G1 Z0.0591 F19.685
N2010 /M110 (MEDIA ON)
N2015 X-0.5685 Y-0.7086 Z0.0556
N2020 X-0.5678 Y-0.7091 Z0.0523
N2025 X-0.5666 Y-0.71 Z0.0492
N2030 X-0.5651 Y-0.7112 Z0.0464
N2035 X-0.5631 Y-0.7126 Z0.044
N2040 X-0.5609 Y-0.7144 Z0.042
N2045 X-0.5584 Y-0.7162 Z0.0406
N2050 X-0.5558 Y-0.7182 Z0.0397
N2055 X-0.5531 Y-0.7203 Z0.0394
N2060 /M120 (LASER ON)
N2065 X-0.5406 Y-0.7298
N2070 X-0.5155 Y-0.7478
N2075 X-0.4995 Y-0.7586
N2080 X-0.4774 Y-0.7726
N2085 X-0.4343 Y-0.7976
N2090 X-0.3907 Y-0.8199
N2095 X-0.3675 Y-0.8306
N2100 X-0.3382 Y-0.8429
N2105 X-0.3222 Y-0.8492
N2110 X-0.2941 Y-0.8593
N2115 X-0.2471 Y-0.874
N2120 X-0.2015 Y-0.8857
N2125 X-0.1676 Y-0.8927
N2130 X-0.1314 Y-0.8987
N2135 X-0.095 Y-0.9032
N2140 X-0.067 Y-0.9058
N2145 X-0.0291 Y-0.9078
N2150 X0.0006 Y-0.9083
N2155 X0.04 Y-0.9073
N2160 X0.0711 Y-0.9055
N2165 X0.1067 Y-0.9019
N2170 X0.1353 Y-0.8982
N2175 X0.1715 Y-0.8919
N2180 X0.2043 Y-0.885
N2185 X0.2336 Y-0.8777
N2190 X0.2669 Y-0.8682
N2195 X0.3024 Y-0.8564
N2200 X0.3336 Y-0.8447
N2205 X0.3626 Y-0.8327
N2210 X0.3966 Y-0.817
N2215 X0.428 Y-0.801
N2220 X0.4572 Y-0.7848
N2225 X0.4871 Y-0.7666
N2230 X0.5142 Y-0.7486
N2235 X0.5431 Y-0.7279
N2240 X0.5699 Y-0.7072
N2245 X0.6018 Y-0.6802
N2250 X0.6409 Y-0.6435
N2255 X0.6585 Y-0.6255
N2260 X0.6777 Y-0.6047
N2265 X0.6963 Y-0.5832
N2270 X0.7118 Y-0.5641
N2275 X0.7292 Y-0.5416
N2280 X0.744 Y-0.521
N2285 X0.7622 Y-0.4939
N2290 X0.7716 Y-0.4792
N2295 X0.7979 Y-0.4339
N2300 X0.8199 Y-0.3907
N2305 X0.8306 Y-0.3676
N2310 X0.8413 Y-0.3424
N2315 X0.8502 Y-0.3195
N2320 X0.859 Y-0.295
N2325 X0.874 Y-0.247
N2330 X0.8863 Y-0.1985
N2335 X0.8914 Y-0.1741
N2340 X0.8959 Y-0.1495
N2345 X0.9028 Y-0.0992
N2350 X0.9069 Y-0.0495
N2355 X0.9082 Y0.0028
N2360 X0.9067 Y0.0533
N2365 X0.9025 Y0.1023
N2370 X0.8952 Y0.1535
N2375 X0.8896 Y0.1832
N2380 X0.8848 Y0.2048
N2385 X0.8728 Y0.2513
N2390 X0.8578 Y0.2985
N2395 X0.8477 Y0.326
N2400 X0.8386 Y0.3488
N2405 X0.8254 Y0.3788
N2410 X0.8176 Y0.3956
N2415 X0.7961 Y0.4373
N2420 X0.7687 Y0.4837
N2425 X0.7516 Y0.5098
N2430 X0.7408 Y0.5256
N2435 X0.7243 Y0.548
N2440 X0.7064 Y0.5709
N2445 X0.6908 Y0.5896
N2450 X0.6745 Y0.6083
N2455 X0.655 Y0.6292
N2460 X0.6376 Y0.6468
N2465 X0.6016 Y0.6804
N2470 X0.5644 Y0.7116
N2475 X0.5366 Y0.7328
N2480 X0.5073 Y0.7534
N2485 X0.4813 Y0.7703
N2490 X0.4513 Y0.7882
N2495 X0.421 Y0.8048
N2500 X0.388 Y0.8212
N2505 X0.3579 Y0.8348
N2510 X0.3215 Y0.8494
N2515 X0.2964 Y0.8586
N2520 X0.2611 Y0.8699
N2525 X0.2316 Y0.8782
N2530 X0.2026 Y0.8854
N2535 X0.1621 Y0.8936
N2540 X0.1341 Y0.8983
N2545 X0.1013 Y0.9026
N2550 X0.062 Y0.9061
N2555 X0.0325 Y0.9077
N2560 X-0.0011 Y0.9083
N2565 X-0.0374 Y0.9074
N2570 X-0.073 Y0.9052
N2575 X-0.1039 Y0.9023
N2580 X-0.1382 Y0.8977
N2585 X-0.1721 Y0.8918
N2590 X-0.2064 Y0.8844
N2595 X-0.2528 Y0.8724
N2600 X-0.3016 Y0.8567
N2605 X-0.326 Y0.8478
N2610 X-0.3488 Y0.8386
N2615 X-0.3756 Y0.8269
N2620 X-0.3951 Y0.8178
N2625 X-0.4373 Y0.7961
N2630 X-0.4833 Y0.769
N2635 X-0.5043 Y0.7554
N2640 X-0.5311 Y0.7367
N2645 X-0.5483 Y0.724
N2650 X-0.5674 Y0.7093
N2655 X-0.5936 Y0.6874
N2660 X-0.6082 Y0.6745
N2665 X-0.6292 Y0.655
N2670 X-0.6468 Y0.6376
N2675 X-0.6807 Y0.6013
N2680 X-0.7124 Y0.5634
N2685 X-0.7283 Y0.5427
N2690 X-0.7478 Y0.5154
N2695 X-0.7586 Y0.4995
N2700 X-0.7726 Y0.4775
N2705 X-0.7973 Y0.435
N2710 X-0.8199 Y0.3908
N2715 X-0.8306 Y0.3676
N2720 X-0.8413 Y0.3424
N2725 X-0.8502 Y0.3195
N2730 X-0.8589 Y0.2954
N2735 X-0.8734 Y0.2492
N2740 X-0.8864 Y0.198
N2745 X-0.8927 Y0.1673
N2750 X-0.8957 Y0.1505
N2755 X-0.9029 Y0.0982
N2760 X-0.907 Y0.047
N2765 X-0.9082 Y-0.0028
N2770 X-0.9067 Y-0.0531
N2775 X-0.9025 Y-0.1023
N2780 X-0.8949 Y-0.1552
N2785 X-0.8903 Y-0.1798
N2790 X-0.8848 Y-0.205
N2795 X-0.8723 Y-0.2529
N2800 X-0.8568 Y-0.3016
N2805 X-0.8481 Y-0.325
N2810 X-0.836 Y-0.355
N2815 X-0.8283 Y-0.3726
N2820 X-0.8169 Y-0.397
N2825 X-0.7947 Y-0.4397
N2830 X-0.769 Y-0.4833
N2835 X-0.7554 Y-0.5043
N2840 X-0.7368 Y-0.5311
N2845 X-0.7238 Y-0.5487
N2850 X-0.7067 Y-0.5704
N2855 X-0.6777 Y-0.6046
N2860 X-0.6424 Y-0.642
N2865 X-0.6217 Y-0.6621
N2870 X-0.6031 Y-0.6791
N2875 X-0.5871 Y-0.6931
N2880 X-0.5598 Y-0.7152
N2885 X-0.5531 Y-0.7203
N2890 /M121 (LASER OFF)
N2895 X-0.5504 Y-0.7224 Z0.0397
N2900 X-0.5477 Y-0.7244 Z0.0406
N2905 X-0.5453 Y-0.7263 Z0.042
N2910 X-0.543 Y-0.728 Z0.044
N2915 X-0.5411 Y-0.7295 Z0.0464
N2920 X-0.5395 Y-0.7307 Z0.0492
N2925 X-0.5384 Y-0.7315 Z0.0523
N2930 X-0.5377 Y-0.7321 Z0.0556
N2935 X-0.5374 Y-0.7323 Z0.0591
N2940 G0 Z0.2191
N2945 X-0.0667 Y0.9849
N2950 Z0.1391
N2955 G1 Z0.0591 F19.685
N2960 /M110 (MEDIA ON)
N2965 X-0.067 Z0.0556
N2970 X-0.0679 Y0.9848 Z0.0523
N2975 X-0.0693 Y0.9847 Z0.0492
N2980 X-0.0713 Y0.9845 Z0.0464
N2985 X-0.0737 Y0.9843 Z0.044
N2990 X-0.0765 Y0.984 Z0.042
N2995 X-0.0796 Y0.9837 Z0.0406
N3000 X-0.0829 Y0.9834 Z0.0397
N3005 X-0.0863 Y0.9831 Z0.0394
N3010 /M120 (LASER ON)
N3015 X-0.1123 Y0.9806
N3020 X-0.1489 Y0.9757
N3025 X-0.1856 Y0.9694
N3030 X-0.2198 Y0.9622
N3035 X-0.2738 Y0.9483
N3040 X-0.3274 Y0.9312
N3045 X-0.3528 Y0.9218
N3050 X-0.3803 Y0.9108
N3055 X-0.4046 Y0.9003
N3060 X-0.432 Y0.8874
N3065 X-0.478 Y0.8635
N3070 X-0.525 Y0.8358
N3075 X-0.5477 Y0.8211
N3080 X-0.5723 Y0.8042
N3085 X-0.594 Y0.7883
N3090 X-0.6188 Y0.7689
N3095 X-0.6392 Y0.7521
N3100 X-0.6622 Y0.7319
N3105 X-0.6822 Y0.7133
N3110 X-0.7051 Y0.6906
N3115 X-0.7412 Y0.6518
N3120 X-0.7741 Y0.6124
N3125 X-0.7912 Y0.5901
N3130 X-0.8093 Y0.565
N3135 X-0.8241 Y0.5431
N3140 X-0.8398 Y0.5185
N3145 X-0.8669 Y0.4719
N3150 X-0.8909 Y0.4249
N3155 X-0.9024 Y0.3998
N3160 X-0.9142 Y0.372
N3165 X-0.9238 Y0.3475
N3170 X-0.9336 Y0.3203
N3175 X-0.9498 Y0.2686
N3180 X-0.9631 Y0.216
N3185 X-0.9686 Y0.1895
N3190 X-0.9738 Y0.1609
N3195 X-0.9813 Y0.1065
N3200 X-0.9857 Y0.0514
N3205 X-0.987 Y0.
N3210 X-0.9853 Y-0.0583
N3215 X-0.9805 Y-0.1134
N3220 X-0.9726 Y-0.1683
N3225 X-0.9676 Y-0.195
N3230 X-0.9613 Y-0.2237
N3235 X-0.9479 Y-0.2753
N3240 X-0.9311 Y-0.3274
N3245 X-0.9218 Y-0.3528
N3250 X-0.9108 Y-0.3803
N3255 X-0.9003 Y-0.4046
N3260 X-0.8875 Y-0.432
N3265 X-0.8652 Y-0.4751
N3270 X-0.8358 Y-0.525
N3275 X-0.8211 Y-0.5477
N3280 X-0.8042 Y-0.5723
N3285 X-0.7883 Y-0.594
N3290 X-0.7691 Y-0.6186
N3295 X-0.7389 Y-0.6545
N3300 X-0.6996 Y-0.6963
N3305 X-0.679 Y-0.7163
N3310 X-0.6555 Y-0.7379
N3315 X-0.6351 Y-0.7555
N3320 X-0.6118 Y-0.7745
N3325 X-0.5901 Y-0.7912
N3330 X-0.565 Y-0.8093
N3335 X-0.5431 Y-0.8241
N3340 X-0.5183 Y-0.84
N3345 X-0.4719 Y-0.8669
N3350 X-0.4249 Y-0.8909
N3355 X-0.3998 Y-0.9024
N3360 X-0.372 Y-0.9142
N3365 X-0.3475 Y-0.9238
N3370 X-0.32 Y-0.9337
N3375 X-0.2683 Y-0.9499
N3380 X-0.2164 Y-0.963
N3385 X-0.1818 Y-0.9702
N3390 X-0.1436 Y-0.9765
N3395 X-0.1069 Y-0.9812
N3400 X-0.0702 Y-0.9845
N3405 X-0.0335 Y-0.9864
N3410 X0.0031 Y-0.987
N3415 X0.0393 Y-0.9863
N3420 X0.0759 Y-0.9841
N3425 X0.1129 Y-0.9806
N3430 X0.1493 Y-0.9757
N3435 X0.1858 Y-0.9694
N3440 X0.2224 Y-0.9616
N3445 X0.2545 Y-0.9537
N3450 X0.2884 Y-0.9439
N3455 X0.324 Y-0.9323
N3460 X0.3567 Y-0.9203
N3465 X0.3933 Y-0.9053
N3470 X0.4272 Y-0.8898
N3475 X0.4643 Y-0.8709
N3480 X0.4963 Y-0.8532
N3485 X0.5253 Y-0.8357
N3490 X0.5566 Y-0.8151
N3495 X0.589 Y-0.792
N3500 X0.6195 Y-0.7683
N3505 X0.6545 Y-0.7388
N3510 X0.6963 Y-0.6996
N3515 X0.7163 Y-0.679
N3520 X0.7379 Y-0.6555
N3525 X0.7555 Y-0.6351
N3530 X0.7745 Y-0.6118
N3535 X0.7912 Y-0.5901
N3540 X0.8093 Y-0.565
N3545 X0.8241 Y-0.5431
N3550 X0.84 Y-0.5183
N3555 X0.8669 Y-0.4719
N3560 X0.8909 Y-0.4249
N3565 X0.9024 Y-0.3998
N3570 X0.9142 Y-0.372
N3575 X0.9238 Y-0.3475
N3580 X0.9337 Y-0.32
N3585 X0.9499 Y-0.2683
N3590 X0.9631 Y-0.216
N3595 X0.9686 Y-0.1896
N3600 X0.9738 Y-0.1606
N3605 X0.9813 Y-0.1065
N3610 X0.9857 Y-0.0514
N3615 X0.987 Y0.0034
N3620 X0.9853 Y0.0583
N3625 X0.9805 Y0.1132
N3630 X0.9726 Y0.1683
N3635 X0.9676 Y0.195
N3640 X0.9614 Y0.2234
N3645 X0.9479 Y0.275
N3650 X0.9311 Y0.3274
N3655 X0.9218 Y0.3528
N3660 X0.9108 Y0.3803
N3665 X0.9003 Y0.4046
N3670 X0.8875 Y0.4319
N3675 X0.8636 Y0.478
N3680 X0.8358 Y0.525
N3685 X0.8211 Y0.5477
N3690 X0.8042 Y0.5723
N3695 X0.7883 Y0.594
N3700 X0.7689 Y0.6188
N3705 X0.7521 Y0.6392
N3710 X0.7319 Y0.6622
N3715 X0.7133 Y0.6822
N3720 X0.6906 Y0.7051
N3725 X0.6518 Y0.7412
N3730 X0.6116 Y0.7747
N3735 X0.5825 Y0.7968
N3740 X0.5522 Y0.8181
N3745 X0.5217 Y0.8379
N3750 X0.4929 Y0.8552
N3755 X0.4555 Y0.8756
N3760 X0.4223 Y0.8921
N3765 X0.3883 Y0.9074
N3770 X0.354 Y0.9213
N3775 X0.3198 Y0.9338
N3780 X0.2852 Y0.9449
N3785 X0.2534 Y0.954
N3790 X0.2177 Y0.9627
N3795 X0.1791 Y0.9706
N3800 X0.1441 Y0.9765
N3805 X0.1075 Y0.9812
N3810 X0.0711 Y0.9845
N3815 X0.0344 Y0.9864
N3820 X-0.0023 Y0.987
N3825 X-0.0414 Y0.9861
N3830 X-0.0756 Y0.9841
N3835 X-0.0863 Y0.9831
N3840 /M121 (LASER OFF)
N3845 X-0.0897 Y0.9828 Z0.0397
N3850 X-0.093 Y0.9824 Z0.0406
N3855 X-0.0961 Y0.9821 Z0.042
N3860 X-0.0989 Y0.9819 Z0.044
N3865 X-0.1013 Y0.9816 Z0.0464
N3870 X-0.1032 Y0.9815 Z0.0492
N3875 X-0.1047 Y0.9813 Z0.0523
N3880 X-0.1056 Y0.9812 Z0.0556
N3885 X-0.1059 Z0.0591
N3890 G0 Z0.2584
N3895 X-0.7445 Y0.4981
N3900 Z0.1784
N3905 G1 Z0.0984 F19.685
N3910 /M110 (MEDIA ON)
N3915 X-0.7447 Y0.4978 Z0.095
N3920 X-0.7452 Y0.4971 Z0.0917
N3925 X-0.7459 Y0.4959 Z0.0886
N3930 X-0.747 Y0.4942 Z0.0858
N3935 X-0.7483 Y0.4921 Z0.0833
N3940 X-0.7498 Y0.4898 Z0.0814
N3945 X-0.7515 Y0.4872 Z0.0799
N3950 X-0.7533 Y0.4844 Z0.079
N3955 X-0.7551 Y0.4815 Z0.0787
N3960 /M120 (LASER ON)
N3965 X-0.7617 Y0.4711
N3970 X-0.7866 Y0.4283
N3975 X-0.8083 Y0.3859
N3980 X-0.82 Y0.3602
N3985 X-0.8279 Y0.3419
N3990 X-0.8404 Y0.3096
N3995 X-0.8481 Y0.2875
N4000 X-0.8614 Y0.2454
N4005 X-0.8732 Y0.1992
N4010 X-0.8784 Y0.175
N4015 X-0.8835 Y0.1467
N4020 X-0.8902 Y0.0982
N4025 X-0.8944 Y0.0476
N4030 X-0.8956 Y-0.0022
N4035 X-0.8941 Y-0.0526
N4040 X-0.8899 Y-0.1016
N4045 X-0.8825 Y-0.1531
N4050 X-0.8767 Y-0.1833
N4055 X-0.8724 Y-0.2025
N4060 X-0.86 Y-0.2501
N4065 X-0.8455 Y-0.2955
N4070 X-0.8372 Y-0.3184
N4075 X-0.8244 Y-0.35
N4080 X-0.8168 Y-0.3675
N4085 X-0.8055 Y-0.3915
N4090 X-0.7855 Y-0.4304
N4095 X-0.7583 Y-0.4767
N4100 X-0.7448 Y-0.4974
N4105 X-0.7313 Y-0.5172
N4110 X-0.7138 Y-0.541
N4115 X-0.6995 Y-0.5594
N4120 X-0.6684 Y-0.5962
N4125 X-0.6346 Y-0.632
N4130 X-0.6157 Y-0.6505
N4135 X-0.5948 Y-0.6696
N4140 X-0.5759 Y-0.6859
N4145 X-0.5508 Y-0.7062
N4150 X-0.5351 Y-0.7182
N4155 X-0.5127 Y-0.7344
N4160 X-0.4925 Y-0.7481
N4165 X-0.471 Y-0.7618
N4170 X-0.4286 Y-0.7864
N4175 X-0.3868 Y-0.8079
N4180 X-0.3664 Y-0.8173
N4185 X-0.337 Y-0.8298
N4190 X-0.3182 Y-0.8373
N4195 X-0.2901 Y-0.8473
N4200 X-0.2446 Y-0.8616
N4205 X-0.1947 Y-0.8742
N4210 X-0.1626 Y-0.8808
N4215 X-0.1326 Y-0.8858
N4220 X-0.0988 Y-0.8902
N4225 X-0.065 Y-0.8933
N4230 X-0.0264 Y-0.8952
N4235 X0.0039 Y-0.8956
N4240 X0.0343 Y-0.895
N4245 X0.0727 Y-0.8927
N4250 X0.1004 Y-0.8901
N4255 X0.1396 Y-0.8847
N4260 X0.1712 Y-0.8791
N4265 X0.2021 Y-0.8726
N4270 X0.2304 Y-0.8656
N4275 X0.2653 Y-0.8554
N4280 X0.2928 Y-0.8465
N4285 X0.3268 Y-0.8339
N4290 X0.3551 Y-0.8223
N4295 X0.3857 Y-0.8084
N4300 X0.4207 Y-0.7906
N4305 X0.4512 Y-0.7737
N4310 X0.4784 Y-0.7572
N4315 X0.5092 Y-0.7368
N4320 X0.5315 Y-0.7209
N4325 X0.5608 Y-0.6983
N4330 X0.5943 Y-0.6701
N4335 X0.632 Y-0.6346
N4340 X0.6504 Y-0.6158
N4345 X0.6731 Y-0.5908
N4350 X0.6859 Y-0.576
N4355 X0.7062 Y-0.5508
N4360 X0.7182 Y-0.5351
N4365 X0.7344 Y-0.5127
N4370 X0.7496 Y-0.4901
N4375 X0.7609 Y-0.4724
N4380 X0.785 Y-0.4312
N4385 X0.8086 Y-0.3853
N4390 X0.8191 Y-0.3624
N4395 X0.8296 Y-0.3376
N4400 X0.8384 Y-0.315
N4405 X0.8471 Y-0.2909
N4410 X0.8614 Y-0.2452
N4415 X0.8741 Y-0.1954
N4420 X0.8796 Y-0.1688
N4425 X0.8832 Y-0.1491
N4430 X0.8903 Y-0.0973
N4435 X0.8944 Y-0.0463
N4440 X0.8956 Y0.0027
N4445 X0.8941 Y0.0528
N4450 X0.89 Y0.1005
N4455 X0.8825 Y0.1531
N4460 X0.8779 Y0.1773
N4465 X0.8725 Y0.2024
N4470 X0.861 Y0.2468
N4475 X0.8441 Y0.2994
N4480 X0.8353 Y0.3231
N4485 X0.8279 Y0.3419
N4490 X0.814 Y0.3736
N4495 X0.8064 Y0.3897
N4500 X0.7849 Y0.4314
N4505 X0.7571 Y0.4784
N4510 X0.7461 Y0.4956
N4515 X0.7265 Y0.5238
N4520 X0.7151 Y0.5394
N4525 X0.6953 Y0.5646
N4530 X0.6845 Y0.5777
N4535 X0.6642 Y0.6008
N4540 X0.647 Y0.6194
N4545 X0.6268 Y0.6397
N4550 X0.5922 Y0.6719
N4555 X0.558 Y0.7006
N4560 X0.528 Y0.7235
N4565 X0.5023 Y0.7416
N4570 X0.472 Y0.7612
N4575 X0.4477 Y0.7758
N4580 X0.4124 Y0.795
N4585 X0.3845 Y0.8089
N4590 X0.3493 Y0.8247
N4595 X0.3176 Y0.8374
N4600 X0.2905 Y0.8472
N4605 X0.2578 Y0.8577
N4610 X0.2329 Y0.8649
N4615 X0.1984 Y0.8734
N4620 X0.1596 Y0.8813
N4625 X0.1329 Y0.8858
N4630 X0.0993 Y0.8902
N4635 X0.0637 Y0.8934
N4640 X0.0279 Y0.8952
N4645 X0.0001 Y0.8957
N4650 X-0.0366 Y0.8949
N4655 X-0.072 Y0.8927
N4660 X-0.1053 Y0.8894
N4665 X-0.1362 Y0.8852
N4670 X-0.167 Y0.88
N4675 X-0.1985 Y0.8734
N4680 X-0.2493 Y0.8602
N4685 X-0.2979 Y0.8446
N4690 X-0.3215 Y0.836
N4695 X-0.344 Y0.827
N4700 X-0.3736 Y0.814
N4705 X-0.3897 Y0.8064
N4710 X-0.4335 Y0.7837
N4715 X-0.4778 Y0.7576
N4720 X-0.4979 Y0.7445
N4725 X-0.5155 Y0.7325
N4730 X-0.5404 Y0.7142
N4735 X-0.5605 Y0.6986
N4740 X-0.5854 Y0.6778
N4745 X-0.5999 Y0.6651
N4750 X-0.6204 Y0.646
N4755 X-0.6391 Y0.6275
N4760 X-0.6719 Y0.5922
N4765 X-0.704 Y0.5537
N4770 X-0.7222 Y0.5296
N4775 X-0.7347 Y0.5122
N4780 X-0.7469 Y0.4944
N4785 X-0.7551 Y0.4815
N4790 /M121 (LASER OFF)
N4795 X-0.7569 Y0.4786 Z0.079
N4800 X-0.7587 Y0.4758 Z0.0799
N4805 X-0.7604 Y0.4732 Z0.0814
N4810 X-0.7619 Y0.4708 Z0.0833
N4815 X-0.7632 Y0.4688 Z0.0858
N4820 X-0.7643 Y0.4671 Z0.0886
N4825 X-0.765 Y0.4659 Z0.0917
N4830 X-0.7655 Y0.4651 Z0.095
N4835 X-0.7657 Y0.4649 Z0.0984
N4840 G0 Z0.2584
N4845 X0.9632 Y0.1503
N4850 Z0.1784
N4855 G1 Z0.0984 F19.685
N4860 /M110 (MEDIA ON)
N4865 X0.9631 Y0.1506 Z0.095
N4870 X0.9629 Y0.1514 Z0.0917
N4875 X0.9627 Y0.1529 Z0.0886
N4880 X0.9623 Y0.1548 Z0.0858
N4885 X0.9619 Y0.1572 Z0.0833
N4890 X0.9613 Y0.16 Z0.0814
N4895 X0.9608 Y0.163 Z0.0799
N4900 X0.9601 Y0.1663 Z0.079
N4905 X0.9595 Y0.1696 Z0.0787
N4910 /M120 (LASER ON)
N4915 X0.9552 Y0.1925
N4920 X0.949 Y0.2208
N4925 X0.9358 Y0.2715
N4930 X0.9192 Y0.3233
N4935 X0.91 Y0.3483
N4940 X0.8992 Y0.3754
N4945 X0.8888 Y0.3995
N4950 X0.8761 Y0.4265
N4955 X0.8525 Y0.4719
N4960 X0.8252 Y0.5183
N4965 X0.8106 Y0.5408
N4970 X0.7939 Y0.565
N4975 X0.7782 Y0.5865
N4980 X0.7591 Y0.611
N4985 X0.7425 Y0.6311
N4990 X0.7225 Y0.6538
N4995 X0.7041 Y0.6736
N5000 X0.6818 Y0.6961
N5005 X0.6434 Y0.7317
N5010 X0.6037 Y0.7648
N5015 X0.5753 Y0.7864
N5020 X0.5451 Y0.8077
N5025 X0.5153 Y0.8271
N5030 X0.4867 Y0.8442
N5035 X0.4528 Y0.8629
N5040 X0.4172 Y0.8806
N5045 X0.3833 Y0.8958
N5050 X0.3495 Y0.9096
N5055 X0.3157 Y0.9218
N5060 X0.2784 Y0.9337
N5065 X0.2465 Y0.9427
N5070 X0.2126 Y0.9509
N5075 X0.1796 Y0.9577
N5080 X0.1389 Y0.9644
N5085 X0.1043 Y0.9688
N5090 X0.0701 Y0.9719
N5095 X0.0344 Y0.9738
N5100 X-0.0036 Y0.9744
N5105 X-0.0404 Y0.9736
N5110 X-0.075 Y0.9715
N5115 X-0.1129 Y0.9678
N5120 X-0.1487 Y0.963
N5125 X-0.1832 Y0.957
N5130 X-0.2168 Y0.95
N5135 X-0.2704 Y0.9361
N5140 X-0.3233 Y0.9193
N5145 X-0.3483 Y0.91
N5150 X-0.3754 Y0.8992
N5155 X-0.3995 Y0.8887
N5160 X-0.4265 Y0.8761
N5165 X-0.4719 Y0.8525
N5170 X-0.5183 Y0.8252
N5175 X-0.5408 Y0.8106
N5180 X-0.565 Y0.7939
N5185 X-0.5865 Y0.7782
N5190 X-0.611 Y0.7591
N5195 X-0.6311 Y0.7425
N5200 X-0.6538 Y0.7225
N5205 X-0.6736 Y0.7041
N5210 X-0.6962 Y0.6818
N5215 X-0.7318 Y0.6434
N5220 X-0.7642 Y0.6046
N5225 X-0.7811 Y0.5825
N5230 X-0.799 Y0.5577
N5235 X-0.8136 Y0.5361
N5240 X-0.8291 Y0.5119
N5245 X-0.8559 Y0.4658
N5250 X-0.8796 Y0.4194
N5255 X-0.8909 Y0.3946
N5260 X-0.9026 Y0.3672
N5265 X-0.912 Y0.343
N5270 X-0.9217 Y0.3162
N5275 X-0.9377 Y0.2649
N5280 X-0.9508 Y0.2133
N5285 X-0.9563 Y0.1871
N5290 X-0.9614 Y0.1588
N5295 X-0.9687 Y0.1051
N5300 X-0.9731 Y0.0505
N5305 X-0.9744 Y0.
N5310 X-0.9727 Y-0.0575
N5315 X-0.968 Y-0.112
N5320 X-0.9602 Y-0.1662
N5325 X-0.9552 Y-0.1925
N5330 X-0.949 Y-0.2208
N5335 X-0.9357 Y-0.2718
N5340 X-0.9192 Y-0.3233
N5345 X-0.91 Y-0.3483
N5350 X-0.8992 Y-0.3754
N5355 X-0.8888 Y-0.3995
N5360 X-0.8761 Y-0.4265
N5365 X-0.8542 Y-0.469
N5370 X-0.8252 Y-0.5183
N5375 X-0.8106 Y-0.5408
N5380 X-0.7939 Y-0.565
N5385 X-0.7782 Y-0.5865
N5390 X-0.7593 Y-0.6107
N5395 X-0.7294 Y-0.6461
N5400 X-0.6906 Y-0.6874
N5405 X-0.6703 Y-0.7073
N5410 X-0.6471 Y-0.7285
N5415 X-0.627 Y-0.7459
N5420 X-0.604 Y-0.7646
N5425 X-0.5825 Y-0.7811
N5430 X-0.5577 Y-0.799
N5435 X-0.5361 Y-0.8136
N5440 X-0.5116 Y-0.8292
N5445 X-0.4658 Y-0.8558
N5450 X-0.4194 Y-0.8795
N5455 X-0.3946 Y-0.8909
N5460 X-0.3672 Y-0.9026
N5465 X-0.343 Y-0.912
N5470 X-0.3159 Y-0.9218
N5475 X-0.2649 Y-0.9377
N5480 X-0.2136 Y-0.9507
N5485 X-0.18 Y-0.9577
N5490 X-0.1423 Y-0.964
N5495 X-0.1055 Y-0.9687
N5500 X-0.0693 Y-0.9719
N5505 X-0.0331 Y-0.9738
N5510 X0.0031 Y-0.9744
N5515 X0.0417 Y-0.9735
N5520 X0.0744 Y-0.9716
N5525 X0.1105 Y-0.9681
N5530 X0.145 Y-0.9636
N5535 X0.1834 Y-0.957
N5540 X0.2195 Y-0.9494
N5545 X0.2506 Y-0.9417
N5550 X0.2851 Y-0.9318
N5555 X0.3186 Y-0.9209
N5560 X0.3536 Y-0.908
N5565 X0.3859 Y-0.8947
N5570 X0.422 Y-0.8783
N5575 X0.4552 Y-0.8616
N5580 X0.4873 Y-0.8439
N5585 X0.5176 Y-0.8256
N5590 X0.5514 Y-0.8034
N5595 X0.5811 Y-0.7821
N5600 X0.6091 Y-0.7606
N5605 X0.6461 Y-0.7294
N5610 X0.6874 Y-0.6906
N5615 X0.7073 Y-0.6703
N5620 X0.7285 Y-0.6471
N5625 X0.7459 Y-0.627
N5630 X0.7646 Y-0.604
N5635 X0.7811 Y-0.5825
N5640 X0.799 Y-0.5577
N5645 X0.8136 Y-0.5361
N5650 X0.8293 Y-0.5116
N5655 X0.8559 Y-0.4658
N5660 X0.8796 Y-0.4194
N5665 X0.8909 Y-0.3946
N5670 X0.9026 Y-0.3672
N5675 X0.912 Y-0.343
N5680 X0.9218 Y-0.3159
N5685 X0.9377 Y-0.2649
N5690 X0.9508 Y-0.2133
N5695 X0.9563 Y-0.1871
N5700 X0.9614 Y-0.1585
N5705 X0.9687 Y-0.1051
N5710 X0.9731 Y-0.0505
N5715 X0.9744 Y0.0027
N5720 X0.9727 Y0.0575
N5725 X0.968 Y0.1117
N5730 X0.9602 Y0.1662
N5735 X0.9595 Y0.1696
N5740 /M121 (LASER OFF)
N5745 X0.9589 Y0.173 Z0.079
N5750 X0.9583 Y0.1762 Z0.0799
N5755 X0.9577 Y0.1793 Z0.0814
N5760 X0.9572 Y0.1821 Z0.0833
N5765 X0.9567 Y0.1844 Z0.0858
N5770 X0.9564 Y0.1864 Z0.0886
N5775 X0.9561 Y0.1878 Z0.0917
N5780 X0.9559 Y0.1887 Z0.095
N5785 Y0.189 Z0.0984
N5790 G0 Z0.2978
N5795 X0.4263 Y0.7744
N5800 Z0.2178
N5805 G1 Z0.1378 F19.685
N5810 /M110 (MEDIA ON)
N5815 X0.426 Y0.7745 Z0.1344
N5820 X0.4252 Y0.7749 Z0.1311
N5825 X0.4239 Y0.7755 Z0.128
N5830 X0.4222 Y0.7764 Z0.1251
N5835 X0.42 Y0.7775 Z0.1227
N5840 X0.4175 Y0.7788 Z0.1207
N5845 X0.4147 Y0.7801 Z0.1193
N5850 X0.4117 Y0.7816 Z0.1184
N5855 X0.4087 Y0.7831 Z0.1181
N5860 /M120 (LASER ON)
N5865 X0.3794 Y0.7978
N5870 X0.3466 Y0.8125
N5875 X0.3188 Y0.8239
N5880 X0.2846 Y0.8363
N5885 X0.2574 Y0.8451
N5890 X0.2233 Y0.8547
N5895 X0.1909 Y0.8625
N5900 X0.1605 Y0.8687
N5905 X0.1311 Y0.8737
N5910 X0.094 Y0.8783
N5915 X0.0653 Y0.881
N5920 X0.0296 Y0.8829
N5925 X0.0011 Y0.8834
N5930 X-0.0334 Y0.8828
N5935 X-0.0715 Y0.8805
N5940 X-0.1016 Y0.8775
N5945 X-0.1313 Y0.8736
N5950 X-0.1645 Y0.868
N5955 X-0.1997 Y0.8605
N5960 X-0.2434 Y0.8492
N5965 X-0.2933 Y0.8333
N5970 X-0.3162 Y0.8249
N5975 X-0.3403 Y0.8152
N5980 X-0.3626 Y0.8056
N5985 X-0.3861 Y0.7945
N5990 X-0.4251 Y0.7744
N5995 X-0.4701 Y0.7479
N6000 X-0.4929 Y0.733
N6005 X-0.5093 Y0.7219
N6010 X-0.533 Y0.7045
N6015 X-0.5529 Y0.689
N6020 X-0.5747 Y0.6709
N6025 X-0.5901 Y0.6575
N6030 X-0.612 Y0.6371
N6035 X-0.6292 Y0.6201
N6040 X-0.6621 Y0.5848
N6045 X-0.6916 Y0.5497
N6050 X-0.7124 Y0.5223
N6055 X-0.7237 Y0.5066
N6060 X-0.7384 Y0.4849
N6065 X-0.7505 Y0.4659
N6070 X-0.7758 Y0.4224
N6075 X-0.7975 Y0.38
N6080 X-0.8079 Y0.3574
N6085 X-0.8197 Y0.3293
N6090 X-0.8259 Y0.3137
N6095 X-0.8353 Y0.2873
N6100 X-0.8498 Y0.2412
N6105 X-0.8621 Y0.193
N6110 X-0.8664 Y0.1724
N6115 X-0.8714 Y0.1449
N6120 X-0.8781 Y0.0961
N6125 X-0.8821 Y0.0469
N6130 X-0.8834 Y-0.0022
N6135 X-0.8818 Y-0.0523
N6140 X-0.8775 Y-0.1014
N6145 X-0.8704 Y-0.151
N6150 X-0.8659 Y-0.175
N6155 X-0.8605 Y-0.1997
N6160 X-0.8487 Y-0.2449
N6165 X-0.8333 Y-0.2933
N6170 X-0.8237 Y-0.3193
N6175 X-0.8145 Y-0.3419
N6180 X-0.8031 Y-0.3678
N6185 X-0.7943 Y-0.3865
N6190 X-0.7742 Y-0.4255
N6195 X-0.7479 Y-0.4701
N6200 X-0.7346 Y-0.4906
N6205 X-0.7198 Y-0.5122
N6210 X-0.7038 Y-0.5339
N6215 X-0.6881 Y-0.5539
N6220 X-0.6613 Y-0.5857
N6225 X-0.6269 Y-0.6224
N6230 X-0.5994 Y-0.6489
N6235 X-0.5754 Y-0.6702
N6240 X-0.5477 Y-0.6932
N6245 X-0.5277 Y-0.7085
N6250 X-0.5057 Y-0.7243
N6255 X-0.4857 Y-0.7379
N6260 X-0.4642 Y-0.7515
N6265 X-0.4251 Y-0.7744
N6270 X-0.38 Y-0.7975
N6275 X-0.3574 Y-0.8079
N6280 X-0.3293 Y-0.8197
N6285 X-0.2987 Y-0.8313
N6290 X-0.2897 Y-0.8346
N6295 X-0.2403 Y-0.8501
N6300 X-0.1934 Y-0.862
N6305 X-0.1607 Y-0.8687
N6310 X-0.1263 Y-0.8743
N6315 X-0.0924 Y-0.8785
N6320 X-0.0596 Y-0.8813
N6325 X-0.0296 Y-0.8829
N6330 X0.0029 Y-0.8834
N6335 X0.0401 Y-0.8824
N6340 X0.0717 Y-0.8804
N6345 X0.1014 Y-0.8776
N6350 X0.1343 Y-0.8731
N6355 X0.1668 Y-0.8675
N6360 X0.2007 Y-0.8603
N6365 X0.2274 Y-0.8536
N6370 X0.2616 Y-0.8437
N6375 X0.2885 Y-0.835
N6380 X0.325 Y-0.8214
N6385 X0.3548 Y-0.8089
N6390 X0.3854 Y-0.7948
N6395 X0.4146 Y-0.78
N6400 X0.4451 Y-0.7631
N6405 X0.4741 Y-0.7453
N6410 X0.4966 Y-0.7306
N6415 X0.524 Y-0.7112
N6420 X0.5532 Y-0.6887
N6425 X0.5857 Y-0.6613
N6430 X0.6248 Y-0.6245
N6435 X0.6439 Y-0.6047
N6440 X0.6609 Y-0.5862
N6445 X0.6752 Y-0.5697
N6450 X0.6955 Y-0.5446
N6455 X0.7129 Y-0.5216
N6460 X0.7237 Y-0.5066
N6465 X0.7384 Y-0.4849
N6470 X0.7505 Y-0.4659
N6475 X0.7758 Y-0.4224
N6480 X0.7965 Y-0.3822
N6485 X0.8083 Y-0.3563
N6490 X0.8184 Y-0.3326
N6495 X0.8263 Y-0.3125
N6500 X0.8355 Y-0.2868
N6505 X0.8496 Y-0.2418
N6510 X0.8611 Y-0.197
N6515 X0.8664 Y-0.1724
N6520 X0.8715 Y-0.1445
N6525 X0.8782 Y-0.0955
N6530 X0.8821 Y-0.0469
N6535 X0.8834 Y0.004
N6540 X0.8818 Y0.0531
N6545 X0.8776 Y0.1005
N6550 X0.8706 Y0.1497
N6555 X0.8657 Y0.1759
N6560 X0.8609 Y0.1979
N6565 X0.8484 Y0.246
N6570 X0.833 Y0.2941
N6575 X0.8239 Y0.3187
N6580 X0.8145 Y0.3419
N6585 X0.8065 Y0.3604
N6590 X0.7945 Y0.3862
N6595 X0.7744 Y0.4251
N6600 X0.7479 Y0.4701
N6605 X0.7328 Y0.4933
N6610 X0.7186 Y0.5137
N6615 X0.7047 Y0.5327
N6620 X0.6877 Y0.5545
N6625 X0.6709 Y0.5747
N6630 X0.6543 Y0.5934
N6635 X0.639 Y0.61
N6640 X0.6184 Y0.6307
N6645 X0.5834 Y0.6633
N6650 X0.5489 Y0.6922
N6655 X0.5222 Y0.7125
N6660 X0.4905 Y0.7346
N6665 X0.4685 Y0.7489
N6670 X0.4387 Y0.7668
N6675 X0.4094 Y0.7828
N6680 X0.4087 Y0.7831
N6685 /M121 (LASER OFF)
N6690 X0.4056 Y0.7847 Z0.1184
N6695 X0.4027 Y0.7862 Z0.1193
N6700 X0.3999 Y0.7875 Z0.1207
N6705 X0.3974 Y0.7888 Z0.1227
N6710 X0.3952 Y0.7899 Z0.1251
N6715 X0.3934 Y0.7908 Z0.128
N6720 X0.3921 Y0.7914 Z0.1311
N6725 X0.3913 Y0.7918 Z0.1344
N6730 X0.3911 Y0.7919 Z0.1378
N6735 G0 Z0.2978
N6740 X0.2306 Y-0.9347
N6745 Z0.2178
N6750 G1 Z0.1378 F19.685
N6755 /M110 (MEDIA ON)
N6760 X0.2309 Y-0.9346 Z0.1344
N6765 X0.2318 Y-0.9343 Z0.1311
N6770 X0.2332 Y-0.9339 Z0.128
N6775 X0.2351 Y-0.9334 Z0.1251
N6780 X0.2374 Y-0.9327 Z0.1227
N6785 X0.2401 Y-0.9319 Z0.1207
N6790 X0.2431 Y-0.9311 Z0.1193
N6795 X0.2463 Y-0.9302 Z0.1184
N6800 X0.2495 Y-0.9292 Z0.1181
N6805 /M120 (LASER ON)
N6810 X0.2837 Y-0.9194
N6815 X0.3146 Y-0.9093
N6820 X0.3493 Y-0.8965
N6825 X0.381 Y-0.8835
N6830 X0.4167 Y-0.8672
N6835 X0.4496 Y-0.8507
N6840 X0.4849 Y-0.8311
N6845 X0.5107 Y-0.8155
N6850 X0.5414 Y-0.7954
N6855 X0.5707 Y-0.7747
N6860 X0.6003 Y-0.7519
N6865 X0.638 Y-0.7202
N6870 X0.6788 Y-0.6819
N6875 X0.6984 Y-0.6618
N6880 X0.7193 Y-0.639
N6885 X0.7366 Y-0.619
N6890 X0.755 Y-0.5964
N6895 X0.7714 Y-0.5751
N6900 X0.789 Y-0.5507
N6905 X0.8034 Y-0.5293
N6910 X0.8188 Y-0.5052
N6915 X0.8451 Y-0.46
N6920 X0.8685 Y-0.4141
N6925 X0.8797 Y-0.3896
N6930 X0.8912 Y-0.3626
N6935 X0.9006 Y-0.3387
N6940 X0.9102 Y-0.3119
N6945 X0.9259 Y-0.2615
N6950 X0.9389 Y-0.2106
N6955 X0.9443 Y-0.1846
N6960 X0.9493 Y-0.1565
N6965 X0.9565 Y-0.1038
N6970 X0.9608 Y-0.0497
N6975 X0.9621 Y0.0033
N6980 X0.9605 Y0.0568
N6985 X0.9558 Y0.1104
N6990 X0.9481 Y0.1641
N6995 X0.9432 Y0.1902
N7000 X0.9371 Y0.2181
N7005 X0.924 Y0.2681
N7010 X0.9077 Y0.3192
N7015 X0.8985 Y0.344
N7020 X0.8879 Y0.3707
N7025 X0.8775 Y0.3945
N7030 X0.8651 Y0.4211
N7035 X0.8434 Y0.4631
N7040 X0.8148 Y0.5118
N7045 X0.8003 Y0.534
N7050 X0.7839 Y0.5579
N7055 X0.7683 Y0.5791
N7060 X0.7495 Y0.6033
N7065 X0.7331 Y0.6232
N7070 X0.7134 Y0.6455
N7075 X0.6952 Y0.6651
N7080 X0.6732 Y0.6874
N7085 X0.6353 Y0.7226
N7090 X0.5997 Y0.7524
N7095 X0.5681 Y0.7765
N7100 X0.5383 Y0.7975
N7105 X0.507 Y0.8178
N7110 X0.4768 Y0.8356
N7115 X0.4445 Y0.8533
N7120 X0.4119 Y0.8695
N7125 X0.3785 Y0.8845
N7130 X0.3451 Y0.8981
N7135 X0.3105 Y0.9106
N7140 X0.2765 Y0.9215
N7145 X0.2475 Y0.9298
N7150 X0.2118 Y0.9386
N7155 X0.1778 Y0.9456
N7160 X0.1418 Y0.9517
N7165 X0.106 Y0.9563
N7170 X0.0701 Y0.9596
N7175 X0.0362 Y0.9615
N7180 X-0.0018 Y0.9622
N7185 X-0.0403 Y0.9613
N7190 X-0.0728 Y0.9594
N7195 X-0.1085 Y0.956
N7200 X-0.1426 Y0.9516
N7205 X-0.1809 Y0.945
N7210 X-0.214 Y0.9381
N7215 X-0.267 Y0.9244
N7220 X-0.3192 Y0.9077
N7225 X-0.344 Y0.8985
N7230 X-0.3707 Y0.8879
N7235 X-0.3945 Y0.8775
N7240 X-0.4211 Y0.8651
N7245 X-0.4631 Y0.8434
N7250 X-0.5118 Y0.8148
N7255 X-0.534 Y0.8003
N7260 X-0.5579 Y0.7839
N7265 X-0.5791 Y0.7683
N7270 X-0.6033 Y0.7495
N7275 X-0.6232 Y0.7331
N7280 X-0.6456 Y0.7134
N7285 X-0.6651 Y0.6952
N7290 X-0.6874 Y0.6732
N7295 X-0.7226 Y0.6353
N7300 X-0.7546 Y0.5969
N7305 X-0.7714 Y0.5751
N7310 X-0.789 Y0.5507
N7315 X-0.8034 Y0.5293
N7320 X-0.8188 Y0.5052
N7325 X-0.8451 Y0.46
N7330 X-0.8685 Y0.4141
N7335 X-0.8797 Y0.3896
N7340 X-0.8912 Y0.3626
N7345 X-0.9006 Y0.3387
N7350 X-0.9101 Y0.3122
N7355 X-0.9259 Y0.2615
N7360 X-0.9389 Y0.2106
N7365 X-0.9443 Y0.1846
N7370 X-0.9493 Y0.1568
N7375 X-0.9565 Y0.1038
N7380 X-0.9608 Y0.0497
N7385 X-0.9622 Y0.
N7390 X-0.9605 Y-0.0568
N7395 X-0.9558 Y-0.1106
N7400 X-0.9481 Y-0.1641
N7405 X-0.9432 Y-0.1902
N7410 X-0.9371 Y-0.2181
N7415 X-0.925 Y-0.2649
N7420 X-0.9077 Y-0.3192
N7425 X-0.8985 Y-0.344
N7430 X-0.8879 Y-0.3707
N7435 X-0.8775 Y-0.3945
N7440 X-0.8651 Y-0.4211
N7445 X-0.8434 Y-0.4631
N7450 X-0.8148 Y-0.5118
N7455 X-0.8003 Y-0.534
N7460 X-0.7839 Y-0.5579
N7465 X-0.7683 Y-0.5791
N7470 X-0.7497 Y-0.603
N7475 X-0.7202 Y-0.638
N7480 X-0.6819 Y-0.6788
N7485 X-0.6618 Y-0.6984
N7490 X-0.639 Y-0.7193
N7495 X-0.619 Y-0.7366
N7500 X-0.5964 Y-0.755
N7505 X-0.5751 Y-0.7714
N7510 X-0.5507 Y-0.789
N7515 X-0.5293 Y-0.8034
N7520 X-0.5052 Y-0.8188
N7525 X-0.46 Y-0.8451
N7530 X-0.4141 Y-0.8685
N7535 X-0.3896 Y-0.8797
N7540 X-0.3626 Y-0.8912
N7545 X-0.3387 Y-0.9006
N7550 X-0.3119 Y-0.9102
N7555 X-0.2615 Y-0.9259
N7560 X-0.2108 Y-0.9388
N7565 X-0.1757 Y-0.946
N7570 X-0.14 Y-0.9519
N7575 X-0.1043 Y-0.9565
N7580 X-0.0685 Y-0.9597
N7585 X-0.0353 Y-0.9615
N7590 X0.0004 Y-0.9622
N7595 X0.0389 Y-0.9614
N7600 X0.0711 Y-0.9596
N7605 X0.1092 Y-0.9559
N7610 X0.143 Y-0.9515
N7615 X0.181 Y-0.945
N7620 X0.218 Y-0.9372
N7625 X0.2476 Y-0.9298
N7630 X0.2495 Y-0.9292
N7635 /M121 (LASER OFF)
N7640 X0.2528 Y-0.9283 Z0.1184
N7645 X0.256 Y-0.9273 Z0.1193
N7650 X0.259 Y-0.9265 Z0.1207
N7655 X0.2617 Y-0.9257 Z0.1227
N7660 X0.264 Y-0.925 Z0.1251
N7665 X0.2659 Y-0.9245 Z0.128
N7670 X0.2673 Y-0.9241 Z0.1311
N7675 X0.2682 Y-0.9238 Z0.1344
N7680 X0.2685 Z0.1378
N7685 G0 Z0.3372
N7690 X0.7975 Y-0.3512
N7695 Z0.2572
N7700 G1 Z0.1772 F19.685
N7705 /M110 (MEDIA ON)
N7710 X0.7977 Y-0.351 Z0.1737
N7715 X0.798 Y-0.3501 Z0.1704
N7720 X0.7986 Y-0.3488 Z0.1673
N7725 X0.7993 Y-0.347 Z0.1645
N7730 X0.8003 Y-0.3448 Z0.1621
N7735 X0.8014 Y-0.3422 Z0.1601
N7740 X0.8026 Y-0.3393 Z0.1587
N7745 X0.8039 Y-0.3363 Z0.1578
N7750 X0.8052 Y-0.3331 Z0.1575
N7755 /M120 (LASER ON)
N7760 X0.8072 Y-0.3285
N7765 X0.8166 Y-0.3042
N7770 X0.8242 Y-0.2831
N7775 X0.8376 Y-0.2405
N7780 X0.8508 Y-0.1884
N7785 X0.8549 Y-0.1694
N7790 X0.8597 Y-0.1422
N7795 X0.8663 Y-0.0942
N7800 X0.8703 Y-0.0446
N7805 X0.8715 Y0.0031
N7810 X0.8701 Y0.0493
N7815 X0.8658 Y0.0991
N7820 X0.8586 Y0.149
N7825 X0.8542 Y0.1726
N7830 X0.8489 Y0.1971
N7835 X0.8377 Y0.2404
N7840 X0.8224 Y0.2882
N7845 X0.812 Y0.3165
N7850 X0.8058 Y0.3319
N7855 X0.7925 Y0.3624
N7860 X0.7823 Y0.3838
N7865 X0.7638 Y0.4196
N7870 X0.7395 Y0.4612
N7875 X0.7219 Y0.4881
N7880 X0.7089 Y0.5068
N7885 X0.6971 Y0.523
N7890 X0.6789 Y0.5464
N7895 X0.6635 Y0.565
N7900 X0.6425 Y0.5887
N7905 X0.6294 Y0.6028
N7910 X0.6101 Y0.6222
N7915 X0.5755 Y0.6544
N7920 X0.5402 Y0.6839
N7925 X0.5139 Y0.7038
N7930 X0.4894 Y0.7211
N7935 X0.4604 Y0.7399
N7940 X0.4305 Y0.7576
N7945 X0.4057 Y0.7713
N7950 X0.3724 Y0.7879
N7955 X0.3449 Y0.8003
N7960 X0.315 Y0.8125
N7965 X0.2845 Y0.8237
N7970 X0.2505 Y0.8347
N7975 X0.2206 Y0.8431
N7980 X0.1884 Y0.8508
N7985 X0.1613 Y0.8565
N7990 X0.1228 Y0.8627
N7995 X0.0906 Y0.8667
N8000 X0.0652 Y0.8691
N8005 X0.0317 Y0.8709
N8010 X-0.0029 Y0.8715
N8015 X-0.0389 Y0.8705
N8020 X-0.0636 Y0.8692
N8025 X-0.0997 Y0.8657
N8030 X-0.1297 Y0.8618
N8035 X-0.1624 Y0.8563
N8040 X-0.1941 Y0.8496
N8045 X-0.2401 Y0.8378
N8050 X-0.2894 Y0.822
N8055 X-0.312 Y0.8137
N8060 X-0.3389 Y0.8029
N8065 X-0.3605 Y0.7934
N8070 X-0.3793 Y0.7846
N8075 X-0.42 Y0.7636
N8080 X-0.4638 Y0.7378
N8085 X-0.4841 Y0.7247
N8090 X-0.5053 Y0.71
N8095 X-0.5249 Y0.6957
N8100 X-0.5464 Y0.6789
N8105 X-0.565 Y0.6635
N8110 X-0.5882 Y0.643
N8115 X-0.6053 Y0.6269
N8120 X-0.6209 Y0.6115
N8125 X-0.6544 Y0.5755
N8130 X-0.6822 Y0.5424
N8135 X-0.702 Y0.5164
N8140 X-0.712 Y0.5026
N8145 X-0.7286 Y0.4782
N8150 X-0.743 Y0.4551
N8155 X-0.7654 Y0.4167
N8160 X-0.7858 Y0.3769
N8165 X-0.7981 Y0.35
N8170 X-0.8122 Y0.3158
N8175 X-0.8225 Y0.2879
N8180 X-0.8388 Y0.236
N8185 X-0.8504 Y0.1904
N8190 X-0.8554 Y0.1668
N8195 X-0.8597 Y0.1427
N8200 X-0.8662 Y0.0956
N8205 X-0.8703 Y0.0446
N8210 X-0.8715 Y-0.0012
N8215 X-0.8701 Y-0.0485
N8220 X-0.8657 Y-0.1
N8225 X-0.8589 Y-0.1476
N8230 X-0.854 Y-0.1736
N8235 X-0.8488 Y-0.1971
N8240 X-0.8369 Y-0.2429
N8245 X-0.822 Y-0.2894
N8250 X-0.8137 Y-0.312
N8255 X-0.8035 Y-0.3374
N8260 X-0.7956 Y-0.3557
N8265 X-0.7838 Y-0.3809
N8270 X-0.7638 Y-0.4197
N8275 X-0.7378 Y-0.4638
N8280 X-0.7232 Y-0.4863
N8285 X-0.7122 Y-0.5023
N8290 X-0.6949 Y-0.5259
N8295 X-0.6805 Y-0.5443
N8300 X-0.6524 Y-0.5778
N8305 X-0.6158 Y-0.6166
N8310 X-0.5955 Y-0.6363
N8315 X-0.5797 Y-0.6508
N8320 X-0.5567 Y-0.6704
N8325 X-0.5415 Y-0.6829
N8330 X-0.518 Y-0.7008
N8335 X-0.5015 Y-0.7127
N8340 X-0.4783 Y-0.7285
N8345 X-0.4596 Y-0.7404
N8350 X-0.4176 Y-0.7649
N8355 X-0.3748 Y-0.7868
N8360 X-0.3557 Y-0.7956
N8365 X-0.3269 Y-0.8078
N8370 X-0.3039 Y-0.8167
N8375 X-0.2857 Y-0.8233
N8380 X-0.2367 Y-0.8387
N8385 X-0.1918 Y-0.8501
N8390 X-0.161 Y-0.8565
N8395 X-0.1303 Y-0.8617
N8400 X-0.0936 Y-0.8664
N8405 X-0.0639 Y-0.8691
N8410 X-0.0298 Y-0.871
N8415 X0.0004 Y-0.8715
N8420 X0.0357 Y-0.8708
N8425 X0.0657 Y-0.869
N8430 X0.0984 Y-0.8659
N8435 X0.1329 Y-0.8613
N8440 X0.1673 Y-0.8552
N8445 X0.195 Y-0.8494
N8450 X0.228 Y-0.8411
N8455 X0.2551 Y-0.8333
N8460 X0.2884 Y-0.8223
N8465 X0.3201 Y-0.8105
N8470 X0.3503 Y-0.7979
N8475 X0.3756 Y-0.7864
N8480 X0.4084 Y-0.7699
N8485 X0.4392 Y-0.7528
N8490 X0.4628 Y-0.7385
N8495 X0.4911 Y-0.7199
N8500 X0.5212 Y-0.6984
N8505 X0.5468 Y-0.6785
N8510 X0.5778 Y-0.6524
N8515 X0.616 Y-0.6165
N8520 X0.6318 Y-0.6002
N8525 X0.6516 Y-0.5787
N8530 X0.6673 Y-0.5606
N8535 X0.6863 Y-0.5371
N8540 X0.6968 Y-0.5235
N8545 X0.7146 Y-0.4989
N8550 X0.728 Y-0.4791
N8555 X0.7414 Y-0.458
N8560 X0.7636 Y-0.4199
N8565 X0.7867 Y-0.3749
N8570 X0.7969 Y-0.3526
N8575 X0.8052 Y-0.3331
N8580 /M121 (LASER OFF)
N8585 X0.8066 Y-0.33 Z0.1578
N8590 X0.8079 Y-0.3269 Z0.1587
N8595 X0.8091 Y-0.3241 Z0.1601
N8600 X0.8102 Y-0.3215 Z0.1621
N8605 X0.8111 Y-0.3192 Z0.1645
N8610 X0.8119 Y-0.3174 Z0.1673
N8615 X0.8125 Y-0.3161 Z0.1704
N8620 X0.8128 Y-0.3153 Z0.1737
N8625 X0.8129 Y-0.315 Z0.1772
N8630 G0 Z0.3372
N8635 X-0.8995 Y-0.3071
N8640 Z0.2572
N8645 G1 Z0.1772 F19.685
N8650 /M110 (MEDIA ON)
N8655 X-0.8993 Y-0.3073 Z0.1737
N8660 X-0.899 Y-0.3082 Z0.1704
N8665 X-0.8985 Y-0.3095 Z0.1673
N8670 X-0.8979 Y-0.3114 Z0.1645
N8675 X-0.897 Y-0.3137 Z0.1621
N8680 X-0.896 Y-0.3163 Z0.1601
N8685 X-0.895 Y-0.3192 Z0.1587
N8690 X-0.8938 Y-0.3223 Z0.1578
N8695 X-0.8926 Y-0.3255 Z0.1575
N8700 /M120 (LASER ON)
N8705 X-0.8874 Y-0.3398
N8710 X-0.8768 Y-0.3662
N8715 X-0.8666 Y-0.3898
N8720 X-0.8543 Y-0.4159
N8725 X-0.833 Y-0.4573
N8730 X-0.8047 Y-0.5055
N8735 X-0.7904 Y-0.5275
N8740 X-0.7741 Y-0.551
N8745 X-0.7588 Y-0.572
N8750 X-0.7404 Y-0.5956
N8755 X-0.7113 Y-0.6301
N8760 X-0.6735 Y-0.6704
N8765 X-0.6535 Y-0.6898
N8770 X-0.631 Y-0.7104
N8775 X-0.6115 Y-0.7273
N8780 X-0.589 Y-0.7457
N8785 X-0.5679 Y-0.7618
N8790 X-0.5439 Y-0.7792
N8795 X-0.5227 Y-0.7935
N8800 X-0.4989 Y-0.8087
N8805 X-0.4542 Y-0.8346
N8810 X-0.409 Y-0.8577
N8815 X-0.3848 Y-0.8688
N8820 X-0.3581 Y-0.8802
N8825 X-0.3344 Y-0.8894
N8830 X-0.308 Y-0.8989
N8835 X-0.2583 Y-0.9145
N8840 X-0.2082 Y-0.9272
N8845 X-0.1736 Y-0.9343
N8850 X-0.1387 Y-0.9401
N8855 X-0.1041 Y-0.9445
N8860 X-0.0684 Y-0.9477
N8865 X-0.0349 Y-0.9496
N8870 X0.0011 Y-0.9502
N8875 X0.0396 Y-0.9494
N8880 X0.0703 Y-0.9477
N8885 X0.1079 Y-0.9441
N8890 X0.1412 Y-0.9397
N8895 X0.178 Y-0.9334
N8900 X0.2144 Y-0.9258
N8905 X0.2447 Y-0.9182
N8910 X0.2817 Y-0.9075
N8915 X0.3102 Y-0.8982
N8920 X0.3438 Y-0.8859
N8925 X0.3763 Y-0.8726
N8930 X0.4115 Y-0.8565
N8935 X0.4444 Y-0.8399
N8940 X0.4789 Y-0.8208
N8945 X0.5045 Y-0.8053
N8950 X0.5339 Y-0.7861
N8955 X0.5651 Y-0.7639
N8960 X0.5927 Y-0.7427
N8965 X0.6301 Y-0.7113
N8970 X0.6704 Y-0.6735
N8975 X0.6898 Y-0.6535
N8980 X0.7104 Y-0.631
N8985 X0.7273 Y-0.6115
N8990 X0.7457 Y-0.589
N8995 X0.7618 Y-0.5679
N9000 X0.7792 Y-0.5439
N9005 X0.7935 Y-0.5227
N9010 X0.8087 Y-0.4989
N9015 X0.8346 Y-0.4542
N9020 X0.8577 Y-0.409
N9025 X0.8688 Y-0.3848
N9030 X0.8802 Y-0.3581
N9035 X0.8894 Y-0.3344
N9040 X0.8989 Y-0.308
N9045 X0.9145 Y-0.2583
N9050 X0.9272 Y-0.2079
N9055 X0.9326 Y-0.1823
N9060 X0.9376 Y-0.1545
N9065 X0.9447 Y-0.1025
N9070 X0.949 Y-0.0486
N9075 X0.9502 Y0.0036
N9080 X0.9486 Y0.0562
N9085 X0.944 Y0.109
N9090 X0.9363 Y0.1621
N9095 X0.9315 Y0.1879
N9100 X0.9255 Y0.2154
N9105 X0.9135 Y0.2617
N9110 X0.8964 Y0.3153
N9115 X0.8874 Y0.3398
N9120 X0.8768 Y0.3662
N9125 X0.8666 Y0.3898
N9130 X0.8543 Y0.4159
N9135 X0.833 Y0.4573
N9140 X0.8047 Y0.5055
N9145 X0.7904 Y0.5275
N9150 X0.7741 Y0.551
N9155 X0.7588 Y0.572
N9160 X0.7402 Y0.5958
N9165 X0.7238 Y0.6157
N9170 X0.7046 Y0.6376
N9175 X0.6865 Y0.657
N9180 X0.6648 Y0.6789
N9185 X0.6274 Y0.7136
N9190 X0.5922 Y0.7432
N9195 X0.561 Y0.7669
N9200 X0.5319 Y0.7874
N9205 X0.5007 Y0.8076
N9210 X0.4708 Y0.8254
N9215 X0.439 Y0.8427
N9220 X0.4071 Y0.8586
N9225 X0.3741 Y0.8735
N9230 X0.3419 Y0.8866
N9235 X0.306 Y0.8996
N9240 X0.2731 Y0.9101
N9245 X0.2388 Y0.9197
N9250 X0.2114 Y0.9265
N9255 X0.1756 Y0.9339
N9260 X0.139 Y0.94
N9265 X0.106 Y0.9443
N9270 X0.0706 Y0.9476
N9275 X0.0339 Y0.9496
N9280 X0.0004 Y0.9503
N9285 X-0.0378 Y0.9495
N9290 X-0.0719 Y0.9475
N9295 X-0.1073 Y0.9441
N9300 X-0.1408 Y0.9398
N9305 X-0.1782 Y0.9334
N9310 X-0.2146 Y0.9256
N9315 X-0.2617 Y0.9135
N9320 X-0.3153 Y0.8964
N9325 X-0.3398 Y0.8874
N9330 X-0.3662 Y0.8768
N9335 X-0.3898 Y0.8666
N9340 X-0.4159 Y0.8543
N9345 X-0.4573 Y0.833
N9350 X-0.5055 Y0.8047
N9355 X-0.5275 Y0.7904
N9360 X-0.551 Y0.7741
N9365 X-0.572 Y0.7588
N9370 X-0.5958 Y0.7402
N9375 X-0.6157 Y0.7238
N9380 X-0.6376 Y0.7046
N9385 X-0.657 Y0.6865
N9390 X-0.6789 Y0.6648
N9395 X-0.7136 Y0.6274
N9400 X-0.7453 Y0.5895
N9405 X-0.7618 Y0.5679
N9410 X-0.7792 Y0.5439
N9415 X-0.7935 Y0.5227
N9420 X-0.8087 Y0.4989
N9425 X-0.8346 Y0.4542
N9430 X-0.8577 Y0.409
N9435 X-0.8688 Y0.3848
N9440 X-0.8802 Y0.3581
N9445 X-0.8894 Y0.3344
N9450 X-0.8989 Y0.308
N9455 X-0.9145 Y0.2583
N9460 X-0.9272 Y0.2079
N9465 X-0.9326 Y0.1823
N9470 X-0.9375 Y0.1548
N9475 X-0.9447 Y0.1025
N9480 X-0.949 Y0.0486
N9485 X-0.9503 Y0.
N9490 X-0.9486 Y-0.0562
N9495 X-0.9439 Y-0.1093
N9500 X-0.9363 Y-0.1621
N9505 X-0.9315 Y-0.1879
N9510 X-0.9255 Y-0.2154
N9515 X-0.9135 Y-0.2617
N9520 X-0.8964 Y-0.3153
N9525 X-0.8926 Y-0.3255
N9530 /M121 (LASER OFF)
N9535 X-0.8915 Y-0.3287 Z0.1578
N9540 X-0.8903 Y-0.3318 Z0.1587
N9545 X-0.8892 Y-0.3348 Z0.1601
N9550 X-0.8883 Y-0.3374 Z0.1621
N9555 X-0.8874 Y-0.3397 Z0.1645
N9560 X-0.8868 Y-0.3415 Z0.1673
N9565 X-0.8863 Y-0.3429 Z0.1704
N9570 X-0.8859 Y-0.3437 Z0.1737
N9575 X-0.8858 Y-0.344 Z0.1772
N9580 G0 Z0.3765
N9585 X-0.2765 Y-0.8141
N9590 Z0.2965
N9595 G1 Z0.2165 F19.685
N9600 /M110 (MEDIA ON)
N9605 X-0.2762 Y-0.8142 Z0.2131
N9610 X-0.2754 Y-0.8145 Z0.2098
N9615 X-0.274 Y-0.8149 Z0.2067
N9620 X-0.2721 Y-0.8155 Z0.2039
N9625 X-0.2698 Y-0.8162 Z0.2015
N9630 X-0.2671 Y-0.8171 Z0.1995
N9635 X-0.2642 Y-0.818 Z0.198
N9640 X-0.261 Y-0.819 Z0.1971
N9645 X-0.2577 Y-0.82 Z0.1969
N9650 /M120 (LASER ON)
N9655 X-0.2338 Y-0.8275
N9660 X-0.1903 Y-0.8386
N9665 X-0.1539 Y-0.846
N9670 X-0.1236 Y-0.851
N9675 X-0.0946 Y-0.8547
N9680 X-0.0598 Y-0.8578
N9685 X-0.032 Y-0.8593
N9690 X0.0044 Y-0.8599
N9695 X0.0344 Y-0.8592
N9700 X0.0699 Y-0.857
N9705 X0.0953 Y-0.8547
N9710 X0.1296 Y-0.8501
N9715 X0.1662 Y-0.8436
N9720 X0.1919 Y-0.8383
N9725 X0.225 Y-0.8299
N9730 X0.2519 Y-0.8222
N9735 X0.2846 Y-0.8114
N9740 X0.3127 Y-0.801
N9745 X0.342 Y-0.7889
N9750 X0.3739 Y-0.7743
N9755 X0.4045 Y-0.7588
N9760 X0.4334 Y-0.7427
N9765 X0.4572 Y-0.7283
N9770 X0.4847 Y-0.7103
N9775 X0.5125 Y-0.6905
N9780 X0.5386 Y-0.6703
N9785 X0.5702 Y-0.6437
N9790 X0.6068 Y-0.6093
N9795 X0.6255 Y-0.59
N9800 X0.642 Y-0.5721
N9805 X0.6602 Y-0.551
N9810 X0.6724 Y-0.5361
N9815 X0.6904 Y-0.5126
N9820 X0.7045 Y-0.493
N9825 X0.7209 Y-0.4687
N9830 X0.7317 Y-0.4516
N9835 X0.7537 Y-0.4139
N9840 X0.7763 Y-0.3699
N9845 X0.7864 Y-0.3479
N9850 X0.7965 Y-0.3241
N9855 X0.805 Y-0.3022
N9860 X0.8133 Y-0.2793
N9865 X0.827 Y-0.2354
N9870 X0.8392 Y-0.1878
N9875 X0.845 Y-0.1589
N9880 X0.848 Y-0.1422
N9885 X0.8549 Y-0.0923
N9890 X0.8587 Y-0.0465
N9895 X0.8599 Y0.0013
N9900 X0.8584 Y0.05
N9905 X0.8544 Y0.097
N9910 X0.8473 Y0.147
N9915 X0.8428 Y0.1704
N9920 X0.8376 Y0.1944
N9925 X0.8258 Y0.2397
N9930 X0.8104 Y0.2874
N9935 X0.8039 Y0.3053
N9940 X0.7935 Y0.3313
N9945 X0.7844 Y0.3523
N9950 X0.7733 Y0.376
N9955 X0.7538 Y0.4138
N9960 X0.728 Y0.4576
N9965 X0.715 Y0.4777
N9970 X0.7006 Y0.4986
N9975 X0.685 Y0.5198
N9980 X0.6728 Y0.5356
N9985 X0.6515 Y0.5612
N9990 X0.6403 Y0.574
N9995 X0.6201 Y0.5957
N10000 X0.6044 Y0.6117
N10005 X0.5679 Y0.6457
N10010 X0.5359 Y0.6725
N10015 X0.505 Y0.6959
N10020 X0.4797 Y0.7137
N10025 X0.4547 Y0.7299
N10030 X0.429 Y0.7453
N10035 X0.4002 Y0.7611
N10040 X0.3675 Y0.7774
N10045 X0.3401 Y0.7898
N10050 X0.3072 Y0.8031
N10055 X0.2807 Y0.8128
N10060 X0.2472 Y0.8236
N10065 X0.2202 Y0.8312
N10070 X0.189 Y0.8389
N10075 X0.1563 Y0.8456
N10080 X0.1268 Y0.8505
N10085 X0.0921 Y0.855
N10090 X0.0639 Y0.8576
N10095 X0.0282 Y0.8594
N10100 X-0.001 Y0.8599
N10105 X-0.0356 Y0.8591
N10110 X-0.064 Y0.8575
N10115 X-0.0974 Y0.8544
N10120 X-0.1308 Y0.8499
N10125 X-0.1586 Y0.8452
N10130 X-0.1902 Y0.8386
N10135 X-0.2368 Y0.8267
N10140 X-0.284 Y0.8117
N10145 X-0.312 Y0.8013
N10150 X-0.3303 Y0.7939
N10155 X-0.3541 Y0.7836
N10160 X-0.3743 Y0.7741
N10165 X-0.4138 Y0.7538
N10170 X-0.4557 Y0.7293
N10175 X-0.4784 Y0.7145
N10180 X-0.4978 Y0.7012
N10185 X-0.5231 Y0.6824
N10190 X-0.5383 Y0.6706
N10195 X-0.5612 Y0.6515
N10200 X-0.5811 Y0.6338
N10205 X-0.5979 Y0.6179
N10210 X-0.6117 Y0.6044
N10215 X-0.6457 Y0.5679
N10220 X-0.6726 Y0.5358
N10225 X-0.6904 Y0.5127
N10230 X-0.7045 Y0.493
N10235 X-0.7197 Y0.4705
N10240 X-0.7301 Y0.4543
N10245 X-0.7552 Y0.4111
N10250 X-0.776 Y0.3704
N10255 X-0.7851 Y0.3509
N10260 X-0.7977 Y0.3211
N10265 X-0.812 Y0.2832
N10270 X-0.827 Y0.2354
N10275 X-0.8393 Y0.1871
N10280 X-0.8442 Y0.1637
N10285 X-0.8482 Y0.1411
N10290 X-0.8548 Y0.0936
N10295 X-0.8587 Y0.044
N10300 X-0.8599 Y-0.0027
N10305 X-0.8586 Y-0.0481
N10310 X-0.8542 Y-0.0987
N10315 X-0.8477 Y-0.1444
N10320 X-0.8419 Y-0.1751
N10325 X-0.8375 Y-0.1948
N10330 X-0.8266 Y-0.2371
N10335 X-0.8111 Y-0.2856
N10340 X-0.802 Y-0.3102
N10345 X-0.795 Y-0.3278
N10350 X-0.7853 Y-0.3505
N10355 X-0.7736 Y-0.3755
N10360 X-0.7538 Y-0.4138
N10365 X-0.7265 Y-0.46
N10370 X-0.7136 Y-0.4798
N10375 X-0.7012 Y-0.4978
N10380 X-0.6824 Y-0.5231
N10385 X-0.6715 Y-0.5372
N10390 X-0.6437 Y-0.5702
N10395 X-0.6093 Y-0.6068
N10400 X-0.5896 Y-0.6259
N10405 X-0.5644 Y-0.6487
N10410 X-0.5553 Y-0.6566
N10415 X-0.5361 Y-0.6723
N10420 X-0.5164 Y-0.6876
N10425 X-0.4922 Y-0.7051
N10430 X-0.4708 Y-0.7195
N10435 X-0.4519 Y-0.7315
N10440 X-0.4112 Y-0.7552
N10445 X-0.3735 Y-0.7745
N10450 X-0.3479 Y-0.7864
N10455 X-0.3241 Y-0.7965
N10460 X-0.3022 Y-0.805
N10465 X-0.2792 Y-0.8133
N10470 X-0.2577 Y-0.82
N10475 /M121 (LASER OFF)
N10480 X-0.2545 Y-0.821 Z0.1971
N10485 X-0.2513 Y-0.822 Z0.198
N10490 X-0.2483 Y-0.823 Z0.1995
N10495 X-0.2457 Y-0.8238 Z0.2015
N10500 X-0.2433 Y-0.8245 Z0.2039
N10505 X-0.2415 Y-0.8251 Z0.2067
N10510 X-0.2401 Y-0.8255 Z0.2098
N10515 X-0.2392 Y-0.8258 Z0.2131
N10520 X-0.2389 Y-0.8259 Z0.2165
N10525 G0 Z0.3765
N10530 X-0.3795 Y0.8586
N10535 Z0.2965
N10540 G1 Z0.2165 F19.685
N10545 /M110 (MEDIA ON)
N10550 X-0.3798 Y0.8585 Z0.2131
N10555 X-0.3806 Y0.8581 Z0.2098
N10560 X-0.3819 Y0.8575 Z0.2067
N10565 X-0.3837 Y0.8567 Z0.2039
N10570 X-0.3859 Y0.8556 Z0.2015
N10575 X-0.3884 Y0.8544 Z0.1995
N10580 X-0.3913 Y0.8531 Z0.198
N10585 X-0.3943 Y0.8517 Z0.1971
N10590 X-0.3974 Y0.8503 Z0.1969
N10595 /M120 (LASER ON)
N10600 X-0.4109 Y0.8439
N10605 X-0.4518 Y0.8228
N10610 X-0.4993 Y0.7948
N10615 X-0.5211 Y0.7807
N10620 X-0.5443 Y0.7647
N10625 X-0.5651 Y0.7495
N10630 X-0.5886 Y0.7312
N10635 X-0.6083 Y0.7149
N10640 X-0.6298 Y0.696
N10645 X-0.649 Y0.6781
N10650 X-0.6707 Y0.6567
N10655 X-0.705 Y0.6198
N10660 X-0.7362 Y0.5823
N10665 X-0.7526 Y0.5609
N10670 X-0.7697 Y0.5372
N10675 X-0.7839 Y0.5163
N10680 X-0.7989 Y0.4928
N10685 X-0.8245 Y0.4487
N10690 X-0.8473 Y0.404
N10695 X-0.8583 Y0.3801
N10700 X-0.8695 Y0.3537
N10705 X-0.8786 Y0.3303
N10710 X-0.888 Y0.3042
N10715 X-0.9033 Y0.2551
N10720 X-0.9159 Y0.2054
N10725 X-0.9212 Y0.18
N10730 X-0.9261 Y0.1526
N10735 X-0.9332 Y0.1009
N10740 X-0.9374 Y0.0478
N10745 X-0.9387 Y0.
N10750 X-0.9372 Y-0.0522
N10755 X-0.9329 Y-0.1044
N10760 X-0.9249 Y-0.1602
N10765 X-0.9201 Y-0.1857
N10770 X-0.9142 Y-0.2128
N10775 X-0.9024 Y-0.2585
N10780 X-0.8855 Y-0.3114
N10785 X-0.8766 Y-0.3357
N10790 X-0.8662 Y-0.3617
N10795 X-0.856 Y-0.3852
N10800 X-0.8439 Y-0.4109
N10805 X-0.8228 Y-0.4518
N10810 X-0.7949 Y-0.4993
N10815 X-0.7807 Y-0.5211
N10820 X-0.7647 Y-0.5443
N10825 X-0.7495 Y-0.5651
N10830 X-0.7314 Y-0.5883
N10835 X-0.7027 Y-0.6224
N10840 X-0.6653 Y-0.6622
N10845 X-0.6455 Y-0.6815
N10850 X-0.6233 Y-0.7018
N10855 X-0.604 Y-0.7185
N10860 X-0.5818 Y-0.7366
N10865 X-0.5609 Y-0.7526
N10870 X-0.5372 Y-0.7697
N10875 X-0.5163 Y-0.7839
N10880 X-0.4928 Y-0.7989
N10885 X-0.4487 Y-0.8245
N10890 X-0.404 Y-0.8473
N10895 X-0.3801 Y-0.8583
N10900 X-0.3537 Y-0.8695
N10905 X-0.3303 Y-0.8786
N10910 X-0.3042 Y-0.888
N10915 X-0.2551 Y-0.9034
N10920 X-0.2057 Y-0.9159
N10925 X-0.1739 Y-0.9224
N10930 X-0.139 Y-0.9283
N10935 X-0.1036 Y-0.9329
N10940 X-0.0688 Y-0.9361
N10945 X-0.0288 Y-0.9382
N10950 X0.0004 Y-0.9387
N10955 X0.0353 Y-0.938
N10960 X0.0746 Y-0.9357
N10965 X0.1048 Y-0.9328
N10970 X0.1398 Y-0.9282
N10975 X0.1743 Y-0.9224
N10980 X0.2146 Y-0.9138
N10985 X0.2418 Y-0.907
N10990 X0.2783 Y-0.8964
N10995 X0.3066 Y-0.8872
N11000 X0.3418 Y-0.8742
N11005 X0.372 Y-0.8618
N11010 X0.4058 Y-0.8464
N11015 X0.4368 Y-0.8309
N11020 X0.4731 Y-0.8107
N11025 X0.4985 Y-0.7954
N11030 X0.529 Y-0.7754
N11035 X0.5575 Y-0.7552
N11040 X0.5851 Y-0.734
N11045 X0.6224 Y-0.7026
N11050 X0.6622 Y-0.6652
N11055 X0.6815 Y-0.6455
N11060 X0.7018 Y-0.6233
N11065 X0.7185 Y-0.604
N11070 X0.7366 Y-0.5818
N11075 X0.7526 Y-0.5609
N11080 X0.7697 Y-0.5372
N11085 X0.7839 Y-0.5163
N11090 X0.7989 Y-0.4928
N11095 X0.8245 Y-0.4487
N11100 X0.8473 Y-0.404
N11105 X0.8583 Y-0.3801
N11110 X0.8695 Y-0.3537
N11115 X0.8786 Y-0.3303
N11120 X0.888 Y-0.3042
N11125 X0.9033 Y-0.2551
N11130 X0.9159 Y-0.2054
N11135 X0.9212 Y-0.18
N11140 X0.9261 Y-0.1526
N11145 X0.9332 Y-0.1009
N11150 X0.9374 Y-0.0478
N11155 X0.9387 Y0.
N11160 X0.9372 Y0.0522
N11165 X0.9329 Y0.1044
N11170 X0.9249 Y0.1602
N11175 X0.9201 Y0.1857
N11180 X0.9142 Y0.2128
N11185 X0.9024 Y0.2585
N11190 X0.8855 Y0.3114
N11195 X0.8766 Y0.3357
N11200 X0.8662 Y0.3617
N11205 X0.856 Y0.3852
N11210 X0.8439 Y0.4109
N11215 X0.8228 Y0.4518
N11220 X0.7949 Y0.4993
N11225 X0.7807 Y0.5211
N11230 X0.7647 Y0.5443
N11235 X0.7495 Y0.5651
N11240 X0.7312 Y0.5886
N11245 X0.7149 Y0.6083
N11250 X0.696 Y0.6298
N11255 X0.6781 Y0.649
N11260 X0.6567 Y0.6707
N11265 X0.6198 Y0.7049
N11270 X0.5848 Y0.7343
N11275 X0.5542 Y0.7576
N11280 X0.5236 Y0.7791
N11285 X0.4984 Y0.7955
N11290 X0.4657 Y0.815
N11295 X0.4345 Y0.832
N11300 X0.4019 Y0.8483
N11305 X0.37 Y0.8626
N11310 X0.3362 Y0.8764
N11315 X0.3067 Y0.8872
N11320 X0.2697 Y0.8991
N11325 X0.2411 Y0.9072
N11330 X0.2064 Y0.9157
N11335 X0.1741 Y0.9224
N11340 X0.1395 Y0.9283
N11345 X0.1004 Y0.9333
N11350 X0.0701 Y0.9361
N11355 X0.0353 Y0.938
N11360 X-0.0024 Y0.9387
N11365 X-0.039 Y0.9378
N11370 X-0.0694 Y0.9361
N11375 X-0.1047 Y0.9328
N11380 X-0.1405 Y0.9281
N11385 X-0.179 Y0.9214
N11390 X-0.21 Y0.9149
N11395 X-0.2585 Y0.9024
N11400 X-0.3114 Y0.8855
N11405 X-0.3357 Y0.8766
N11410 X-0.3617 Y0.8662
N11415 X-0.3852 Y0.856
N11420 X-0.3974 Y0.8503
N11425 /M121 (LASER OFF)
N11430 X-0.4005 Y0.8488 Z0.1971
N11435 X-0.4035 Y0.8474 Z0.198
N11440 X-0.4063 Y0.8461 Z0.1995
N11445 X-0.4088 Y0.8449 Z0.2015
N11450 X-0.411 Y0.8439 Z0.2039
N11455 X-0.4128 Y0.843 Z0.2067
N11460 X-0.4141 Y0.8424 Z0.2098
N11465 X-0.4149 Y0.842 Z0.2131
N11470 X-0.4152 Y0.8419 Z0.2165
N11475 G0 Z0.4159
N11480 X-0.8246 Y0.2025
N11485 Z0.3359
N11490 G1 Z0.2559 F19.685
N11495 /M110 (MEDIA ON)
N11500 Y0.2022 Z0.2525
N11505 X-0.8248 Y0.2013 Z0.2492
N11510 X-0.8251 Y0.1999 Z0.2461
N11515 X-0.8255 Y0.1979 Z0.2433
N11520 X-0.826 Y0.1956 Z0.2408
N11525 X-0.8266 Y0.1928 Z0.2389
N11530 X-0.8272 Y0.1898 Z0.2374
N11535 X-0.8279 Y0.1865 Z0.2365
N11540 X-0.8286 Y0.1832 Z0.2362
N11545 /M120 (LASER ON)
N11550 X-0.8327 Y0.1639
N11555 X-0.8372 Y0.1389
N11560 X-0.8434 Y0.0943
N11565 X-0.8475 Y0.0434
N11570 X-0.8486 Y-0.0016
N11575 X-0.8474 Y-0.0475
N11580 X-0.8429 Y-0.0984
N11585 X-0.8369 Y-0.1409
N11590 X-0.8315 Y-0.1696
N11595 X-0.8262 Y-0.1935
N11600 X-0.815 Y-0.2366
N11605 X-0.8005 Y-0.2819
N11610 X-0.7926 Y-0.3033
N11615 X-0.7832 Y-0.327
N11620 X-0.7738 Y-0.3486
N11625 X-0.764 Y-0.3695
N11630 X-0.7439 Y-0.4084
N11635 X-0.7185 Y-0.4517
N11640 X-0.706 Y-0.4709
N11645 X-0.6914 Y-0.4921
N11650 X-0.6774 Y-0.5113
N11655 X-0.6615 Y-0.5316
N11660 X-0.6353 Y-0.5627
N11665 X-0.6003 Y-0.5999
N11670 X-0.5785 Y-0.6209
N11675 X-0.5644 Y-0.6338
N11680 X-0.5451 Y-0.6505
N11685 X-0.5249 Y-0.6669
N11690 X-0.5058 Y-0.6815
N11695 X-0.4845 Y-0.6968
N11700 X-0.4604 Y-0.7128
N11705 X-0.443 Y-0.7237
N11710 X-0.4078 Y-0.7443
N11715 X-0.3653 Y-0.766
N11720 X-0.3466 Y-0.7747
N11725 X-0.3165 Y-0.7874
N11730 X-0.298 Y-0.7946
N11735 X-0.2756 Y-0.8026
N11740 X-0.2331 Y-0.816
N11745 X-0.1857 Y-0.8281
N11750 X-0.1564 Y-0.8342
N11755 X-0.1219 Y-0.8399
N11760 X-0.0938 Y-0.8435
N11765 X-0.0585 Y-0.8466
N11770 X-0.0285 Y-0.8482
N11775 X-0.0002 Y-0.8487
N11780 X0.0359 Y-0.8479
N11785 X0.0624 Y-0.8464
N11790 X0.1019 Y-0.8425
N11795 X0.1261 Y-0.8393
N11800 X0.1614 Y-0.8332
N11805 X0.1907 Y-0.827
N11810 X0.2187 Y-0.82
N11815 X0.2512 Y-0.8106
N11820 X0.2784 Y-0.8017
N11825 X0.3103 Y-0.7899
N11830 X0.3364 Y-0.7792
N11835 X0.3685 Y-0.7645
N11840 X0.3939 Y-0.7517
N11845 X0.4277 Y-0.733
N11850 X0.4514 Y-0.7187
N11855 X0.4785 Y-0.701
N11860 X0.5035 Y-0.6832
N11865 X0.5307 Y-0.6623
N11870 X0.5627 Y-0.6353
N11875 X0.5989 Y-0.6013
N11880 X0.6165 Y-0.5832
N11885 X0.6381 Y-0.5594
N11890 X0.6498 Y-0.5459
N11895 X0.6659 Y-0.5261
N11900 X0.6816 Y-0.5056
N11905 X0.6939 Y-0.4886
N11910 X0.7095 Y-0.4657
N11915 X0.721 Y-0.4476
N11920 X0.7454 Y-0.4058
N11925 X0.7662 Y-0.365
N11930 X0.7772 Y-0.3408
N11935 X0.7848 Y-0.3231
N11940 X0.7961 Y-0.2939
N11945 X0.8022 Y-0.2768
N11950 X0.8164 Y-0.2318
N11955 X0.8282 Y-0.1854
N11960 X0.8329 Y-0.163
N11965 X0.8373 Y-0.1386
N11970 X0.8436 Y-0.0925
N11975 X0.8474 Y-0.0472
N11980 X0.8487 Y0.0031
N11985 X0.8472 Y0.0501
N11990 X0.843 Y0.0974
N11995 X0.8364 Y0.144
N12000 X0.8316 Y0.1693
N12005 X0.8266 Y0.192
N12010 X0.8158 Y0.2339
N12015 X0.8001 Y0.2831
N12020 X0.7936 Y0.3007
N12025 X0.7826 Y0.3282
N12030 X0.7718 Y0.3528
N12035 X0.7634 Y0.3706
N12040 X0.7439 Y0.4084
N12045 X0.7185 Y0.4517
N12050 X0.706 Y0.4709
N12055 X0.6914 Y0.4921
N12060 X0.6774 Y0.5113
N12065 X0.6611 Y0.5321
N12070 X0.6461 Y0.5503
N12075 X0.6293 Y0.5694
N12080 X0.6128 Y0.5871
N12085 X0.5941 Y0.606
N12090 X0.5621 Y0.6358
N12095 X0.5289 Y0.6637
N12100 X0.4984 Y0.6868
N12105 X0.4735 Y0.7043
N12110 X0.4499 Y0.7197
N12115 X0.4193 Y0.7378
N12120 X0.3907 Y0.7534
N12125 X0.3601 Y0.7684
N12130 X0.3324 Y0.7809
N12135 X0.3061 Y0.7915
N12140 X0.2734 Y0.8034
N12145 X0.2468 Y0.812
N12150 X0.2145 Y0.8211
N12155 X0.1865 Y0.8279
N12160 X0.1553 Y0.8344
N12165 X0.1251 Y0.8394
N12170 X0.0909 Y0.8438
N12175 X0.0629 Y0.8464
N12180 X0.0276 Y0.8482
N12185 X-0.0013 Y0.8487
N12190 X-0.0351 Y0.8479
N12195 X-0.0633 Y0.8463
N12200 X-0.0982 Y0.843
N12205 X-0.1262 Y0.8393
N12210 X-0.1591 Y0.8336
N12215 X-0.189 Y0.8274
N12220 X-0.2339 Y0.8158
N12225 X-0.2823 Y0.8004
N12230 X-0.302 Y0.7931
N12235 X-0.327 Y0.7832
N12240 X-0.3486 Y0.7738
N12245 X-0.371 Y0.7633
N12250 X-0.4084 Y0.7439
N12255 X-0.4518 Y0.7185
N12260 X-0.469 Y0.7073
N12265 X-0.4921 Y0.6914
N12270 X-0.5113 Y0.6774
N12275 X-0.5321 Y0.6611
N12280 X-0.5503 Y0.6461
N12285 X-0.5728 Y0.6262
N12290 X-0.5879 Y0.6121
N12295 X-0.6047 Y0.5955
N12300 X-0.6373 Y0.5604
N12305 X-0.6638 Y0.5288
N12310 X-0.6814 Y0.5059
N12315 X-0.6954 Y0.4865
N12320 X-0.7095 Y0.4657
N12325 X-0.721 Y0.4476
N12330 X-0.7454 Y0.4058
N12335 X-0.767 Y0.3632
N12340 X-0.7768 Y0.3419
N12345 X-0.7857 Y0.3207
N12350 X-0.797 Y0.2915
N12355 X-0.8016 Y0.2789
N12360 X-0.8164 Y0.2319
N12365 X-0.8284 Y0.1842
N12370 X-0.8286 Y0.1832
N12375 /M121 (LASER OFF)
N12380 X-0.8293 Y0.1798 Z0.2365
N12385 X-0.83 Y0.1766 Z0.2374
N12390 X-0.8307 Y0.1736 Z0.2389
N12395 X-0.8313 Y0.1708 Z0.2408
N12400 X-0.8318 Y0.1684 Z0.2433
N12405 X-0.8322 Y0.1665 Z0.2461
N12410 X-0.8325 Y0.1651 Z0.2492
N12415 X-0.8327 Y0.1642 Z0.2525
N12420 Y0.1639 Z0.2559
N12425 G0 Z0.4159
N12430 X0.8123 Y0.4475
N12435 Z0.3359
N12440 G1 Z0.2559 F19.685
N12445 /M110 (MEDIA ON)
N12450 X0.8122 Y0.4477 Z0.2525
N12455 X0.8117 Y0.4485 Z0.2492
N12460 X0.811 Y0.4497 Z0.2461
N12465 X0.81 Y0.4514 Z0.2433
N12470 X0.8088 Y0.4535 Z0.2408
N12475 X0.8073 Y0.456 Z0.2389
N12480 X0.8058 Y0.4586 Z0.2374
N12485 X0.8041 Y0.4615 Z0.2365
N12490 X0.8024 Y0.4644 Z0.2362
N12495 /M120 (LASER ON)
N12500 X0.7853 Y0.4934
N12505 X0.7713 Y0.5149
N12510 X0.7555 Y0.5378
N12515 X0.7405 Y0.5584
N12520 X0.7224 Y0.5816
N12525 X0.7063 Y0.601
N12530 X0.6876 Y0.6223
N12535 X0.67 Y0.6413
N12540 X0.6488 Y0.6626
N12545 X0.6153 Y0.6939
N12550 X0.578 Y0.7253
N12555 X0.5487 Y0.7478
N12560 X0.5173 Y0.7698
N12565 X0.4923 Y0.786
N12570 X0.4615 Y0.8045
N12575 X0.4296 Y0.8219
N12580 X0.3979 Y0.8377
N12585 X0.3631 Y0.8534
N12590 X0.3353 Y0.8647
N12595 X0.2987 Y0.878
N12600 X0.2705 Y0.8871
N12605 X0.2343 Y0.8974
N12610 X0.206 Y0.9043
N12615 X0.1721 Y0.9114
N12620 X0.1335 Y0.9178
N12625 X0.1038 Y0.9217
N12630 X0.0649 Y0.9252
N12635 X0.035 Y0.9268
N12640 X-0.0042 Y0.9274
N12645 X-0.0338 Y0.9268
N12650 X-0.073 Y0.9245
N12655 X-0.1028 Y0.9217
N12660 X-0.1401 Y0.9168
N12665 X-0.1718 Y0.9114
N12670 X-0.2066 Y0.9042
N12675 X-0.2554 Y0.8916
N12680 X-0.3083 Y0.8747
N12685 X-0.3285 Y0.8673
N12690 X-0.3574 Y0.8558
N12695 X-0.3806 Y0.8457
N12700 X-0.406 Y0.8338
N12705 X-0.4464 Y0.813
N12710 X-0.4934 Y0.7853
N12715 X-0.5149 Y0.7713
N12720 X-0.5378 Y0.7555
N12725 X-0.5584 Y0.7405
N12730 X-0.5816 Y0.7224
N12735 X-0.601 Y0.7063
N12740 X-0.6223 Y0.6876
N12745 X-0.6413 Y0.67
N12750 X-0.6627 Y0.6488
N12755 X-0.6939 Y0.6153
N12760 X-0.7274 Y0.5753
N12765 X-0.7437 Y0.5542
N12770 X-0.7605 Y0.5308
N12775 X-0.7746 Y0.5101
N12780 X-0.7893 Y0.4869
N12785 X-0.8146 Y0.4433
N12790 X-0.8372 Y0.3991
N12795 X-0.848 Y0.3755
N12800 X-0.8593 Y0.3488
N12805 X-0.8681 Y0.3264
N12810 X-0.8774 Y0.3005
N12815 X-0.8916 Y0.2554
N12820 X-0.905 Y0.2029
N12825 X-0.9102 Y0.1778
N12830 X-0.9151 Y0.1508
N12835 X-0.9217 Y0.1032
N12840 X-0.926 Y0.0516
N12845 X-0.9275 Y0.
N12850 X-0.926 Y-0.0516
N12855 X-0.9217 Y-0.1032
N12860 X-0.9138 Y-0.1583
N12865 X-0.9091 Y-0.1835
N12870 X-0.9033 Y-0.2103
N12875 X-0.8916 Y-0.2554
N12880 X-0.8749 Y-0.3077
N12885 X-0.866 Y-0.3318
N12890 X-0.8558 Y-0.3574
N12895 X-0.8457 Y-0.3806
N12900 X-0.8338 Y-0.406
N12905 X-0.813 Y-0.4464
N12910 X-0.7853 Y-0.4934
N12915 X-0.7713 Y-0.5149
N12920 X-0.7555 Y-0.5378
N12925 X-0.7405 Y-0.5584
N12930 X-0.7226 Y-0.5813
N12935 X-0.6943 Y-0.615
N12940 X-0.6573 Y-0.6543
N12945 X-0.6377 Y-0.6734
N12950 X-0.6159 Y-0.6934
N12955 X-0.5967 Y-0.7099
N12960 X-0.5748 Y-0.7278
N12965 X-0.5542 Y-0.7437
N12970 X-0.5308 Y-0.7605
N12975 X-0.5101 Y-0.7745
N12980 X-0.4869 Y-0.7893
N12985 X-0.4433 Y-0.8146
N12990 X-0.3991 Y-0.8372
N12995 X-0.3755 Y-0.848
N13000 X-0.3488 Y-0.8593
N13005 X-0.3296 Y-0.8669
N13010 X-0.3006 Y-0.8774
N13015 X-0.2554 Y-0.8916
N13020 X-0.203 Y-0.905
N13025 X-0.1676 Y-0.9122
N13030 X-0.1375 Y-0.9172
N13035 X-0.0986 Y-0.9222
N13040 X-0.0687 Y-0.9249
N13045 X-0.029 Y-0.927
N13050 X0.0012 Y-0.9274
N13055 X0.0393 Y-0.9266
N13060 X0.0691 Y-0.9249
N13065 X0.108 Y-0.9211
N13070 X0.1376 Y-0.9172
N13075 X0.1748 Y-0.9108
N13080 X0.2106 Y-0.9032
N13085 X0.2391 Y-0.8961
N13090 X0.275 Y-0.8857
N13095 X0.3031 Y-0.8765
N13100 X0.3392 Y-0.8631
N13105 X0.3669 Y-0.8518
N13110 X0.4002 Y-0.8366
N13115 X0.4337 Y-0.8198
N13120 X0.4674 Y-0.801
N13125 X0.4927 Y-0.7858
N13130 X0.5228 Y-0.7661
N13135 X0.5545 Y-0.7434
N13140 X0.5798 Y-0.7238
N13145 X0.615 Y-0.6942
N13150 X0.6543 Y-0.6573
N13155 X0.6734 Y-0.6377
N13160 X0.6934 Y-0.6159
N13165 X0.7099 Y-0.5967
N13170 X0.7278 Y-0.5748
N13175 X0.7437 Y-0.5542
N13180 X0.7605 Y-0.5308
N13185 X0.7746 Y-0.5101
N13190 X0.7893 Y-0.4869
N13195 X0.8146 Y-0.4433
N13200 X0.8372 Y-0.3991
N13205 X0.848 Y-0.3755
N13210 X0.8593 Y-0.3488
N13215 X0.8669 Y-0.3296
N13220 X0.8773 Y-0.3005
N13225 X0.8916 Y-0.2554
N13230 X0.905 Y-0.2029
N13235 X0.9102 Y-0.1778
N13240 X0.9151 Y-0.1508
N13245 X0.9217 Y-0.1032
N13250 X0.926 Y-0.0516
N13255 X0.9275 Y0.
N13260 X0.926 Y0.0516
N13265 X0.9217 Y0.1032
N13270 X0.9138 Y0.1583
N13275 X0.9091 Y0.1835
N13280 X0.9033 Y0.2103
N13285 X0.8916 Y0.2554
N13290 X0.8747 Y0.3083
N13295 X0.8673 Y0.3285
N13300 X0.8558 Y0.3574
N13305 X0.8457 Y0.3806
N13310 X0.8338 Y0.406
N13315 X0.813 Y0.4464
N13320 X0.8024 Y0.4644
N13325 /M121 (LASER OFF)
N13330 X0.8006 Y0.4674 Z0.2365
N13335 X0.7989 Y0.4702 Z0.2374
N13340 X0.7974 Y0.4729 Z0.2389
N13345 X0.7959 Y0.4753 Z0.2408
N13350 X0.7947 Y0.4774 Z0.2433
N13355 X0.7937 Y0.4791 Z0.2461
N13360 X0.793 Y0.4804 Z0.2492
N13365 X0.7925 Y0.4811 Z0.2525
N13370 X0.7924 Y0.4814 Z0.2559
N13375 G0 Z0.4553
N13380 X0.1281 Y0.8281
N13385 Z0.3753
N13390 G1 Z0.2953 F19.685
N13395 /M110 (MEDIA ON)
N13400 X0.1278 Y0.8282 Z0.2919
N13405 X0.1269 Y0.8283 Z0.2885
N13410 X0.1254 Y0.8285 Z0.2854
N13415 X0.1235 Y0.8287 Z0.2826
N13420 X0.1211 Y0.829 Z0.2802
N13425 X0.1183 Y0.8294 Z0.2782
N13430 X0.1152 Y0.8297 Z0.2768
N13435 X0.1119 Y0.8302 Z0.2759
N13440 X0.1085 Y0.8306 Z0.2756
N13445 /M120 (LASER ON)
N13450 X0.0904 Y0.8329
N13455 X0.0599 Y0.8356
N13460 X0.0245 Y0.8374
N13465 X0.0002 Y0.8378
N13470 X-0.0347 Y0.8371
N13475 X-0.0626 Y0.8354
N13480 X-0.097 Y0.8321
N13485 X-0.1247 Y0.8285
N13490 X-0.1607 Y0.8222
N13495 X-0.1861 Y0.8169
N13500 X-0.2307 Y0.8054
N13505 X-0.2804 Y0.7895
N13510 X-0.3059 Y0.7799
N13515 X-0.3202 Y0.7742
N13520 X-0.3485 Y0.7619
N13525 X-0.3624 Y0.7554
N13530 X-0.4032 Y0.7344
N13535 X-0.4465 Y0.7089
N13540 X-0.4628 Y0.6984
N13545 X-0.4889 Y0.6803
N13550 X-0.5023 Y0.6706
N13555 X-0.5253 Y0.6526
N13560 X-0.5433 Y0.6378
N13565 X-0.5621 Y0.6212
N13570 X-0.5796 Y0.6049
N13575 X-0.5992 Y0.5854
N13580 X-0.6291 Y0.5533
N13585 X-0.6553 Y0.522
N13590 X-0.6701 Y0.5029
N13595 X-0.6873 Y0.4791
N13600 X-0.6999 Y0.4604
N13605 X-0.7143 Y0.4376
N13610 X-0.7358 Y0.4006
N13615 X-0.7551 Y0.3631
N13620 X-0.7681 Y0.3345
N13625 X-0.7774 Y0.3123
N13630 X-0.7839 Y0.2956
N13635 X-0.7923 Y0.2723
N13640 X-0.8066 Y0.2263
N13645 X-0.8171 Y0.1853
N13650 X-0.8219 Y0.1628
N13655 X-0.8266 Y0.1361
N13660 X-0.8326 Y0.0933
N13665 X-0.8365 Y0.046
N13670 X-0.8378 Y-0.003
N13675 X-0.8365 Y-0.0469
N13680 X-0.8322 Y-0.0962
N13685 X-0.8258 Y-0.1411
N13690 X-0.8207 Y-0.1685
N13695 X-0.8161 Y-0.1892
N13700 X-0.8054 Y-0.2307
N13705 X-0.7912 Y-0.2756
N13710 X-0.7817 Y-0.3013
N13715 X-0.7742 Y-0.3202
N13720 X-0.7634 Y-0.3451
N13725 X-0.7542 Y-0.3647
N13730 X-0.7344 Y-0.4032
N13735 X-0.7093 Y-0.4459
N13740 X-0.6969 Y-0.465
N13745 X-0.6816 Y-0.4872
N13750 X-0.6704 Y-0.5025
N13755 X-0.6531 Y-0.5248
N13760 X-0.6272 Y-0.5555
N13765 X-0.5936 Y-0.5912
N13770 X-0.5757 Y-0.6086
N13775 X-0.5564 Y-0.6264
N13780 X-0.5388 Y-0.6416
N13785 X-0.5193 Y-0.6574
N13790 X-0.5003 Y-0.672
N13795 X-0.4788 Y-0.6875
N13800 X-0.4594 Y-0.7006
N13805 X-0.4387 Y-0.7136
N13810 X-0.4006 Y-0.7358
N13815 X-0.3631 Y-0.7551
N13820 X-0.3345 Y-0.7681
N13825 X-0.3193 Y-0.7746
N13830 X-0.2901 Y-0.786
N13835 X-0.276 Y-0.7911
N13840 X-0.2278 Y-0.8062
N13845 X-0.182 Y-0.8178
N13850 X-0.1515 Y-0.824
N13855 X-0.1237 Y-0.8286
N13860 X-0.0891 Y-0.833
N13865 X-0.0598 Y-0.8356
N13870 X-0.0306 Y-0.8372
N13875 X0.0043 Y-0.8378
N13880 X0.0336 Y-0.8371
N13885 X0.0627 Y-0.8355
N13890 X0.0975 Y-0.8321
N13895 X0.1252 Y-0.8284
N13900 X0.1609 Y-0.8222
N13905 X0.1865 Y-0.8168
N13910 X0.2208 Y-0.8082
N13915 X0.2449 Y-0.8012
N13920 X0.2773 Y-0.7905
N13925 X0.3034 Y-0.7809
N13930 X0.3354 Y-0.7677
N13935 X0.3658 Y-0.7536
N13940 X0.393 Y-0.7399
N13945 X0.4248 Y-0.7221
N13950 X0.4451 Y-0.7098
N13955 X0.4739 Y-0.6909
N13960 X0.4968 Y-0.6747
N13965 X0.5258 Y-0.6522
N13970 X0.5555 Y-0.6272
N13975 X0.5922 Y-0.5926
N13980 X0.6071 Y-0.5774
N13985 X0.63 Y-0.5522
N13990 X0.6415 Y-0.5388
N13995 X0.6574 Y-0.5193
N14000 X0.672 Y-0.5003
N14005 X0.6891 Y-0.4764
N14010 X0.6981 Y-0.4633
N14015 X0.7115 Y-0.4423
N14020 X0.7358 Y-0.4006
N14025 X0.7551 Y-0.3631
N14030 X0.765 Y-0.3416
N14035 X0.7763 Y-0.3149
N14040 X0.7848 Y-0.2931
N14045 X0.7924 Y-0.2719
N14050 X0.8062 Y-0.2278
N14055 X0.8174 Y-0.1836
N14060 X0.8238 Y-0.1522
N14065 X0.8262 Y-0.1386
N14070 X0.8325 Y-0.0937
N14075 X0.8365 Y-0.0465
N14080 X0.8378 Y0.0001
N14085 X0.8363 Y0.0496
N14090 X0.8326 Y0.0936
N14095 X0.8253 Y0.144
N14100 X0.8208 Y0.1677
N14105 X0.8168 Y0.1864
N14110 X0.8054 Y0.2307
N14115 X0.7912 Y0.2756
N14120 X0.7816 Y0.3015
N14125 X0.7748 Y0.3189
N14130 X0.7634 Y0.3451
N14135 X0.7542 Y0.3647
N14140 X0.7344 Y0.4032
N14145 X0.7118 Y0.4418
N14150 X0.6966 Y0.4655
N14155 X0.6842 Y0.4835
N14160 X0.6681 Y0.5056
N14165 X0.6532 Y0.5246
N14170 X0.6372 Y0.5439
N14175 X0.6219 Y0.5613
N14180 X0.6014 Y0.5832
N14185 X0.5865 Y0.5981
N14190 X0.5532 Y0.6291
N14195 X0.5222 Y0.6552
N14200 X0.4925 Y0.6778
N14205 X0.4706 Y0.6932
N14210 X0.4415 Y0.712
N14215 X0.4139 Y0.7283
N14220 X0.3896 Y0.7417
N14225 X0.3583 Y0.7573
N14230 X0.3313 Y0.7695
N14235 X0.299 Y0.7826
N14240 X0.2728 Y0.7921
N14245 X0.2408 Y0.8024
N14250 X0.2143 Y0.8099
N14255 X0.1826 Y0.8177
N14260 X0.1549 Y0.8234
N14265 X0.1175 Y0.8295
N14270 X0.1085 Y0.8306
N14275 /M121 (LASER OFF)
N14280 X0.1051 Y0.831 Z0.2759
N14285 X0.1018 Y0.8314 Z0.2768
N14290 X0.0988 Y0.8318 Z0.2782
N14295 X0.096 Y0.8322 Z0.2802
N14300 X0.0936 Y0.8325 Z0.2826
N14305 X0.0916 Y0.8327 Z0.2854
N14310 X0.0902 Y0.8329 Z0.2885
N14315 X0.0893 Y0.833 Z0.2919
N14320 X0.089 Z0.2953
N14325 G0 Z0.4553
N14330 X0.5106 Y-0.7614
N14335 Z0.3753
N14340 G1 Z0.2953 F19.685
N14345 /M110 (MEDIA ON)
N14350 X0.5108 Y-0.7612 Z0.2919
N14355 X0.5115 Y-0.7607 Z0.2885
N14360 X0.5127 Y-0.7599 Z0.2854
N14365 X0.5143 Y-0.7588 Z0.2826
N14370 X0.5163 Y-0.7573 Z0.2802
N14375 X0.5186 Y-0.7557 Z0.2782
N14380 X0.5211 Y-0.7539 Z0.2768
N14385 X0.5238 Y-0.752 Z0.2759
N14390 X0.5266 Y-0.75 Z0.2756
N14395 /M120 (LASER ON)
N14400 X0.5432 Y-0.7383
N14405 X0.5713 Y-0.7167
N14410 X0.6078 Y-0.6861
N14415 X0.6467 Y-0.6495
N14420 X0.6655 Y-0.6302
N14425 X0.6853 Y-0.6086
N14430 X0.7016 Y-0.5897
N14435 X0.7193 Y-0.5681
N14440 X0.735 Y-0.5476
N14445 X0.752 Y-0.524
N14450 X0.7636 Y-0.507
N14455 X0.7801 Y-0.4811
N14460 X0.8034 Y-0.4411
N14465 X0.8273 Y-0.3944
N14470 X0.8381 Y-0.371
N14475 X0.8493 Y-0.3447
N14480 X0.8568 Y-0.3257
N14485 X0.8671 Y-0.297
N14490 X0.8811 Y-0.2524
N14495 X0.8944 Y-0.2005
N14500 X0.8996 Y-0.1757
N14505 X0.9043 Y-0.149
N14510 X0.9109 Y-0.102
N14515 X0.9152 Y-0.051
N14520 X0.9166 Y0.
N14525 X0.9152 Y0.051
N14530 X0.9109 Y0.102
N14535 X0.903 Y0.157
N14540 X0.8991 Y0.178
N14545 X0.8935 Y0.2043
N14550 X0.8811 Y0.2524
N14555 X0.8645 Y0.3047
N14560 X0.8572 Y0.3247
N14565 X0.8457 Y0.3532
N14570 X0.8358 Y0.3762
N14575 X0.824 Y0.4012
N14580 X0.8034 Y0.4411
N14585 X0.7758 Y0.488
N14590 X0.7642 Y0.506
N14595 X0.7467 Y0.5315
N14600 X0.7318 Y0.5519
N14605 X0.7139 Y0.5748
N14610 X0.698 Y0.594
N14615 X0.6795 Y0.615
N14620 X0.6621 Y0.6338
N14625 X0.6412 Y0.6549
N14630 X0.6078 Y0.6861
N14635 X0.5715 Y0.7166
N14640 X0.5396 Y0.7409
N14645 X0.5151 Y0.7582
N14650 X0.4829 Y0.779
N14655 X0.4581 Y0.7939
N14660 X0.4262 Y0.8115
N14665 X0.3938 Y0.8276
N14670 X0.3589 Y0.8434
N14675 X0.3312 Y0.8546
N14680 X0.2952 Y0.8677
N14685 X0.2671 Y0.8768
N14690 X0.2315 Y0.8868
N14695 X0.2034 Y0.8937
N14700 X0.1658 Y0.9014
N14705 X0.1364 Y0.9064
N14710 X0.098 Y0.9113
N14715 X0.0685 Y0.914
N14720 X0.0294 Y0.9161
N14725 X-0.0005 Y0.9166
N14730 X-0.0381 Y0.9157
N14735 X-0.0677 Y0.9141
N14740 X-0.1062 Y0.9104
N14745 X-0.1357 Y0.9065
N14750 X-0.1742 Y0.8998
N14755 X-0.204 Y0.8936
N14760 X-0.2524 Y0.8812
N14765 X-0.3047 Y0.8645
N14770 X-0.3247 Y0.8572
N14775 X-0.3532 Y0.8457
N14780 X-0.3762 Y0.8358
N14785 X-0.4012 Y0.824
N14790 X-0.4411 Y0.8034
N14795 X-0.488 Y0.7758
N14800 X-0.506 Y0.7642
N14805 X-0.5315 Y0.7467
N14810 X-0.5519 Y0.7318
N14815 X-0.5748 Y0.7139
N14820 X-0.594 Y0.698
N14825 X-0.615 Y0.6796
N14830 X-0.6338 Y0.6621
N14835 X-0.6549 Y0.6412
N14840 X-0.6861 Y0.6078
N14845 X-0.7189 Y0.5686
N14850 X-0.735 Y0.5476
N14855 X-0.752 Y0.524
N14860 X-0.7636 Y0.507
N14865 X-0.7781 Y0.4843
N14870 X-0.8034 Y0.4411
N14875 X-0.8273 Y0.3944
N14880 X-0.8381 Y0.371
N14885 X-0.8493 Y0.3447
N14890 X-0.8568 Y0.3257
N14895 X-0.8671 Y0.297
N14900 X-0.8811 Y0.2524
N14905 X-0.8945 Y0.2
N14910 X-0.8989 Y0.1791
N14915 X-0.9043 Y0.149
N14920 X-0.9109 Y0.102
N14925 X-0.9152 Y0.051
N14930 X-0.9166 Y0.
N14935 X-0.9152 Y-0.051
N14940 X-0.9109 Y-0.102
N14945 X-0.9031 Y-0.1564
N14950 X-0.8984 Y-0.1814
N14955 X-0.8926 Y-0.2078
N14960 X-0.8811 Y-0.2524
N14965 X-0.8646 Y-0.3041
N14970 X-0.8559 Y-0.3279
N14975 X-0.8457 Y-0.3532
N14980 X-0.8358 Y-0.3762
N14985 X-0.824 Y-0.4012
N14990 X-0.8034 Y-0.4411
N14995 X-0.7761 Y-0.4876
N15000 X-0.7623 Y-0.5089
N15005 X-0.7467 Y-0.5315
N15010 X-0.7317 Y-0.5519
N15015 X-0.7141 Y-0.5745
N15020 X-0.6861 Y-0.6078
N15025 X-0.6496 Y-0.6467
N15030 X-0.6302 Y-0.6655
N15035 X-0.6086 Y-0.6853
N15040 X-0.5897 Y-0.7016
N15045 X-0.5681 Y-0.7193
N15050 X-0.5476 Y-0.735
N15055 X-0.524 Y-0.752
N15060 X-0.507 Y-0.7636
N15065 X-0.4811 Y-0.7801
N15070 X-0.4411 Y-0.8034
N15075 X-0.3944 Y-0.8273
N15080 X-0.371 Y-0.8381
N15085 X-0.3447 Y-0.8493
N15090 X-0.3257 Y-0.8568
N15095 X-0.297 Y-0.8671
N15100 X-0.2524 Y-0.8812
N15105 X-0.1996 Y-0.8945
N15110 X-0.1656 Y-0.9015
N15115 X-0.1361 Y-0.9064
N15120 X-0.0974 Y-0.9113
N15125 X-0.0678 Y-0.9141
N15130 X-0.0286 Y-0.9161
N15135 X0.0013 Y-0.9165
N15140 X0.0388 Y-0.9157
N15145 X0.0685 Y-0.914
N15150 X0.1067 Y-0.9103
N15155 X0.1362 Y-0.9064
N15160 X0.1744 Y-0.8998
N15165 X0.2038 Y-0.8936
N15170 X0.24 Y-0.8846
N15175 X0.2681 Y-0.8765
N15180 X0.3035 Y-0.8648
N15185 X0.3312 Y-0.8546
N15190 X0.3655 Y-0.8405
N15195 X0.3946 Y-0.8273
N15200 X0.4269 Y-0.8111
N15205 X0.462 Y-0.7916
N15210 X0.487 Y-0.7765
N15215 X0.5185 Y-0.7558
N15220 X0.5266 Y-0.75
N15225 /M121 (LASER OFF)
N15230 X0.5294 Y-0.748 Z0.2759
N15235 X0.5321 Y-0.7461 Z0.2768
N15240 X0.5347 Y-0.7443 Z0.2782
N15245 X0.537 Y-0.7427 Z0.2802
N15250 X0.5389 Y-0.7413 Z0.2826
N15255 X0.5405 Y-0.7402 Z0.2854
N15260 X0.5417 Y-0.7393 Z0.2885
N15265 X0.5424 Y-0.7388 Z0.2919
N15270 X0.5427 Y-0.7386 Z0.2953
N15275 G0 Z0.4946
N15280 X0.8258 Y-0.0543
N15285 Z0.4146
N15290 G1 Z0.3346 F19.685
N15295 /M110 (MEDIA ON)
N15300 Y-0.054 Z0.3312
N15305 Y-0.0531 Z0.3279
N15310 Y-0.0517 Z0.3248
N15315 X0.8259 Y-0.0497 Z0.322
N15320 Y-0.0473 Z0.3196
N15325 X0.826 Y-0.0445 Z0.3176
N15330 X0.8261 Y-0.0414 Z0.3161
N15335 X0.8262 Y-0.0381 Z0.3153
N15340 X0.8263 Y-0.0347 Z0.315
N15345 /M120 (LASER ON)
N15350 X0.8272 Y0.003
N15355 X0.8258 Y0.049
N15360 X0.8219 Y0.0943
N15365 X0.815 Y0.1423
N15370 X0.8099 Y0.1684
N15375 X0.8062 Y0.1854
N15380 X0.7953 Y0.2278
N15385 X0.7798 Y0.2761
N15390 X0.7736 Y0.2932
N15395 X0.7636 Y0.3183
N15400 X0.7541 Y0.34
N15405 X0.744 Y0.3617
N15410 X0.7252 Y0.3981
N15415 X0.7001 Y0.4407
N15420 X0.6889 Y0.458
N15425 X0.674 Y0.4797
N15430 X0.6601 Y0.4987
N15435 X0.6444 Y0.5187
N15440 X0.6301 Y0.536
N15445 X0.6134 Y0.555
N15450 X0.5973 Y0.5724
N15455 X0.5791 Y0.5907
N15460 X0.5485 Y0.6193
N15465 X0.5156 Y0.647
N15470 X0.4889 Y0.6673
N15475 X0.4614 Y0.6866
N15480 X0.4369 Y0.7025
N15485 X0.411 Y0.718
N15490 X0.384 Y0.7327
N15495 X0.3528 Y0.7483
N15500 X0.3257 Y0.7604
N15505 X0.294 Y0.7732
N15510 X0.2694 Y0.7822
N15515 X0.235 Y0.7931
N15520 X0.2123 Y0.7996
N15525 X0.1802 Y0.8074
N15530 X0.1529 Y0.813
N15535 X0.1191 Y0.8186
N15540 X0.0901 Y0.8224
N15545 X0.0606 Y0.825
N15550 X0.0269 Y0.8268
N15555 X-0.0044 Y0.8272
N15560 X-0.0334 Y0.8266
N15565 X-0.062 Y0.8249
N15570 X-0.0958 Y0.8217
N15575 X-0.1233 Y0.818
N15580 X-0.1571 Y0.8122
N15585 X-0.1838 Y0.8066
N15590 X-0.2278 Y0.7953
N15595 X-0.2761 Y0.7798
N15600 X-0.2945 Y0.7731
N15605 X-0.3187 Y0.7634
N15610 X-0.342 Y0.7532
N15615 X-0.358 Y0.7458
N15620 X-0.3981 Y0.7252
N15625 X-0.439 Y0.7012
N15630 X-0.4607 Y0.6871
N15635 X-0.4774 Y0.6756
N15640 X-0.5024 Y0.6572
N15645 X-0.52 Y0.6434
N15650 X-0.5342 Y0.6317
N15655 X-0.555 Y0.6134
N15660 X-0.5724 Y0.5973
N15665 X-0.5907 Y0.5791
N15670 X-0.6193 Y0.5485
N15675 X-0.649 Y0.513
N15680 X-0.6635 Y0.4941
N15685 X-0.6786 Y0.4731
N15690 X-0.6911 Y0.4546
N15695 X-0.7054 Y0.432
N15700 X-0.7266 Y0.3955
N15705 X-0.7476 Y0.354
N15710 X-0.7576 Y0.3323
N15715 X-0.7649 Y0.3152
N15720 X-0.7751 Y0.2891
N15725 X-0.7841 Y0.2632
N15730 X-0.7962 Y0.2246
N15735 X-0.8077 Y0.1788
N15740 X-0.8114 Y0.1615
N15745 X-0.8161 Y0.1351
N15750 X-0.8221 Y0.0919
N15755 X-0.826 Y0.0458
N15760 X-0.8272 Y0.0007
N15765 X-0.8259 Y-0.0467
N15770 X-0.8221 Y-0.0923
N15775 X-0.8155 Y-0.1392
N15780 X-0.8108 Y-0.164
N15785 X-0.8059 Y-0.1868
N15790 X-0.7953 Y-0.2278
N15795 X-0.7812 Y-0.2724
N15800 X-0.7718 Y-0.2978
N15805 X-0.7585 Y-0.3302
N15810 X-0.744 Y-0.3617
N15815 X-0.7252 Y-0.3981
N15820 X-0.6993 Y-0.4419
N15825 X-0.6814 Y-0.4691
N15830 X-0.6618 Y-0.4964
N15835 X-0.6459 Y-0.5169
N15840 X-0.6193 Y-0.5485
N15845 X-0.5861 Y-0.5838
N15850 X-0.5684 Y-0.601
N15855 X-0.5494 Y-0.6185
N15860 X-0.5303 Y-0.6349
N15865 X-0.5128 Y-0.6491
N15870 X-0.4861 Y-0.6693
N15875 X-0.4598 Y-0.6877
N15880 X-0.4384 Y-0.7015
N15885 X-0.3945 Y-0.7271
N15890 X-0.354 Y-0.7476
N15895 X-0.3373 Y-0.7554
N15900 X-0.3109 Y-0.7666
N15905 X-0.2885 Y-0.7753
N15910 X-0.2701 Y-0.7819
N15915 X-0.2249 Y-0.7961
N15920 X-0.1831 Y-0.8068
N15925 X-0.1496 Y-0.8136
N15930 X-0.1215 Y-0.8183
N15935 X-0.088 Y-0.8225
N15940 X-0.0603 Y-0.825
N15945 X-0.0272 Y-0.8268
N15950 X0.0016 Y-0.8272
N15955 X0.035 Y-0.8265
N15960 X0.0627 Y-0.8249
N15965 X0.0963 Y-0.8216
N15970 X0.1253 Y-0.8177
N15975 X0.1543 Y-0.8128
N15980 X0.1893 Y-0.8053
N15985 X0.2193 Y-0.7976
N15990 X0.2419 Y-0.7911
N15995 X0.2738 Y-0.7806
N16000 X0.3022 Y-0.77
N16005 X0.3305 Y-0.7583
N16010 X0.3562 Y-0.7467
N16015 X0.3857 Y-0.7319
N16020 X0.4183 Y-0.7137
N16025 X0.4422 Y-0.6991
N16030 X0.4645 Y-0.6846
N16035 X0.4929 Y-0.6644
N16040 X0.5159 Y-0.6467
N16045 X0.5485 Y-0.6193
N16050 X0.5838 Y-0.5861
N16055 X0.601 Y-0.5684
N16060 X0.6185 Y-0.5494
N16065 X0.6332 Y-0.5324
N16070 X0.6491 Y-0.5128
N16075 X0.6651 Y-0.4919
N16080 X0.6766 Y-0.4761
N16085 X0.6906 Y-0.4555
N16090 X0.7017 Y-0.4383
N16095 X0.7266 Y-0.3955
N16100 X0.7456 Y-0.3585
N16105 X0.7569 Y-0.3338
N16110 X0.7657 Y-0.313
N16115 X0.7761 Y-0.2864
N16120 X0.7822 Y-0.2691
N16125 X0.7954 Y-0.2274
N16130 X0.8068 Y-0.183
N16135 X0.8122 Y-0.157
N16140 X0.8158 Y-0.1368
N16145 X0.8224 Y-0.0891
N16150 X0.826 Y-0.0458
N16155 X0.8263 Y-0.0347
N16160 /M121 (LASER OFF)
N16165 X0.8264 Y-0.0312 Z0.3153
N16170 Y-0.0279 Z0.3161
N16175 X0.8265 Y-0.0248 Z0.3176
N16180 X0.8266 Y-0.022 Z0.3196
N16185 X0.8267 Y-0.0196 Z0.322
N16190 Y-0.0176 Z0.3248
N16195 Y-0.0162 Z0.3279
N16200 X0.8268 Y-0.0153 Z0.3312
N16205 Y-0.015 Z0.3346
N16210 G0 Z0.4946
N16215 X-0.7056 Y-0.5682
N16220 Z0.4146
N16225 G1 Z0.3346 F19.685
N16230 /M110 (MEDIA ON)
N16235 X-0.7054 Y-0.5685 Z0.3312
N16240 X-0.7049 Y-0.5691 Z0.3279
N16245 X-0.7039 Y-0.5702 Z0.3248
N16250 X-0.7027 Y-0.5717 Z0.322
N16255 X-0.7011 Y-0.5736 Z0.3196
N16260 X-0.6993 Y-0.5758 Z0.3176
N16265 X-0.6973 Y-0.5781 Z0.3161
N16270 X-0.6952 Y-0.5807 Z0.3153
N16275 X-0.693 Y-0.5833 Z0.315
N16280 /M120 (LASER ON)
N16285 X-0.6782 Y-0.6008
N16290 X-0.6421 Y-0.6392
N16295 X-0.6229 Y-0.6579
N16300 X-0.6016 Y-0.6774
N16305 X-0.5829 Y-0.6936
N16310 X-0.5615 Y-0.711
N16315 X-0.5415 Y-0.7264
N16320 X-0.518 Y-0.7433
N16325 X-0.5011 Y-0.7548
N16330 X-0.4756 Y-0.7711
N16335 X-0.4361 Y-0.7942
N16340 X-0.3899 Y-0.8178
N16345 X-0.3667 Y-0.8285
N16350 X-0.3407 Y-0.8395
N16355 X-0.3219 Y-0.8469
N16360 X-0.2936 Y-0.8571
N16365 X-0.2495 Y-0.871
N16370 X-0.1973 Y-0.8842
N16375 X-0.1636 Y-0.8911
N16380 X-0.1344 Y-0.896
N16385 X-0.0963 Y-0.9009
N16390 X-0.0668 Y-0.9035
N16395 X-0.0297 Y-0.9055
N16400 X0.0017 Y-0.906
N16405 X0.0384 Y-0.9052
N16410 X0.0678 Y-0.9035
N16415 X0.1055 Y-0.8999
N16420 X0.1347 Y-0.896
N16425 X0.1724 Y-0.8895
N16430 X0.2016 Y-0.8833
N16435 X0.2373 Y-0.8744
N16440 X0.2651 Y-0.8664
N16445 X0.3 Y-0.8549
N16450 X0.3276 Y-0.8447
N16455 X0.3628 Y-0.8302
N16460 X0.3899 Y-0.8179
N16465 X0.4223 Y-0.8016
N16470 X0.4549 Y-0.7835
N16475 X0.4845 Y-0.7656
N16480 X0.5126 Y-0.7471
N16485 X0.5367 Y-0.73
N16490 X0.5679 Y-0.7059
N16495 X0.6008 Y-0.6782
N16500 X0.6392 Y-0.6421
N16505 X0.6579 Y-0.6229
N16510 X0.6774 Y-0.6016
N16515 X0.6936 Y-0.5829
N16520 X0.711 Y-0.5615
N16525 X0.7264 Y-0.5415
N16530 X0.7434 Y-0.518
N16535 X0.7548 Y-0.5012
N16540 X0.7711 Y-0.4756
N16545 X0.7942 Y-0.4361
N16550 X0.8178 Y-0.3899
N16555 X0.8285 Y-0.3667
N16560 X0.8395 Y-0.3407
N16565 X0.8469 Y-0.3219
N16570 X0.8571 Y-0.2936
N16575 X0.871 Y-0.2495
N16580 X0.8841 Y-0.1982
N16585 X0.8892 Y-0.1736
N16590 X0.8939 Y-0.1472
N16595 X0.9004 Y-0.1008
N16600 X0.9046 Y-0.0504
N16605 X0.906 Y0.
N16610 X0.9046 Y0.0504
N16615 X0.9004 Y0.1008
N16620 X0.8926 Y0.1552
N16625 X0.8888 Y0.1759
N16630 X0.8832 Y0.2021
N16635 X0.871 Y0.2495
N16640 X0.8545 Y0.3012
N16645 X0.8473 Y0.3209
N16650 X0.836 Y0.3492
N16655 X0.8261 Y0.3719
N16660 X0.8145 Y0.3966
N16665 X0.7942 Y0.4361
N16670 X0.7669 Y0.4825
N16675 X0.7554 Y0.5002
N16680 X0.7381 Y0.5255
N16685 X0.7231 Y0.5458
N16690 X0.7057 Y0.5682
N16695 X0.6899 Y0.5873
N16700 X0.6717 Y0.608
N16705 X0.6544 Y0.6266
N16710 X0.6338 Y0.6474
N16715 X0.6008 Y0.6782
N16720 X0.5649 Y0.7084
N16725 X0.5334 Y0.7324
N16730 X0.509 Y0.7495
N16735 X0.4773 Y0.7701
N16740 X0.4527 Y0.7849
N16745 X0.4211 Y0.8022
N16750 X0.3862 Y0.8196
N16755 X0.359 Y0.8319
N16760 X0.3232 Y0.8464
N16765 X0.2956 Y0.8564
N16770 X0.2603 Y0.8678
N16775 X0.2323 Y0.8757
N16780 X0.1973 Y0.8843
N16785 X0.1683 Y0.8903
N16790 X0.1303 Y0.8966
N16795 X0.1011 Y0.9004
N16800 X0.0633 Y0.9038
N16805 X0.0339 Y0.9054
N16810 X-0.0041 Y0.906
N16815 X-0.0336 Y0.9054
N16820 X-0.0713 Y0.9032
N16825 X-0.1007 Y0.9004
N16830 X-0.1385 Y0.8954
N16835 X-0.1722 Y0.8895
N16840 X-0.2016 Y0.8833
N16845 X-0.2495 Y0.871
N16850 X-0.3012 Y0.8545
N16855 X-0.3209 Y0.8473
N16860 X-0.3492 Y0.836
N16865 X-0.3719 Y0.8261
N16870 X-0.3967 Y0.8145
N16875 X-0.4361 Y0.7942
N16880 X-0.4825 Y0.7669
N16885 X-0.5002 Y0.7554
N16890 X-0.5255 Y0.7381
N16895 X-0.5458 Y0.7231
N16900 X-0.5682 Y0.7057
N16905 X-0.5873 Y0.6899
N16910 X-0.608 Y0.6717
N16915 X-0.6266 Y0.6544
N16920 X-0.6474 Y0.6338
N16925 X-0.6782 Y0.6008
N16930 X-0.7084 Y0.5649
N16935 X-0.7273 Y0.5402
N16940 X-0.7422 Y0.5196
N16945 X-0.7578 Y0.4966
N16950 X-0.77 Y0.4774
N16955 X-0.7942 Y0.4361
N16960 X-0.8178 Y0.3899
N16965 X-0.8285 Y0.3667
N16970 X-0.8395 Y0.3407
N16975 X-0.8469 Y0.3219
N16980 X-0.856 Y0.2968
N16985 X-0.871 Y0.2495
N16990 X-0.8842 Y0.1976
N16995 X-0.8886 Y0.177
N17000 X-0.8939 Y0.1472
N17005 X-0.9004 Y0.1008
N17010 X-0.9046 Y0.0504
N17015 X-0.906 Y0.
N17020 X-0.9046 Y-0.0504
N17025 X-0.9004 Y-0.1008
N17030 X-0.8927 Y-0.1546
N17035 X-0.8881 Y-0.1794
N17040 X-0.8824 Y-0.2055
N17045 X-0.871 Y-0.2495
N17050 X-0.8547 Y-0.3007
N17055 X-0.846 Y-0.3242
N17060 X-0.836 Y-0.3492
N17065 X-0.8261 Y-0.3719
N17070 X-0.8145 Y-0.3966
N17075 X-0.7942 Y-0.4361
N17080 X-0.7672 Y-0.482
N17085 X-0.7535 Y-0.5031
N17090 X-0.7381 Y-0.5255
N17095 X-0.7231 Y-0.5458
N17100 X-0.7058 Y-0.568
N17105 X-0.693 Y-0.5833
N17110 /M121 (LASER OFF)
N17115 X-0.6907 Y-0.5859 Z0.3153
N17120 X-0.6886 Y-0.5884 Z0.3161
N17125 X-0.6866 Y-0.5908 Z0.3176
N17130 X-0.6848 Y-0.593 Z0.3196
N17135 X-0.6832 Y-0.5948 Z0.322
N17140 X-0.682 Y-0.5963 Z0.3248
N17145 X-0.681 Y-0.5974 Z0.3279
N17150 X-0.6805 Y-0.5981 Z0.3312
N17155 X-0.6803 Y-0.5983 Z0.3346
N17160 G0 Z0.534
N17165 X0.0181 Y-0.8173
N17170 Z0.454
N17175 G1 Z0.374 F19.685
N17180 /M110 (MEDIA ON)
N17185 X0.0184 Z0.3706
N17190 X0.0193 Y-0.8172 Z0.3673
N17195 X0.0208 Y-0.8171 Z0.3642
N17200 X0.0227 Y-0.817 Z0.3614
N17205 X0.0252 Y-0.8169 Z0.3589
N17210 X0.028 Y-0.8167 Z0.357
N17215 X0.0311 Y-0.8165 Z0.3555
N17220 X0.0344 Y-0.8163 Z0.3546
N17225 X0.0378 Y-0.8161 Z0.3543
N17230 /M120 (LASER ON)
N17235 X0.062 Y-0.8147
N17240 X0.0953 Y-0.8115
N17245 X0.1245 Y-0.8075
N17250 X0.1513 Y-0.803
N17255 X0.1855 Y-0.7957
N17260 X0.2116 Y-0.7892
N17265 X0.2422 Y-0.7803
N17270 X0.268 Y-0.7718
N17275 X0.2988 Y-0.7604
N17280 X0.3243 Y-0.7499
N17285 X0.3536 Y-0.7366
N17290 X0.3831 Y-0.7217
N17295 X0.4079 Y-0.708
N17300 X0.437 Y-0.6904
N17305 X0.4617 Y-0.6741
N17310 X0.4856 Y-0.6571
N17315 X0.5092 Y-0.639
N17320 X0.5417 Y-0.6116
N17325 X0.5745 Y-0.581
N17330 X0.5944 Y-0.5606
N17335 X0.6103 Y-0.5432
N17340 X0.6306 Y-0.5195
N17345 X0.6473 Y-0.4985
N17350 X0.6679 Y-0.4707
N17355 X0.681 Y-0.4515
N17360 X0.6943 Y-0.4307
N17365 X0.7162 Y-0.3932
N17370 X0.7383 Y-0.35
N17375 X0.7491 Y-0.3262
N17380 X0.7576 Y-0.306
N17385 X0.7657 Y-0.285
N17390 X0.7725 Y-0.2661
N17395 X0.7855 Y-0.225
N17400 X0.7967 Y-0.1813
N17405 X0.8021 Y-0.1555
N17410 X0.806 Y-0.1333
N17415 X0.8123 Y-0.088
N17420 X0.8158 Y-0.0454
N17425 X0.8171 Y0.
N17430 X0.8158 Y0.0454
N17435 X0.812 Y0.0909
N17440 X0.8049 Y0.1405
N17445 X0.8015 Y0.1588
N17450 X0.7959 Y0.1848
N17455 X0.7855 Y0.225
N17460 X0.7713 Y0.2698
N17465 X0.764 Y0.2896
N17470 X0.7537 Y0.3156
N17475 X0.7463 Y0.3327
N17480 X0.7348 Y0.3572
N17485 X0.7162 Y0.3932
N17490 X0.6929 Y0.433
N17495 X0.6784 Y0.4553
N17500 X0.6681 Y0.4704
N17505 X0.6513 Y0.4933
N17510 X0.637 Y0.5117
N17515 X0.617 Y0.5356
N17520 X0.5994 Y0.5551
N17525 X0.5755 Y0.5801
N17530 X0.5417 Y0.6116
N17535 X0.5092 Y0.639
N17540 X0.4811 Y0.6604
N17545 X0.4583 Y0.6764
N17550 X0.4305 Y0.6945
N17555 X0.4083 Y0.7078
N17560 X0.3798 Y0.7235
N17565 X0.3484 Y0.7391
N17570 X0.3229 Y0.7505
N17575 X0.2916 Y0.7632
N17580 X0.2658 Y0.7726
N17585 X0.2348 Y0.7826
N17590 X0.2087 Y0.79
N17595 X0.178 Y0.7974
N17600 X0.1509 Y0.803
N17605 X0.1176 Y0.8086
N17610 X0.0903 Y0.8121
N17615 X0.0572 Y0.8151
N17620 X0.0298 Y0.8165
N17625 X-0.0036 Y0.817
N17630 X-0.0314 Y0.8164
N17635 X-0.0642 Y0.8145
N17640 X-0.0917 Y0.8119
N17645 X-0.1249 Y0.8074
N17650 X-0.1536 Y0.8025
N17655 X-0.1817 Y0.7966
N17660 X-0.225 Y0.7855
N17665 X-0.2721 Y0.7705
N17670 X-0.2999 Y0.76
N17675 X-0.311 Y0.7556
N17680 X-0.3372 Y0.7442
N17685 X-0.3542 Y0.7363
N17690 X-0.3932 Y0.7162
N17695 X-0.4355 Y0.6913
N17700 X-0.4617 Y0.6741
N17705 X-0.4706 Y0.668
N17710 X-0.4933 Y0.6513
N17715 X-0.5117 Y0.637
N17720 X-0.5311 Y0.6209
N17725 X-0.5452 Y0.6086
N17730 X-0.5661 Y0.5891
N17735 X-0.5822 Y0.5732
N17740 X-0.6117 Y0.5417
N17745 X-0.641 Y0.5067
N17750 X-0.6553 Y0.488
N17755 X-0.6704 Y0.467
N17760 X-0.6808 Y0.4519
N17765 X-0.6951 Y0.4293
N17770 X-0.7162 Y0.3932
N17775 X-0.738 Y0.3507
N17780 X-0.748 Y0.3287
N17785 X-0.7558 Y0.3104
N17790 X-0.7655 Y0.2855
N17795 X-0.7726 Y0.2657
N17800 X-0.7855 Y0.225
N17805 X-0.7967 Y0.1813
N17810 X-0.8032 Y0.1495
N17815 X-0.8055 Y0.1369
N17820 X-0.8121 Y0.0902
N17825 X-0.8158 Y0.0454
N17830 X-0.8171 Y0.
N17835 X-0.8158 Y-0.0454
N17840 X-0.812 Y-0.0909
N17845 X-0.805 Y-0.1399
N17850 X-0.7993 Y-0.1691
N17855 X-0.7951 Y-0.1876
N17860 X-0.7855 Y-0.225
N17865 X-0.7703 Y-0.2723
N17870 X-0.7629 Y-0.2926
N17875 X-0.7512 Y-0.3214
N17880 X-0.7463 Y-0.3327
N17885 X-0.7348 Y-0.3572
N17890 X-0.7162 Y-0.3932
N17895 X-0.6917 Y-0.435
N17900 X-0.6815 Y-0.4508
N17905 X-0.6648 Y-0.475
N17910 X-0.6503 Y-0.4946
N17915 X-0.6385 Y-0.5099
N17920 X-0.6117 Y-0.5417
N17925 X-0.581 Y-0.5745
N17930 X-0.5573 Y-0.5974
N17935 X-0.5424 Y-0.611
N17940 X-0.5219 Y-0.6286
N17945 X-0.5096 Y-0.6387
N17950 X-0.4873 Y-0.6559
N17955 X-0.4683 Y-0.6695
N17960 X-0.4484 Y-0.683
N17965 X-0.4298 Y-0.6948
N17970 X-0.3932 Y-0.7162
N17975 X-0.3497 Y-0.7384
N17980 X-0.3331 Y-0.7461
N17985 X-0.3071 Y-0.7571
N17990 X-0.2902 Y-0.7638
N17995 X-0.2653 Y-0.7728
N18000 X-0.225 Y-0.7855
N18005 X-0.1815 Y-0.7967
N18010 X-0.1477 Y-0.8036
N18015 X-0.1199 Y-0.8082
N18020 X-0.0869 Y-0.8124
N18025 X-0.0594 Y-0.8149
N18030 X-0.0266 Y-0.8166
N18035 X0.002 Y-0.817
N18040 X0.0346 Y-0.8163
N18045 X0.0378 Y-0.8161
N18050 /M121 (LASER OFF)
N18055 X0.0412 Y-0.8159 Z0.3546
N18060 X0.0445 Y-0.8157 Z0.3555
N18065 X0.0476 Y-0.8156 Z0.357
N18070 X0.0504 Y-0.8154 Z0.3589
N18075 X0.0529 Y-0.8153 Z0.3614
N18080 X0.0548 Y-0.8151 Z0.3642
N18085 X0.0563 Z0.3673
N18090 X0.0572 Y-0.815 Z0.3706
N18095 X0.0575 Z0.374
N18100 G0 Z0.534
N18105 X-0.6205 Y0.6461
N18110 Z0.454
N18115 G1 Z0.374 F19.685
N18120 /M110 (MEDIA ON)
N18125 X-0.6207 Y0.6459 Z0.3706
N18130 X-0.6213 Y0.6452 Z0.3673
N18135 X-0.6224 Y0.6442 Z0.3642
N18140 X-0.6238 Y0.6428 Z0.3614
N18145 X-0.6255 Y0.6411 Z0.3589
N18150 X-0.6275 Y0.6391 Z0.357
N18155 X-0.6297 Y0.637 Z0.3555
N18160 X-0.6321 Y0.6346 Z0.3546
N18165 X-0.6345 Y0.6322 Z0.3543
N18170 /M120 (LASER ON)
N18175 X-0.6401 Y0.6267
N18180 X-0.6706 Y0.594
N18185 X-0.7004 Y0.5585
N18190 X-0.7191 Y0.5341
N18195 X-0.7338 Y0.5138
N18200 X-0.7493 Y0.4909
N18205 X-0.7613 Y0.472
N18210 X-0.7853 Y0.4312
N18215 X-0.8071 Y0.3887
N18220 X-0.82 Y0.3607
N18225 X-0.828 Y0.3419
N18230 X-0.8393 Y0.3132
N18235 X-0.8468 Y0.2923
N18240 X-0.8612 Y0.2467
N18245 X-0.8743 Y0.1954
N18250 X-0.8786 Y0.175
N18255 X-0.8839 Y0.1456
N18260 X-0.8903 Y0.0997
N18265 X-0.8944 Y0.0498
N18270 X-0.8958 Y0.
N18275 X-0.8944 Y-0.0498
N18280 X-0.8903 Y-0.0997
N18285 X-0.8827 Y-0.1529
N18290 X-0.8781 Y-0.1774
N18295 X-0.8724 Y-0.2032
N18300 X-0.8612 Y-0.2467
N18305 X-0.8451 Y-0.2973
N18310 X-0.8365 Y-0.3206
N18315 X-0.8263 Y-0.3459
N18320 X-0.8169 Y-0.3676
N18325 X-0.8054 Y-0.3922
N18330 X-0.7853 Y-0.4312
N18335 X-0.7585 Y-0.4766
N18340 X-0.745 Y-0.4975
N18345 X-0.7297 Y-0.5196
N18350 X-0.715 Y-0.5397
N18355 X-0.6979 Y-0.5616
N18360 X-0.6706 Y-0.594
N18365 X-0.6348 Y-0.632
N18370 X-0.6158 Y-0.6506
N18375 X-0.5943 Y-0.6703
N18380 X-0.5789 Y-0.6836
N18385 X-0.5552 Y-0.703
N18390 X-0.5353 Y-0.7182
N18395 X-0.5121 Y-0.735
N18400 X-0.4955 Y-0.7463
N18405 X-0.4702 Y-0.7624
N18410 X-0.4312 Y-0.7853
N18415 X-0.3855 Y-0.8086
N18420 X-0.3625 Y-0.8192
N18425 X-0.3368 Y-0.8301
N18430 X-0.3183 Y-0.8374
N18435 X-0.2902 Y-0.8475
N18440 X-0.2467 Y-0.8612
N18445 X-0.1951 Y-0.8743
N18450 X-0.1618 Y-0.8811
N18455 X-0.1327 Y-0.886
N18460 X-0.0952 Y-0.8907
N18465 X-0.0659 Y-0.8934
N18470 X-0.0293 Y-0.8953
N18475 X0.0019 Y-0.8958
N18480 X0.038 Y-0.895
N18485 X0.0672 Y-0.8933
N18490 X0.1044 Y-0.8897
N18495 X0.1334 Y-0.8859
N18500 X0.1705 Y-0.8794
N18505 X0.1995 Y-0.8733
N18510 X0.2346 Y-0.8645
N18515 X0.2623 Y-0.8566
N18520 X0.2967 Y-0.8452
N18525 X0.324 Y-0.8352
N18530 X0.3587 Y-0.8208
N18535 X0.3856 Y-0.8086
N18540 X0.4177 Y-0.7925
N18545 X0.4497 Y-0.7748
N18550 X0.4791 Y-0.757
N18555 X0.5076 Y-0.7381
N18560 X0.5308 Y-0.7217
N18565 X0.5615 Y-0.698
N18570 X0.594 Y-0.6706
N18575 X0.632 Y-0.6348
N18580 X0.6506 Y-0.6158
N18585 X0.6702 Y-0.5943
N18590 X0.6836 Y-0.5789
N18595 X0.703 Y-0.5552
N18600 X0.7182 Y-0.5353
N18605 X0.735 Y-0.5121
N18610 X0.7463 Y-0.4955
N18615 X0.7624 Y-0.4702
N18620 X0.7853 Y-0.4312
N18625 X0.8086 Y-0.3855
N18630 X0.8192 Y-0.3625
N18635 X0.8301 Y-0.3368
N18640 X0.8374 Y-0.3183
N18645 X0.8475 Y-0.2902
N18650 X0.8612 Y-0.2467
N18655 X0.8741 Y-0.1959
N18660 X0.8792 Y-0.1716
N18665 X0.8839 Y-0.1456
N18670 X0.8903 Y-0.0997
N18675 X0.8944 Y-0.0498
N18680 X0.8958 Y0.
N18685 X0.8944 Y0.0498
N18690 X0.8903 Y0.0997
N18695 X0.8826 Y0.1535
N18700 X0.8788 Y0.174
N18705 X0.8732 Y0.1999
N18710 X0.8612 Y0.2467
N18715 X0.8449 Y0.2978
N18720 X0.8378 Y0.3173
N18725 X0.8263 Y0.3459
N18730 X0.8183 Y0.3646
N18735 X0.8069 Y0.389
N18740 X0.7853 Y0.4312
N18745 X0.7583 Y0.477
N18750 X0.7469 Y0.4946
N18755 X0.7297 Y0.5196
N18760 X0.715 Y0.5397
N18765 X0.6973 Y0.5623
N18770 X0.6844 Y0.5781
N18775 X0.6641 Y0.6011
N18780 X0.647 Y0.6196
N18785 X0.6267 Y0.6401
N18790 X0.594 Y0.6706
N18795 X0.5585 Y0.7004
N18800 X0.5274 Y0.7241
N18805 X0.5032 Y0.7412
N18810 X0.4719 Y0.7614
N18815 X0.4475 Y0.7761
N18820 X0.4163 Y0.7932
N18825 X0.3818 Y0.8103
N18830 X0.3548 Y0.8226
N18835 X0.3196 Y0.8368
N18840 X0.2921 Y0.8468
N18845 X0.2573 Y0.858
N18850 X0.2296 Y0.8659
N18855 X0.195 Y0.8743
N18860 X0.1662 Y0.8803
N18865 X0.1289 Y0.8865
N18870 X0.0998 Y0.8903
N18875 X0.0626 Y0.8936
N18880 X0.0334 Y0.8952
N18885 X-0.0041 Y0.8958
N18890 X-0.0335 Y0.8952
N18895 X-0.0705 Y0.893
N18900 X-0.0997 Y0.8903
N18905 X-0.137 Y0.8853
N18910 X-0.1703 Y0.8795
N18915 X-0.1993 Y0.8734
N18920 X-0.2467 Y0.8612
N18925 X-0.2978 Y0.8449
N18930 X-0.3173 Y0.8378
N18935 X-0.3459 Y0.8263
N18940 X-0.3646 Y0.8183
N18945 X-0.389 Y0.8069
N18950 X-0.4312 Y0.7853
N18955 X-0.477 Y0.7582
N18960 X-0.4946 Y0.7469
N18965 X-0.5196 Y0.7297
N18970 X-0.5397 Y0.715
N18975 X-0.5623 Y0.6973
N18980 X-0.5781 Y0.6844
N18985 X-0.6011 Y0.6642
N18990 X-0.6196 Y0.647
N18995 X-0.6345 Y0.6322
N19000 /M121 (LASER OFF)
N19005 X-0.6369 Y0.6298 Z0.3546
N19010 X-0.6393 Y0.6275 Z0.3555
N19015 X-0.6415 Y0.6253 Z0.357
N19020 X-0.6435 Y0.6233 Z0.3589
N19025 X-0.6452 Y0.6216 Z0.3614
N19030 X-0.6466 Y0.6202 Z0.3642
N19035 X-0.6476 Y0.6192 Z0.3673
N19040 X-0.6483 Y0.6186 Z0.3706
N19045 X-0.6485 Y0.6184 Z0.374
N19050 G0 Z0.5734
N19055 X-0.8025 Y-0.0877
N19060 Z0.4934
N19065 G1 Z0.4134 F19.685
N19070 /M110 (MEDIA ON)
N19075 Y-0.088 Z0.41
N19080 X-0.8023 Y-0.0889 Z0.4067
N19085 X-0.8021 Y-0.0903 Z0.4035
N19090 X-0.8018 Y-0.0923 Z0.4007
N19095 X-0.8015 Y-0.0947 Z0.3983
N19100 X-0.8011 Y-0.0975 Z0.3963
N19105 X-0.8007 Y-0.1005 Z0.3949
N19110 X-0.8002 Y-0.1038 Z0.394
N19115 X-0.7997 Y-0.1072 Z0.3937
N19120 /M120 (LASER ON)
N19125 X-0.7953 Y-0.1381
N19130 X-0.7913 Y-0.1597
N19135 X-0.7863 Y-0.1823
N19140 X-0.7746 Y-0.2268
N19145 X-0.7608 Y-0.2698
N19150 X-0.7495 Y-0.2999
N19155 X-0.7349 Y-0.3338
N19160 X-0.7266 Y-0.3516
N19165 X-0.7076 Y-0.3885
N19170 X-0.6849 Y-0.4272
N19175 X-0.6721 Y-0.4471
N19180 X-0.6592 Y-0.4659
N19185 X-0.6434 Y-0.4874
N19190 X-0.6302 Y-0.5044
N19195 X-0.6043 Y-0.5352
N19200 X-0.574 Y-0.5675
N19205 X-0.5537 Y-0.5873
N19210 X-0.5348 Y-0.6046
N19215 X-0.5103 Y-0.6255
N19220 X-0.4844 Y-0.6457
N19225 X-0.4613 Y-0.6624
N19230 X-0.4425 Y-0.6751
N19235 X-0.4276 Y-0.6847
N19240 X-0.3885 Y-0.7076
N19245 X-0.3498 Y-0.7275
N19250 X-0.3249 Y-0.7389
N19255 X-0.3079 Y-0.7462
N19260 X-0.2782 Y-0.7577
N19265 X-0.262 Y-0.7635
N19270 X-0.2223 Y-0.776
N19275 X-0.1793 Y-0.7871
N19280 X-0.1498 Y-0.7932
N19285 X-0.1159 Y-0.7988
N19290 X-0.0887 Y-0.8023
N19295 X-0.0558 Y-0.8053
N19300 X-0.0285 Y-0.8067
N19305 X0.0042 Y-0.8072
N19310 X0.0336 Y-0.8065
N19315 X0.0606 Y-0.805
N19320 X0.094 Y-0.8017
N19325 X0.121 Y-0.7981
N19330 X0.1551 Y-0.7922
N19335 X0.1799 Y-0.7869
N19340 X0.2113 Y-0.7791
N19345 X0.2419 Y-0.77
N19350 X0.264 Y-0.7628
N19355 X0.2952 Y-0.7513
N19360 X0.3205 Y-0.7408
N19365 X0.3525 Y-0.7261
N19370 X0.3796 Y-0.7124
N19375 X0.4041 Y-0.6988
N19380 X0.4318 Y-0.682
N19385 X0.4562 Y-0.6659
N19390 X0.4792 Y-0.6496
N19395 X0.5031 Y-0.6313
N19400 X0.5352 Y-0.6043
N19405 X0.5675 Y-0.574
N19410 X0.5872 Y-0.5539
N19415 X0.603 Y-0.5366
N19420 X0.6232 Y-0.513
N19425 X0.6309 Y-0.5036
N19430 X0.6489 Y-0.48
N19435 X0.6598 Y-0.4651
N19440 X0.6749 Y-0.4428
N19445 X0.6882 Y-0.4216
N19450 X0.7076 Y-0.3885
N19455 X0.7275 Y-0.3498
N19460 X0.7372 Y-0.3289
N19465 X0.7476 Y-0.3044
N19470 X0.7569 Y-0.2803
N19475 X0.7622 Y-0.2658
N19480 X0.776 Y-0.2223
N19485 X0.7871 Y-0.1791
N19490 X0.7933 Y-0.1486
N19495 X0.7964 Y-0.1316
N19500 X0.8022 Y-0.0898
N19505 X0.806 Y-0.0449
N19510 X0.8072 Y0.
N19515 X0.806 Y0.0449
N19520 X0.8022 Y0.0898
N19525 X0.7952 Y0.1385
N19530 X0.7916 Y0.1583
N19535 X0.7863 Y0.1826
N19540 X0.776 Y0.2223
N19545 X0.7624 Y0.2653
N19550 X0.7548 Y0.2861
N19555 X0.7446 Y0.3118
N19560 X0.7373 Y0.3287
N19565 X0.7253 Y0.3542
N19570 X0.7076 Y0.3885
N19575 X0.6849 Y0.4272
N19580 X0.6673 Y0.4542
N19585 X0.6458 Y0.4844
N19590 X0.6281 Y0.507
N19595 X0.6116 Y0.5267
N19600 X0.5941 Y0.5463
N19605 X0.5827 Y0.5586
N19610 X0.565 Y0.5764
N19615 X0.5352 Y0.6043
N19620 X0.5003 Y0.6334
N19625 X0.478 Y0.6505
N19630 X0.4503 Y0.67
N19635 X0.4274 Y0.6848
N19640 X0.4008 Y0.7007
N19645 X0.3748 Y0.7149
N19650 X0.3442 Y0.7301
N19655 X0.3189 Y0.7415
N19660 X0.288 Y0.754
N19665 X0.2622 Y0.7634
N19670 X0.232 Y0.7731
N19675 X0.2051 Y0.7807
N19680 X0.1754 Y0.7879
N19685 X0.15 Y0.7932
N19690 X0.1162 Y0.7988
N19695 X0.0864 Y0.8025
N19700 X0.0566 Y0.8052
N19705 X0.0301 Y0.8067
N19710 X-0.0036 Y0.8072
N19715 X-0.0311 Y0.8066
N19720 X-0.0635 Y0.8047
N19725 X-0.0934 Y0.8017
N19730 X-0.1229 Y0.7978
N19735 X-0.1498 Y0.7932
N19740 X-0.1825 Y0.7863
N19745 X-0.2223 Y0.776
N19750 X-0.2697 Y0.7609
N19755 X-0.2949 Y0.7514
N19760 X-0.3224 Y0.74
N19765 X-0.3529 Y0.7259
N19770 X-0.3885 Y0.7076
N19775 X-0.4272 Y0.6849
N19780 X-0.4499 Y0.6702
N19785 X-0.4647 Y0.66
N19790 X-0.4874 Y0.6435
N19795 X-0.5056 Y0.6293
N19800 X-0.5248 Y0.6134
N19805 X-0.5387 Y0.6012
N19810 X-0.5606 Y0.5807
N19815 X-0.5745 Y0.567
N19820 X-0.6043 Y0.5352
N19825 X-0.6333 Y0.5006
N19830 X-0.6474 Y0.4821
N19835 X-0.6624 Y0.4613
N19840 X-0.6767 Y0.44
N19845 X-0.6847 Y0.4275
N19850 X-0.7076 Y0.3885
N19855 X-0.7291 Y0.3465
N19860 X-0.737 Y0.3294
N19865 X-0.748 Y0.3034
N19870 X-0.7563 Y0.282
N19875 X-0.7643 Y0.2592
N19880 X-0.776 Y0.2223
N19885 X-0.7871 Y0.1791
N19890 X-0.7931 Y0.1501
N19895 X-0.7958 Y0.1356
N19900 X-0.8022 Y0.0898
N19905 X-0.806 Y0.0449
N19910 X-0.8072 Y0.
N19915 X-0.806 Y-0.0449
N19920 X-0.8022 Y-0.0898
N19925 X-0.7997 Y-0.1072
N19930 /M121 (LASER OFF)
N19935 X-0.7992 Y-0.1106 Z0.394
N19940 X-0.7988 Y-0.1139 Z0.3949
N19945 X-0.7983 Y-0.117 Z0.3963
N19950 X-0.7979 Y-0.1197 Z0.3983
N19955 X-0.7976 Y-0.1221 Z0.4007
N19960 X-0.7973 Y-0.1241 Z0.4035
N19965 X-0.7971 Y-0.1255 Z0.4067
N19970 X-0.797 Y-0.1264 Z0.41
N19975 X-0.7969 Y-0.1267 Z0.4134
N19980 G0 Z0.5734
N19985 X0.5829 Y0.667
N19990 Z0.4934
N19995 G1 Z0.4134 F19.685
N20000 /M110 (MEDIA ON)
N20005 X0.5827 Y0.6672 Z0.41
N20010 X0.582 Y0.6678 Z0.4067
N20015 X0.5809 Y0.6687 Z0.4035
N20020 X0.5794 Y0.67 Z0.4007
