%
O1001
(JDH - Laser WIRE DED at RIT, Hardinge GX250 with AMBIT FLEX)
(JDH - laser power, powder flow rate, gas flow rates are specified in recipe R01)
(JDH - recipes are defined in the DED controller, NOT in the G-code)
(JDH - G-code calls individual recipes; recipes can be changed on-the-fly)
(JDH - Code generated using Autodesk Fusion 360 + Custom Fanuc Post Processor)
(JDH - IMPORTANT M CODES)
(M98 <RXX> - Recipe assignment for recipe XX, e.g. R01, R02, etc.)
(M184 - Turn Media on, media includes powder and gas flows)
(M185 - Turn Media off)
(M182 - Turn Laser on)
(M183 - Turn Laser off)
(T19 D=0. CR=0. - ZMIN=0.025 - LASER POWDER)
N10 G90 G94 G17 G49 G40 G80
N15 G21
N20 G28 G91 Z0.
N25 G90
N30 M11
N35 M211
N40 M11
N45 M211
N50 G00 A0. C0.
N55 M10
N60 M210

(FEATURE CONSTRUCTION1)
N65 G54
N70 M11
N75 M211
N80 M11
N85 M211
N90 G00 A0. C0.
N95 M10
N100 M210
N105 M98<R01>
N110 /M184
N115 G04 P25000
N120 G5.1 Q1 R10
N125 G00 X2.894 Y-6.48
N130 G43 Z17.374 H19
N135 G28 G91 Z0.
N140 G90
N145 G49
N150 G00
N155 G43 Z17.374 H19 L1
N160 G00 Z5.232
N165 G01 Z3.2 F250.
N170 X2.887 Z2.984 F500.
N175 X2.865 Y-6.479 Z2.768
N180 X2.828 Y-6.477 Z2.554
N185 X2.777 Y-6.475 Z2.344
N190 X2.711 Y-6.472 Z2.137
N195 X2.632 Y-6.468 Z1.935
N200 X2.539 Y-6.464 Z1.74
N205 X2.432 Y-6.46 Z1.551
N210 X2.314 Y-6.454 Z1.369
N215 X2.183 Y-6.448 Z1.197
N220 X2.04 Y-6.442 Z1.033
N225 X1.887 Y-6.435 Z0.88
N230 X1.724 Y-6.428 Z0.738
N235 X1.552 Y-6.42 Z0.607
N240 X1.37 Y-6.412 Z0.488
N245 X1.182 Y-6.403 Z0.381
N250 X0.986 Y-6.394 Z0.288
N255 X0.785 Y-6.385 Z0.209
N260 X0.578 Y-6.376 Z0.143
N265 X0.368 Y-6.367 Z0.092
N270 X0.154 Y-6.357 Z0.055
N275 X-0.061 Y-6.347 Z0.033
N280 X-0.278 Y-6.338 Z0.025
N285 X-0.571 Y-6.324 M182 (LASER ON)
N290 X-1.155 Y-6.244
N295 X-1.747 Y-6.105
N300 X-2.337 Y-5.904
N305 X-2.917 Y-5.641
N310 X-3.475 Y-5.315
N315 X-4.002 Y-4.93
N320 X-4.49 Y-4.49
N325 X-4.93 Y-4.002
N330 X-5.315 Y-3.475
N335 X-5.641 Y-2.917
N340 X-5.904 Y-2.337
N345 X-6.105 Y-1.747
N350 X-6.244 Y-1.155
N355 X-6.324 Y-0.571
N360 X-6.35 Y0.
N365 X-6.324 Y0.571
N370 X-6.244 Y1.155
N375 X-6.105 Y1.747
N380 X-5.904 Y2.337
N385 X-5.641 Y2.917
N390 X-5.315 Y3.475
N395 X-4.93 Y4.002
N400 X-4.49 Y4.49
N405 X-4.002 Y4.93
N410 X-3.475 Y5.315
N415 X-2.917 Y5.641
N420 X-2.337 Y5.904
N425 X-1.747 Y6.105
N430 X-1.155 Y6.244
N435 X-0.571 Y6.324
N440 X0. Y6.35
N445 X0.571 Y6.324
N450 X1.155 Y6.244
N455 X1.747 Y6.105
N460 X2.337 Y5.904
N465 X2.917 Y5.641
N470 X3.475 Y5.315
N475 X4.002 Y4.93
N480 X4.49 Y4.49
N485 X4.93 Y4.002
N490 X5.315 Y3.475
N495 X5.641 Y2.917
N500 X5.904 Y2.337
N505 X6.105 Y1.747
N510 X6.244 Y1.155
N515 X6.324 Y0.571
N520 X6.35 Y0.
N525 X6.324 Y-0.571
N530 X6.244 Y-1.155
N535 X6.105 Y-1.747
N540 X5.904 Y-2.337
N545 X5.641 Y-2.917
N550 X5.315 Y-3.475
N555 X4.93 Y-4.002
N560 X4.49 Y-4.49
N565 X4.002 Y-4.93
N570 X3.475 Y-5.315
N575 X2.917 Y-5.641
N580 X2.337 Y-5.904
N585 X1.747 Y-6.105
N590 X1.155 Y-6.244
N595 X0.571 Y-6.324
N600 X0. Y-6.35
N605 X-0.278 Y-6.338
N610 M183 (LASER OFF)
N615 X-0.494 Y-6.328 Z0.033
N620 X-0.709 Y-6.318 Z0.055
N625 X-0.923 Y-6.308 Z0.092
N630 X-1.133 Y-6.299 Z0.143
N635 X-1.34 Y-6.29 Z0.209
N640 X-1.541 Y-6.281 Z0.288
N645 X-1.737 Y-6.272 Z0.381
N650 X-1.926 Y-6.263 Z0.488
N655 X-2.107 Y-6.255 Z0.607
N660 X-2.279 Y-6.247 Z0.738
N665 X-2.442 Y-6.24 Z0.88
N670 X-2.596 Y-6.233 Z1.033
N675 X-2.738 Y-6.227 Z1.197
N680 X-2.869 Y-6.221 Z1.369
N685 X-2.988 Y-6.216 Z1.551
N690 X-3.094 Y-6.211 Z1.74
N695 X-3.187 Y-6.207 Z1.935
N700 X-3.266 Y-6.203 Z2.137
N705 X-3.332 Y-6.2 Z2.344
N710 X-3.383 Y-6.198 Z2.554
N715 X-3.42 Y-6.196 Z2.768
N720 X-3.442 Y-6.195 Z2.984
N725 X-3.449 Z3.2
N730 G00 Z7.214
N735 X16.972 Y13.33
N740 Z5.232
N745 G01 Z3.2 F250.
N750 X16.964 Z2.984 F500.
N755 X16.942 Y13.328 Z2.768
N760 X16.905 Y13.326 Z2.554
N765 X16.854 Y13.323 Z2.344
N770 X16.789 Y13.319 Z2.137
N775 X16.709 Y13.314 Z1.935
N780 X16.616 Y13.308 Z1.74
N785 X16.51 Y13.301 Z1.551
N790 X16.392 Y13.293 Z1.369
N795 X16.261 Y13.285 Z1.197
N800 X16.119 Y13.276 Z1.033
N805 X15.966 Y13.266 Z0.88
N810 X15.803 Y13.256 Z0.738
N815 X15.63 Y13.245 Z0.607
N820 X15.449 Y13.234 Z0.488
N825 X15.261 Y13.222 Z0.381
N830 X15.065 Y13.209 Z0.288
N835 X14.864 Y13.197 Z0.209
N840 X14.658 Y13.184 Z0.143
N845 X14.448 Y13.17 Z0.092
N850 X14.234 Y13.157 Z0.055
N855 X14.019 Y13.143 Z0.033
N860 X13.803 Y13.129 Z0.025
N865 X13.25 Y13.094 M182 (LASER ON)
N870 X12.701 Y12.987
N875 X12.171 Y12.809
N880 X11.672 Y12.566
N885 X11.263 Y12.332
N890 X10.933 Y12.156
N895 X10.593 Y11.998
N900 X10.244 Y11.859
N905 X9.889 Y11.741
N910 X9.623 Y11.676
N915 X9.346 Y11.638
N920 X9.064 Y11.631
N925 X8.781 Y11.655
N930 X8.502 Y11.71
N935 X8.232 Y11.794
N940 X7.977 Y11.905
N945 X7.738 Y12.041
N950 X7.516 Y12.202
N955 X7.308 Y12.388
N960 X7.12 Y12.598
N965 X6.954 Y12.829
N970 X6.815 Y13.076
N975 X6.704 Y13.336
N980 X6.623 Y13.603
N985 X6.572 Y13.872
N990 X6.532 Y14.245
N995 X6.513 Y14.619
N1000 X6.515 Y14.995
N1005 X6.539 Y15.368
N1010 X6.594 Y16.031
N1015 X6.599 Y16.225
N1020 X6.574 Y16.683
N1025 X6.5 Y17.138
N1030 X6.378 Y17.583
N1035 X6.209 Y18.01
N1040 X5.361 Y18.28
N1045 X4.513 Y18.508
N1050 X4.067 Y18.179
N1055 X3.663 Y17.792
N1060 X3.314 Y17.356
N1065 X3.026 Y16.882
N1070 X2.808 Y16.464
N1075 X2.626 Y16.137
N1080 X2.425 Y15.82
N1085 X2.206 Y15.515
N1090 X1.971 Y15.223
N1095 X1.783 Y15.024
N1100 X1.57 Y14.844
N1105 X1.337 Y14.685
N1110 X1.086 Y14.552
N1115 X0.822 Y14.447
N1120 X0.549 Y14.372
N1125 X0.274 Y14.328
N1130 X0. Y14.314
N1135 X-0.274 Y14.328
N1140 X-0.549 Y14.372
N1145 X-0.822 Y14.447
N1150 X-1.086 Y14.552
N1155 X-1.337 Y14.685
N1160 X-1.57 Y14.844
N1165 X-1.783 Y15.024
N1170 X-1.971 Y15.223
N1175 X-2.206 Y15.515
N1180 X-2.425 Y15.82
N1185 X-2.626 Y16.137
N1190 X-2.808 Y16.464
N1195 X-3.026 Y16.882
N1200 X-3.314 Y17.356
N1205 X-3.663 Y17.792
N1210 X-4.067 Y18.179
N1215 X-4.513 Y18.508
N1220 X-5.361 Y18.28
N1225 X-6.209 Y18.01
N1230 X-6.407 Y17.492
N1235 X-6.537 Y16.948
N1240 X-6.595 Y16.392
N1245 X-6.581 Y15.838
N1250 X-6.518 Y15.068
N1255 X-6.511 Y14.767
N1260 X-6.527 Y14.319
N1265 X-6.572 Y13.872
N1270 X-6.623 Y13.603
N1275 X-6.704 Y13.336
N1280 X-6.815 Y13.076
N1285 X-6.954 Y12.829
N1290 X-7.12 Y12.598
N1295 X-7.308 Y12.388
N1300 X-7.516 Y12.202
N1305 X-7.738 Y12.041
N1310 X-7.977 Y11.905
N1315 X-8.232 Y11.794
N1320 X-8.502 Y11.71
N1325 X-8.781 Y11.655
N1330 X-9.064 Y11.631
N1335 X-9.346 Y11.638
N1340 X-9.623 Y11.676
N1345 X-9.889 Y11.741
N1350 X-10.244 Y11.859
N1355 X-10.593 Y11.998
N1360 X-10.933 Y12.156
N1365 X-11.263 Y12.332
N1370 X-11.672 Y12.566
N1375 X-12.171 Y12.809
N1380 X-12.701 Y12.987
N1385 X-13.25 Y13.094
N1390 X-13.803 Y13.129
N1395 X-14.409 Y12.462
N1400 X-14.96 Y11.794
N1405 X-14.847 Y11.251
N1410 X-14.662 Y10.723
N1415 X-14.411 Y10.224
N1420 X-14.099 Y9.765
N1425 X-13.809 Y9.394
N1430 X-13.588 Y9.092
N1435 X-13.383 Y8.777
N1440 X-13.196 Y8.452
N1445 X-13.029 Y8.117
N1450 X-12.924 Y7.856
N1455 X-12.847 Y7.583
N1460 X-12.801 Y7.304
N1465 X-12.786 Y7.022
N1470 X-12.817 Y6.624
N1475 X-12.913 Y6.221
N1480 X-13.078 Y5.827
N1485 X-13.309 Y5.461
N1490 X-13.597 Y5.139
N1495 X-13.93 Y4.873
N1500 X-14.292 Y4.669
N1505 X-14.667 Y4.531
N1510 X-15.029 Y4.438
N1515 X-15.398 Y4.366
N1520 X-15.769 Y4.315
N1525 X-16.142 Y4.285
N1530 X-16.613 Y4.26
N1535 X-17.164 Y4.196
N1540 X-17.706 Y4.059
N1545 X-18.226 Y3.852
N1550 X-18.71 Y3.583
N1555 X-18.857 Y2.708
N1560 X-18.962 Y1.834
N1565 X-18.573 Y1.438
N1570 X-18.132 Y1.094
N1575 X-17.65 Y0.81
N1580 X-17.14 Y0.593
N1585 X-16.696 Y0.436
N1590 X-16.346 Y0.302
N1595 X-16.004 Y0.149
N1600 X-15.671 Y-0.024
N1605 X-15.349 Y-0.215
N1610 X-15.092 Y-0.401
N1615 X-14.854 Y-0.621
N1620 X-14.642 Y-0.875
N1625 X-14.463 Y-1.155
N1630 X-14.322 Y-1.456
N1635 X-14.221 Y-1.77
N1640 X-14.161 Y-2.089
N1645 X-14.141 Y-2.406
N1650 X-14.152 Y-2.636
N1655 X-14.183 Y-2.867
N1660 X-14.235 Y-3.096
N1665 X-14.308 Y-3.321
N1670 X-14.402 Y-3.538
N1675 X-14.514 Y-3.744
N1680 X-14.643 Y-3.938
N1685 X-14.788 Y-4.118
N1690 X-15.043 Y-4.392
N1695 X-15.314 Y-4.651
N1700 X-15.599 Y-4.895
N1705 X-15.897 Y-5.123
N1710 X-16.279 Y-5.398
N1715 X-16.707 Y-5.75
N1720 X-17.089 Y-6.158
N1725 X-17.415 Y-6.613
N1730 X-17.677 Y-7.101
N1735 X-17.332 Y-7.905
N1740 X-16.943 Y-8.709
N1745 X-16.402 Y-8.831
N1750 X-15.845 Y-8.883
N1755 X-15.286 Y-8.861
N1760 X-14.74 Y-8.768
N1765 X-14.281 Y-8.659
N1770 X-13.915 Y-8.583
N1775 X-13.544 Y-8.527
N1780 X-13.17 Y-8.493
N1785 X-12.796 Y-8.479
N1790 X-12.545 Y-8.489
N1795 X-12.293 Y-8.525
N1800 X-12.042 Y-8.585
N1805 X-11.798 Y-8.671
N1810 X-11.564 Y-8.78
N1815 X-11.343 Y-8.911
N1820 X-11.137 Y-9.063
N1825 X-10.951 Y-9.231
N1830 X-10.781 Y-9.416
N1835 X-10.628 Y-9.62
N1840 X-10.495 Y-9.84
N1845 X-10.384 Y-10.074
N1850 X-10.296 Y-10.317
N1855 X-10.234 Y-10.567
N1860 X-10.197 Y-10.819
N1865 X-10.185 Y-11.07
N1870 X-10.192 Y-11.265
N1875 X-10.214 Y-11.459
N1880 X-10.281 Y-11.828
N1885 X-10.368 Y-12.192
N1890 X-10.476 Y-12.552
N1895 X-10.604 Y-12.904
N1900 X-10.777 Y-13.342
N1905 X-10.946 Y-13.87
N1910 X-11.047 Y-14.42
N1915 X-11.075 Y-14.978
N1920 X-11.031 Y-15.531
N1925 X-10.288 Y-16.033
N1930 X-9.545 Y-16.486
N1935 X-9.024 Y-16.297
N1940 X-8.528 Y-16.039
N1945 X-8.069 Y-15.719
N1950 X-7.66 Y-15.345
N1955 X-7.333 Y-15.006
N1960 X-7.065 Y-14.743
N1965 X-6.783 Y-14.496
N1970 X-6.488 Y-14.265
N1975 X-6.18 Y-14.051
N1980 X-5.892 Y-13.888
N1985 X-5.578 Y-13.76
N1990 X-5.247 Y-13.674
N1995 X-4.906 Y-13.633
N2000 X-4.46 Y-13.647
N2005 X-4.033 Y-13.734
N2010 X-3.774 Y-13.825
N2015 X-3.522 Y-13.945
N2020 X-3.282 Y-14.093
N2025 X-3.058 Y-14.268
N2030 X-2.855 Y-14.467
N2035 X-2.675 Y-14.685
N2040 X-2.522 Y-14.918
N2045 X-2.397 Y-15.162
N2050 X-2.254 Y-15.508
N2055 X-2.131 Y-15.862
N2060 X-2.027 Y-16.223
N2065 X-1.944 Y-16.588
N2070 X-1.853 Y-17.05
N2075 X-1.71 Y-17.586
N2080 X-1.498 Y-18.103
N2085 X-1.219 Y-18.588
N2090 X-0.884 Y-19.029
N2095 X0. Y-19.05
N2100 X0.884 Y-19.029
N2105 X1.219 Y-18.588
N2110 X1.498 Y-18.103
N2115 X1.71 Y-17.586
N2120 X1.853 Y-17.05
N2125 X1.944 Y-16.588
N2130 X2.027 Y-16.223
N2135 X2.131 Y-15.862
N2140 X2.254 Y-15.508
N2145 X2.397 Y-15.162
N2150 X2.522 Y-14.918
N2155 X2.675 Y-14.685
N2160 X2.855 Y-14.467
N2165 X3.058 Y-14.268
N2170 X3.282 Y-14.093
N2175 X3.522 Y-13.945
N2180 X3.774 Y-13.825
N2185 X4.033 Y-13.734
N2190 X4.349 Y-13.662
N2195 X4.679 Y-13.63
N2200 X5.014 Y-13.641
N2205 X5.346 Y-13.695
N2210 X5.569 Y-13.757
N2215 X5.784 Y-13.839
N2220 X5.988 Y-13.937
N2225 X6.18 Y-14.051
N2230 X6.488 Y-14.265
N2235 X6.783 Y-14.496
N2240 X7.065 Y-14.743
N2245 X7.333 Y-15.006
N2250 X7.66 Y-15.345
N2255 X8.069 Y-15.719
N2260 X8.528 Y-16.039
N2265 X9.024 Y-16.297
N2270 X9.545 Y-16.486
N2275 X10.288 Y-16.033
N2280 X11.031 Y-15.531
N2285 X11.065 Y-15.224
N2290 X11.076 Y-14.915
N2295 X11.057 Y-14.514
N2300 X11. Y-14.114
N2305 X10.906 Y-13.722
N2310 X10.777 Y-13.342
N2315 X10.604 Y-12.904
N2320 X10.476 Y-12.552
N2325 X10.368 Y-12.192
N2330 X10.281 Y-11.828
N2335 X10.214 Y-11.459
N2340 X10.187 Y-11.186
N2345 X10.19 Y-10.907
N2350 X10.223 Y-10.627
N2355 X10.287 Y-10.35
N2360 X10.38 Y-10.082
N2365 X10.502 Y-9.827
N2370 X10.649 Y-9.59
N2375 X10.817 Y-9.373
N2380 X11.008 Y-9.176
N2385 X11.222 Y-8.997
N2390 X11.456 Y-8.84
N2395 X11.709 Y-8.709
N2400 X11.973 Y-8.606
N2405 X12.246 Y-8.534
N2410 X12.522 Y-8.492
N2415 X12.796 Y-8.479
N2420 X13.17 Y-8.493
N2425 X13.544 Y-8.527
N2430 X13.915 Y-8.583
N2435 X14.281 Y-8.659
N2440 X14.74 Y-8.768
N2445 X15.286 Y-8.861
N2450 X15.845 Y-8.883
N2455 X16.402 Y-8.831
N2460 X16.943 Y-8.709
N2465 X17.332 Y-7.905
N2470 X17.677 Y-7.101
N2475 X17.415 Y-6.613
N2480 X17.089 Y-6.158
N2485 X16.707 Y-5.75
N2490 X16.279 Y-5.398
N2495 X15.897 Y-5.123
N2500 X15.599 Y-4.895
N2505 X15.314 Y-4.651
N2510 X15.043 Y-4.392
N2515 X14.788 Y-4.118
N2520 X14.618 Y-3.903
N2525 X14.469 Y-3.667
N2530 X14.345 Y-3.413
N2535 X14.249 Y-3.146
N2540 X14.183 Y-2.869
N2545 X14.148 Y-2.589
N2550 X14.143 Y-2.31
N2555 X14.168 Y-2.037
N2560 X14.221 Y-1.768
N2565 X14.304 Y-1.502
N2570 X14.417 Y-1.243
N2575 X14.558 Y-0.996
N2580 X14.726 Y-0.767
N2585 X14.916 Y-0.558
N2590 X15.125 Y-0.374
N2595 X15.349 Y-0.215
N2600 X15.671 Y-0.024
N2605 X16.004 Y0.149
N2610 X16.346 Y0.302
N2615 X16.696 Y0.436
N2620 X17.14 Y0.593
N2625 X17.65 Y0.81
N2630 X18.132 Y1.094
N2635 X18.573 Y1.438
N2640 X18.962 Y1.834
N2645 X18.857 Y2.708
N2650 X18.71 Y3.583
N2655 X18.226 Y3.852
N2660 X17.706 Y4.059
N2665 X17.164 Y4.196
N2670 X16.613 Y4.26
N2675 X16.142 Y4.285
N2680 X15.769 Y4.315
N2685 X15.398 Y4.366
N2690 X15.029 Y4.438
N2695 X14.667 Y4.531
N2700 X14.407 Y4.62
N2705 X14.154 Y4.738
N2710 X13.913 Y4.885
N2715 X13.688 Y5.058
N2720 X13.483 Y5.254
N2725 X13.302 Y5.471
N2730 X13.147 Y5.703
N2735 X13.02 Y5.946
N2740 X12.92 Y6.201
N2745 X12.845 Y6.47
N2750 X12.8 Y6.749
N2755 X12.786 Y7.033
N2760 X12.803 Y7.316
N2765 X12.85 Y7.595
N2770 X12.926 Y7.863
N2775 X13.029 Y8.117
N2780 X13.196 Y8.452
N2785 X13.383 Y8.777
N2790 X13.588 Y9.092
N2795 X13.809 Y9.394
N2800 X14.099 Y9.765
N2805 X14.411 Y10.224
N2810 X14.662 Y10.723
N2815 X14.847 Y11.251
N2820 X14.96 Y11.794
N2825 X14.409 Y12.462
N2830 X13.803 Y13.129
N2835 M183 (LASER OFF)
N2840 X13.657 Y13.29 Z0.033
N2845 X13.512 Y13.45 Z0.055
N2850 X13.369 Y13.608 Z0.092
N2855 X13.227 Y13.764 Z0.143
N2860 X13.089 Y13.917 Z0.209
N2865 X12.953 Y14.066 Z0.288
N2870 X12.822 Y14.211 Z0.381
N2875 X12.695 Y14.351 Z0.488
N2880 X12.573 Y14.486 Z0.607
N2885 X12.457 Y14.613 Z0.738
N2890 X12.347 Y14.735 Z0.88
N2895 X12.244 Y14.848 Z1.033
N2900 X12.148 Y14.954 Z1.197
N2905 X12.06 Y15.051 Z1.369
N2910 X11.98 Y15.139 Z1.551
N2915 X11.909 Y15.217 Z1.74
N2920 X11.846 Y15.286 Z1.935
N2925 X11.793 Y15.345 Z2.137
N2930 X11.749 Y15.394 Z2.344
N2935 X11.714 Y15.432 Z2.554
N2940 X11.69 Y15.459 Z2.768
N2945 X11.675 Y15.476 Z2.984
N2950 X11.67 Y15.481 Z3.2
N2955 G00 Z7.214
N2960 X-3.182 Y-18.796
N2965 Z5.232
N2970 G01 Z3.2 F250.
N2975 G18 G02 X-0.007 Z0.025 I3.175 F500.
N2980 G01 X0.017 M182 (LASER ON)
N2985 X0.603 M183 (LASER OFF)
N2990 G17 G03 X1.201 Y-18.577 J0.925
N2995 G01 X1.648 Y-18.199
N3000 G03 X1.429 Y-17.601 I-0.219 J0.259
N3005 G01 X-1.429 M182 (LASER ON)
N3010 X-1.563 M183 (LASER OFF)
N3015 G02 X-2.16 Y-17.134 J0.615
N3020 G01 X-2.192 Y-17.004
N3025 G02 X-1.725 Y-16.407 I0.467 J0.116
N3030 G01 X1.725 M182 (LASER ON)
N3035 X1.892 M183 (LASER OFF)
N3040 G03 X2.489 Y-15.969 J0.626
N3045 G01 X2.539 Y-15.81
N3050 G03 X2.102 Y-15.213 I-0.438 J0.138
N3055 G01 X-2.102 M182 (LASER ON)
N3060 G18 G03 X-5.277 Z3.2 K3.175 M183 (LASER OFF)
N3065 G00 Z7.214
N3070 X-4.716
N3075 Z5.232
N3080 G01 Z3.2 F250.
N3085 G03 X-7.891 Z0.025 I-3.175 F500.
N3090 G01 X-10.802 M182 (LASER ON)
N3095 G03 X-13.977 Z3.2 K3.175 M183 (LASER OFF)
N3100 G00 Z7.214
N3105 X13.986
N3110 Z5.232
N3115 G01 Z3.2 F250.
N3120 G03 X10.811 Z0.025 I-3.175 F500.
N3125 G01 X7.891 M182 (LASER ON)
N3130 X7.347 M183 (LASER OFF)
N3135 G17 G02 X6.75 Y-14.982 J0.888
N3140 G01 X6.347 Y-14.615
N3145 G02 X6.578 Y-14.018 I0.231 J0.254
N3150 G01 X10.716 M182 (LASER ON)
N3155 G18 G02 X13.891 Z3.2 K3.175 M183 (LASER OFF)
N3160 G00 Z7.214
N3165 X-6.141
N3170 Z5.232
N3175 G01 Z3.2 F250.
N3180 G02 X-2.966 Z0.025 I3.175 F500.
N3185 G01 X2.966 M182 (LASER ON)
N3190 G02 X6.141 Z3.2 K3.175 M183 (LASER OFF)
N3195 G00 Z7.214
N3200 X-13.89
N3205 Z5.232
N3210 G01 Z3.2 F250.
N3215 G02 X-10.715 Z0.025 I3.175 F500.
N3220 G01 X-6.579 M182 (LASER ON)
N3225 G02 X-3.404 Z3.2 K3.175 M183 (LASER OFF)
N3230 G00 Z7.214
N3235 X13.479 Y-12.824
N3240 Z5.232
N3245 G01 Z3.2 F250.
N3250 G03 X10.304 Z0.025 I-3.175 F500.
N3255 G01 X-10.304 M182 (LASER ON)
N3260 G17 G02 X-10.764 Y-12.227 J0.475 M183 (LASER OFF)
N3265 G01 X-10.727 Y-12.089
N3270 G02 X-10.13 Y-11.629 I0.597 J-0.159
N3275 G01 X-9.987
N3280 X9.986 M182 (LASER ON)
N3285 X9.996 M183 (LASER OFF)
N3290 G03 X10.593 Y-11.042 J0.597
N3295 G01 X10.594 Y-11.032
N3300 G03 X10.006 Y-10.435 I-0.587 J0.01
N3305 G01 X-10.005 M182 (LASER ON)
N3310 X-10.258 M183 (LASER OFF)
N3315 G02 X-10.856 Y-10.065 J0.667
N3320 G01 X-10.968 Y-9.838
N3325 G02 X-10.598 Y-9.241 I0.37 J0.184
N3330 G01 X10.598 M182 (LASER ON)
N3335 G18 G02 X13.773 Z3.2 K3.175 M183 (LASER OFF)
N3340 G00 Z7.214
N3345 X20.157 Y-8.046
N3350 Z5.232
N3355 G01 Z3.2 F250.
N3360 G03 X16.982 Z0.025 I-3.175 F500.
N3365 G01 X-16.982 M182 (LASER ON)
N3370 X-17.106 M183 (LASER OFF)
N3375 G17 G02 X-17.703 Y-7.57 J0.613
N3380 G01 X-17.731 Y-7.449
N3385 G02 X-17.255 Y-6.852 I0.476 J0.109
N3390 G01 X17.255 M182 (LASER ON)
N3395 G03 X17.524 Y-6.255 J0.359 M183 (LASER OFF)
N3400 G01 X17.232 Y-5.926
N3405 G03 X16.635 Y-5.657 I-0.597 J-0.53
N3410 G01 X16.195
N3415 X3.392 M182 (LASER ON)
N3420 G18 G03 X0.217 Z3.2 K3.175 M183 (LASER OFF)
N3425 G00 Z7.214
N3430 X-0.217
N3435 Z5.232
N3440 G01 Z3.2 F250.
N3445 G03 X-3.392 Z0.025 I-3.175 F500.
N3450 G01 X-16.196 M182 (LASER ON)
N3455 G17 G02 X-16.412 Y-5.06 J0.338 M183 (LASER OFF)
N3460 G01 X-15.955 Y-4.679
N3465 G02 X-15.357 Y-4.463 I0.597 J-0.717
N3470 G01 X-14.762
N3475 X-4.857 M182 (LASER ON)
N3480 G18 G02 X-1.682 Z3.2 K3.175 M183 (LASER OFF)
N3485 G00 Z7.214
N3490 X1.682
N3495 Z5.232
N3500 G01 Z3.2 F250.
N3505 G02 X4.857 Z0.025 I3.175 F500.
N3510 G01 X14.762 M182 (LASER ON)
N3515 G17 G03 X15.095 Y-3.866 J0.391 M183 (LASER OFF)
N3520 G01 X14.931 Y-3.601
N3525 G03 X14.334 Y-3.269 I-0.597 J-0.37
N3530 G01 X14.023
N3535 X5.73 M182 (LASER ON)
N3540 G18 G03 X2.555 Z3.2 K3.175 M183 (LASER OFF)
N3545 G00 Z7.214
N3550 X-2.554
N3555 Z5.232
N3560 G01 Z3.2 F250.
N3565 G03 X-5.729 Z0.025 I-3.175 F500.
N3570 G01 X-14.024 M182 (LASER ON)
N3575 G17 G02 X-14.566 Y-2.671 J0.545 M183 (LASER OFF)
N3580 G01 X-14.561 Y-2.616
N3585 G02 X-13.964 Y-2.074 I0.597 J-0.058
N3590 G01 X-13.908
N3595 X-6.262 M182 (LASER ON)
N3600 G18 G02 X-3.087 Z3.2 K3.175 M183 (LASER OFF)
N3605 G00 Z7.214
N3610 X3.088
N3615 Z5.232
N3620 G01 Z3.2 F250.
N3625 G02 X6.263 Z0.025 I3.175 F500.
N3630 G01 X13.909 M182 (LASER ON)
N3635 X14.095 M183 (LASER OFF)
N3640 G17 G03 X14.692 Y-1.652 J0.634
N3645 G01 X14.754 Y-1.477
N3650 G03 X14.332 Y-0.88 I-0.422 J0.149
N3655 G01 X6.538 M182 (LASER ON)
N3660 G18 G03 X3.363 Z3.2 K3.175 M183 (LASER OFF)
N3665 G00 Z7.214
N3670 X-3.364
N3675 Z5.232
N3680 G01 Z3.2 F250.
N3685 G03 X-6.539 Z0.025 I-3.175 F500.
N3690 G01 X-14.338 M182 (LASER ON)
N3695 X-14.933 M183 (LASER OFF)
N3700 G17 G02 X-15.53 Y-0.664 J0.933
N3705 G01 X-15.988 Y-0.283
N3710 G02 X-15.772 Y0.315 I0.216 J0.26
N3715 G01 X-6.59 M182 (LASER ON)
N3720 G18 G02 X-3.415 Z3.2 K3.175 M183 (LASER OFF)
N3725 G00 Z7.214
N3730 X3.415
N3735 Z5.232
N3740 G01 Z3.2 F250.
N3745 G02 X6.59 Z0.025 I3.175 F500.
N3750 G01 X15.772 M182 (LASER ON)
N3755 G02 X18.947 Z3.2 K3.175 M183 (LASER OFF)
N3760 G00 Z7.214
N3765 X21.425 Y1.509
N3770 Z5.232
N3775 G01 Z3.2 F250.
N3780 G03 X18.25 Z0.025 I-3.175 F500.
N3785 G01 X6.422 M182 (LASER ON)
N3790 G03 X3.247 Z3.2 K3.175 M183 (LASER OFF)
N3795 G00 Z7.214
N3800 X-3.247
N3805 Z5.232
N3810 G01 Z3.2 F250.
N3815 G03 X-6.422 Z0.025 I-3.175 F500.
N3820 G01 X-18.25 M182 (LASER ON)
N3825 X-18.406 M183 (LASER OFF)
N3830 G17 G02 X-19.004 Y1.956 J0.622
N3835 G01 X-19.047 Y2.106
N3840 G02 X-18.6 Y2.703 I0.448 J0.131
N3845 G01 X-6.017 M182 (LASER ON)
N3850 G18 G02 X-2.842 Z3.2 K3.175 M183 (LASER OFF)
N3855 G00 Z7.214
N3860 X2.842
N3865 Z5.232
N3870 G01 Z3.2 F250.
N3875 G02 X6.017 Z0.025 I3.175 F500.
N3880 G01 X18.6 M182 (LASER ON)
N3885 G17 G03 X18.834 Y3.301 J0.344 M183 (LASER OFF)
N3890 G01 X18.439 Y3.664
N3895 G03 X17.842 Y3.898 I-0.597 J-0.647
N3900 G01 X17.306
N3905 X5.321 M182 (LASER ON)
N3910 G18 G03 X2.146 Z3.2 K3.175 M183 (LASER OFF)
N3915 G00 Z7.214
N3920 X-2.146
N3925 Z5.232
N3930 G01 Z3.2 F250.
N3935 G03 X-5.321 Z0.025 I-3.175 F500.
N3940 G01 X-17.306 M182 (LASER ON)
N3945 G03 X-20.481 Z3.2 K3.175 M183 (LASER OFF)
N3950 G00 Z7.214
N3955 X-16.474 Y5.092
N3960 Z5.232
N3965 G01 Z3.2 F250.
N3970 G02 X-13.299 Z0.025 I3.175 F500.
N3975 G01 X-4.202 M182 (LASER ON)
N3980 G02 X-1.027 Z3.2 K3.175 M183 (LASER OFF)
N3985 G00 Z7.214
N3990 X1.026
N3995 Z5.232
N4000 G01 Z3.2 F250.
N4005 G02 X4.201 Z0.025 I3.175 F500.
N4010 G01 X13.288 M182 (LASER ON)
N4015 G17 G03 X13.642 Y5.689 J0.403 M183 (LASER OFF)
N4020 G01 X13.508 Y5.933
N4025 G03 X12.911 Y6.287 I-0.597 J-0.328
N4030 G01 X12.632
N4035 X2.004 M182 (LASER ON)
N4040 G18 G03 X-1.171 Z3.2 K3.175 M183 (LASER OFF)
N4045 G00 Z7.214
N4050 X1.173
N4055 Z5.232
N4060 G01 Z3.2 F250.
N4065 G03 X-2.002 Z0.025 I-3.175 F500.
N4070 G01 X-12.636 M182 (LASER ON)
N4075 G17 G02 X-13.203 Y6.884 J0.567 M183 (LASER OFF)
N4080 G01 X-13.201 Y6.914
N4085 G02 X-12.604 Y7.481 I0.597 J-0.032
N4090 G01 X-12.573
N4095 X12.573 M182 (LASER ON)
N4100 X12.773 M183 (LASER OFF)
N4105 G03 X13.37 Y7.891 J0.64
N4110 G01 X13.442 Y8.078
N4115 G03 X13.032 Y8.675 I-0.41 J0.158
N4120 G01 X-13.032 M182 (LASER ON)
N4125 X-13.378 M183 (LASER OFF)
N4130 G02 X-13.975 Y8.988 J0.727
N4135 G01 X-14.172 Y9.272
N4140 G02 X-13.859 Y9.87 I0.313 J0.217
N4145 G01 X13.858 M182 (LASER ON)
N4150 X14.136 M183 (LASER OFF)
N4155 G03 X14.733 Y10.224 J0.681
N4160 G01 X14.866 Y10.467
N4165 G03 X14.512 Y11.064 I-0.354 J0.194
N4170 G01 X-14.512 M182 (LASER ON)
N4175 G02 X-14.992 Y11.661 J0.491 M183 (LASER OFF)
N4180 G01 X-14.966 Y11.779
N4185 G02 X-14.368 Y12.258 I0.597 J-0.132
N4190 G01 X-14.248
N4195 X-11.647 M182 (LASER ON)
N4200 G18 G02 X-8.472 Z3.2 K3.175 M183 (LASER OFF)
N4205 G00 Z7.214
N4210 X-10.257
N4215 Z5.232
N4220 G01 Z3.2 F250.
N4225 G02 X-7.082 Z0.025 I3.175 F500.
N4230 G01 X7.083 M182 (LASER ON)
N4235 G02 X10.258 Z3.2 K3.175 M183 (LASER OFF)
N4240 G00 Z7.214
N4245 X8.472
N4250 Z5.232
N4255 G01 Z3.2 F250.
N4260 G02 X11.647 Z0.025 I3.175 F500.
N4265 G01 X14.247 M182 (LASER ON)
N4270 G02 X17.422 Z3.2 K3.175 M183 (LASER OFF)
N4275 G00 Z7.214
N4280 X9.578 Y13.453
N4285 Z5.232
N4290 G01 Z3.2 F250.
N4295 G03 X6.403 Z0.025 I-3.175 F500.
N4300 G01 X-6.403 M182 (LASER ON)
N4305 G17 G02 X-6.934 Y14.05 J0.534 M183 (LASER OFF)
N4310 G01 X-6.926 Y14.117
N4315 G02 X-6.328 Y14.647 I0.597 J-0.071
N4320 G01 X-6.261
N4325 X-1.73 M182 (LASER ON)
N4330 G18 G02 X1.445 Z3.2 K3.175 M183 (LASER OFF)
N4335 G00 Z7.214
N4340 X-1.444
N4345 Z5.232
N4350 G01 Z3.2 F250.
N4355 G02 X1.731 Z0.025 I3.175 F500.
N4360 G01 X6.259 M182 (LASER ON)
N4365 X6.292 M183 (LASER OFF)
N4370 G17 G03 X6.889 Y15.212 J0.598
N4375 G01 X6.891 Y15.244
N4380 G03 X6.327 Y15.842 I-0.565 J0.032
N4385 G01 X2.739 M182 (LASER ON)
N4390 G18 G03 X-0.436 Z3.2 K3.175 M183 (LASER OFF)
N4395 G00 Z7.214
N4400 X0.436
N4405 Z5.232
N4410 G01 Z3.2 F250.
N4415 G03 X-2.739 Z0.025 I-3.175 F500.
N4420 G01 X-6.327 M182 (LASER ON)
N4425 G17 G02 X-6.889 Y16.439 J0.563 M183 (LASER OFF)
N4430 G01 X-6.887 Y16.474
N4435 G02 X-6.29 Y17.036 I0.597 J-0.036
N4440 G01 X-6.255
N4445 X-3.417 M182 (LASER ON)
N4450 G18 G02 X-0.242 Z3.2 K3.175 M183 (LASER OFF)
N4455 G00 Z7.214
N4460 X0.242
N4465 Z5.232
N4470 G01 Z3.2 F250.
N4475 G02 X3.417 Z0.025 I3.175 F500.
N4480 G01 X6.259 M182 (LASER ON)
N4485 G17 G03 X6.449 Y17.633 J0.329 M183 (LASER OFF)
N4490 G01 X5.871 Y18.041
N4495 G03 X5.274 Y18.23 I-0.597 J-0.847
N4500 G01 X4.566
N4505 X4.565 M182 (LASER ON)
N4510 G18 G03 X1.39 Z3.2 K3.175 M183 (LASER OFF)
N4515 G00 Z7.214
N4520 X-1.39
N4525 Z5.232
N4530 G01 Z3.2 F250.
N4535 G03 X-4.565 Z0.025 I-3.175 F500.
N4540 G01 X-4.566 M182 (LASER ON)
N4545 G03 X-7.741 Z3.2 K3.175 M183 (LASER OFF)
(---- LAYER 0 FINISHED----)
N4550 G00 Z7.214
N4555 X-6.434 Y-3.146
N4560 Z5.982
N4565 G01 Z3.95 F250.
N4570 Y-3.138 Z3.734 F500.
N4575 Y-3.116 Z3.518
N4580 X-6.433 Y-3.079 Z3.304
N4585 X-6.431 Y-3.028 Z3.094
N4590 X-6.43 Y-2.962 Z2.887
N4595 X-6.427 Y-2.883 Z2.685
N4600 X-6.425 Y-2.79 Z2.49
N4605 X-6.422 Y-2.684 Z2.301
N4610 X-6.419 Y-2.565 Z2.119
N4615 X-6.415 Y-2.434 Z1.947
N4620 X-6.412 Y-2.291 Z1.783
N4625 X-6.407 Y-2.138 Z1.63
N4630 X-6.403 Y-1.975 Z1.488
N4635 X-6.398 Y-1.802 Z1.357
N4640 X-6.394 Y-1.621 Z1.238
N4645 X-6.388 Y-1.432 Z1.131
N4650 X-6.383 Y-1.236 Z1.038
N4655 X-6.378 Y-1.035 Z0.959
N4660 X-6.372 Y-0.828 Z0.893
N4665 X-6.367 Y-0.618 Z0.842
N4670 X-6.361 Y-0.404 Z0.805
N4675 X-6.355 Y-0.188 Z0.783
N4680 X-6.349 Y0.028 Z0.775
N4685 X-6.341 Y0.341 M182 (LASER ON)
N4690 X-6.313 Y0.687
N4695 X-6.266 Y1.03
N4700 X-6.199 Y1.375
N4705 X-6.113 Y1.719
N4710 X-6.006 Y2.062
N4715 X-5.877 Y2.406
N4720 X-5.724 Y2.75
N4725 X-5.546 Y3.093
N4730 X-5.339 Y3.437
N4735 X-5.102 Y3.781
N4740 X-4.828 Y4.124
N4745 X-4.415 Y4.564
N4750 X-4.002 Y4.93
N4755 X-3.588 Y5.239
N4760 X-3.175 Y5.499
N4765 X-2.778 Y5.71
N4770 X-2.381 Y5.887
N4775 X-1.984 Y6.032
N4780 X-1.587 Y6.148
N4785 X-1.191 Y6.237
N4790 X-0.794 Y6.3
N4795 X-0.397 Y6.338
N4800 X0. Y6.35
N4805 X0.397 Y6.338
N4810 X0.794 Y6.3
N4815 X1.191 Y6.237
N4820 X1.587 Y6.148
N4825 X1.984 Y6.032
N4830 X2.381 Y5.887
N4835 X2.778 Y5.71
N4840 X3.175 Y5.499
N4845 X3.588 Y5.239
N4850 X4.002 Y4.93
N4855 X4.415 Y4.564
N4860 X4.828 Y4.124
N4865 X5.102 Y3.781
N4870 X5.339 Y3.437
N4875 X5.546 Y3.093
N4880 X5.724 Y2.75
N4885 X5.877 Y2.406
N4890 X6.006 Y2.062
N4895 X6.113 Y1.719
N4900 X6.199 Y1.375
N4905 X6.266 Y1.03
N4910 X6.313 Y0.687
N4915 X6.341 Y0.341
N4920 X6.35 Y0.
N4925 X6.341 Y-0.341
N4930 X6.313 Y-0.687
N4935 X6.266 Y-1.03
N4940 X6.199 Y-1.375
N4945 X6.113 Y-1.719
N4950 X6.006 Y-2.062
N4955 X5.877 Y-2.406
N4960 X5.724 Y-2.75
N4965 X5.546 Y-3.093
N4970 X5.339 Y-3.437
N4975 X5.102 Y-3.781
N4980 X4.828 Y-4.124
N4985 X4.415 Y-4.564
N4990 X4.002 Y-4.93
N4995 X3.588 Y-5.239
N5000 X3.175 Y-5.499
N5005 X2.778 Y-5.71
N5010 X2.381 Y-5.887
N5015 X1.984 Y-6.032
N5020 X1.587 Y-6.148
N5025 X1.191 Y-6.237
N5030 X0.794 Y-6.3
N5035 X0.397 Y-6.338
N5040 X0. Y-6.35
N5045 X-0.397 Y-6.338
N5050 X-0.794 Y-6.3
N5055 X-1.191 Y-6.237
N5060 X-1.587 Y-6.148
N5065 X-1.984 Y-6.032
N5070 X-2.381 Y-5.887
N5075 X-2.778 Y-5.71
N5080 X-3.175 Y-5.499
N5085 X-3.588 Y-5.239
N5090 X-4.002 Y-4.93
N5095 X-4.415 Y-4.564
N5100 X-4.828 Y-4.124
N5105 X-5.102 Y-3.781
N5110 X-5.339 Y-3.437
N5115 X-5.546 Y-3.093
N5120 X-5.724 Y-2.75
N5125 X-5.877 Y-2.406
N5130 X-6.006 Y-2.062
N5135 X-6.113 Y-1.719
N5140 X-6.199 Y-1.375
N5145 X-6.266 Y-1.03
N5150 X-6.313 Y-0.687
N5155 X-6.341 Y-0.341
N5160 X-6.35 Y0.
N5165 X-6.349 Y0.028
N5170 M183 (LASER OFF)
N5175 X-6.343 Y0.245 Z0.783
N5180 X-6.338 Y0.46 Z0.805
N5185 X-6.332 Y0.674 Z0.842
N5190 X-6.326 Y0.884 Z0.893
N5195 X-6.321 Y1.091 Z0.959
N5200 X-6.315 Y1.293 Z1.038
N5205 X-6.31 Y1.488 Z1.131
N5210 X-6.305 Y1.677 Z1.238
N5215 X-6.3 Y1.859 Z1.357
N5220 X-6.295 Y2.031 Z1.488
N5225 X-6.291 Y2.195 Z1.63
N5230 X-6.287 Y2.348 Z1.783
N5235 X-6.283 Y2.49 Z1.947
N5240 X-6.28 Y2.621 Z2.119
N5245 X-6.276 Y2.74 Z2.301
N5250 X-6.274 Y2.846 Z2.49
N5255 X-6.271 Y2.939 Z2.685
N5260 X-6.269 Y3.019 Z2.887
N5265 X-6.267 Y3.084 Z3.094
N5270 X-6.266 Y3.136 Z3.304
N5275 X-6.265 Y3.172 Z3.518
N5280 X-6.264 Y3.195 Z3.734
N5285 Y3.202 Z3.95
N5290 G00 Z7.214
N5295 X8.913 Y-12.552
N5300 Z5.982
N5305 G01 Z3.95 F250.
N5310 X8.917 Y-12.546 Z3.734 F500.
N5315 X8.928 Y-12.526 Z3.518
N5320 X8.946 Y-12.495 Z3.304
N5325 X8.972 Y-12.45 Z3.094
N5330 X9.005 Y-12.394 Z2.887
N5335 X9.045 Y-12.325 Z2.685
N5340 X9.092 Y-12.245 Z2.49
N5345 X9.146 Y-12.153 Z2.301
N5350 X9.206 Y-12.05 Z2.119
N5355 X9.272 Y-11.937 Z1.947
N5360 X9.344 Y-11.814 Z1.783
N5365 X9.422 Y-11.682 Z1.63
N5370 X9.504 Y-11.541 Z1.488
N5375 X9.591 Y-11.392 Z1.357
N5380 X9.683 Y-11.235 Z1.238
N5385 X9.778 Y-11.072 Z1.131
N5390 X9.877 Y-10.903 Z1.038
N5395 X9.979 Y-10.729 Z0.959
N5400 X10.083 Y-10.551 Z0.893
N5405 X10.189 Y-10.369 Z0.842
N5410 X10.297 Y-10.184 Z0.805
N5415 X10.406 Y-9.998 Z0.783
N5420 X10.515 Y-9.811 Z0.775
N5425 X10.619 Y-9.634 M182 (LASER ON)
N5430 X10.817 Y-9.373
N5435 X11.065 Y-9.124
N5440 X11.312 Y-8.932
N5445 X11.559 Y-8.782
N5450 X11.807 Y-8.667
N5455 X12.054 Y-8.582
N5460 X12.301 Y-8.523
N5465 X12.549 Y-8.489
N5470 X12.796 Y-8.479
N5475 X13.167 Y-8.493
N5480 X13.539 Y-8.527
N5485 X13.91 Y-8.582
N5490 X14.281 Y-8.659
N5495 X14.74 Y-8.768
N5500 X15.291 Y-8.862
N5505 X15.841 Y-8.883
N5510 X16.392 Y-8.833
N5515 X16.943 Y-8.709
N5520 X17.332 Y-7.905
N5525 X17.677 Y-7.101
N5530 X17.453 Y-6.676
N5535 X17.162 Y-6.25
N5540 X16.959 Y-6.006
N5545 X16.721 Y-5.763
N5550 X16.279 Y-5.398
N5555 X15.897 Y-5.123
N5560 X15.342 Y-4.677
N5565 X15.049 Y-4.397
N5570 X14.788 Y-4.118
N5575 X14.587 Y-3.858
N5580 X14.432 Y-3.598
N5585 X14.315 Y-3.338
N5590 X14.23 Y-3.077
N5595 X14.174 Y-2.817
N5600 X14.146 Y-2.557
N5605 X14.144 Y-2.297
N5610 X14.168 Y-2.037
N5615 X14.211 Y-1.809
N5620 X14.276 Y-1.582
N5625 X14.365 Y-1.354
N5630 X14.48 Y-1.126
N5635 X14.625 Y-0.898
N5640 X14.808 Y-0.671
N5645 X15.079 Y-0.411
N5650 X15.349 Y-0.215
N5655 X15.686 Y-0.016
N5660 X16.022 Y0.157
N5665 X16.696 Y0.436
N5670 X17.14 Y0.593
N5675 X17.596 Y0.783
N5680 X18.051 Y1.04
N5685 X18.506 Y1.38
N5690 X18.734 Y1.59
N5695 X18.962 Y1.834
N5700 X18.857 Y2.708
N5705 X18.71 Y3.583
N5710 X18.448 Y3.739
N5715 X18.186 Y3.871
N5720 X17.662 Y4.073
N5725 X17.137 Y4.2
N5730 X16.613 Y4.26
N5735 X16.142 Y4.285
N5740 X15.773 Y4.315
N5745 X15.404 Y4.365
N5750 X15.036 Y4.437
N5755 X14.667 Y4.531
N5760 X14.255 Y4.687
N5765 X14.049 Y4.798
N5770 X13.843 Y4.934
N5775 X13.584 Y5.152
N5780 X13.325 Y5.44
N5785 X13.153 Y5.693
N5790 X13.02 Y5.946
N5795 X12.914 Y6.217
N5800 X12.841 Y6.489
N5805 X12.799 Y6.76
N5810 X12.786 Y7.032
N5815 X12.801 Y7.303
N5820 X12.845 Y7.574
N5825 X12.92 Y7.846
N5830 X13.029 Y8.117
N5835 X13.37 Y8.755
N5840 X13.576 Y9.074
N5845 X13.809 Y9.394
N5850 X14.099 Y9.765
N5855 X14.282 Y10.019
N5860 X14.439 Y10.273
N5865 X14.686 Y10.78
N5870 X14.856 Y11.287
N5875 X14.96 Y11.794
N5880 X14.409 Y12.462
N5885 X13.803 Y13.129
N5890 X13.27 Y13.097
N5895 X12.738 Y12.996
N5900 X12.205 Y12.823
N5905 X11.939 Y12.706
N5910 X11.672 Y12.566
N5915 X11.263 Y12.332
N5920 X10.92 Y12.149
N5925 X10.576 Y11.991
N5930 X9.889 Y11.741
N5935 X9.62 Y11.675
N5940 X9.351 Y11.639
N5945 X9.082 Y11.631
N5950 X8.814 Y11.651
N5955 X8.545 Y11.699
N5960 X8.276 Y11.778
N5965 X8.007 Y11.89
N5970 X7.738 Y12.041
N5975 X7.471 Y12.239
N5980 X7.203 Y12.499
N5985 X7.022 Y12.728
N5990 X6.878 Y12.957
N5995 X6.764 Y13.186
N6000 X6.677 Y13.415
N6005 X6.613 Y13.644
N6010 X6.572 Y13.872
N6015 X6.532 Y14.246
N6020 X6.513 Y14.62
N6025 X6.515 Y14.994
N6030 X6.539 Y15.368
N6035 X6.594 Y16.031
N6040 X6.599 Y16.225
N6045 X6.575 Y16.671
N6050 X6.505 Y17.117
N6055 X6.384 Y17.563
N6060 X6.209 Y18.01
N6065 X5.361 Y18.28
N6070 X4.513 Y18.508
N6075 X4.045 Y18.161
N6080 X3.811 Y17.946
N6085 X3.577 Y17.695
N6090 X3.267 Y17.288
N6095 X3.026 Y16.882
N6100 X2.808 Y16.464
N6105 X2.441 Y15.844
N6110 X2.22 Y15.533
N6115 X1.971 Y15.223
N6120 X1.725 Y14.971
N6125 X1.479 Y14.777
N6130 X1.232 Y14.625
N6135 X0.986 Y14.508
N6140 X0.739 Y14.421
N6145 X0.493 Y14.361
N6150 X0.246 Y14.325
N6155 X0. Y14.314
N6160 X-0.246 Y14.325
N6165 X-0.493 Y14.361
N6170 X-0.739 Y14.421
N6175 X-0.986 Y14.508
N6180 X-1.232 Y14.625
N6185 X-1.479 Y14.777
N6190 X-1.725 Y14.971
N6195 X-1.971 Y15.223
N6200 X-2.22 Y15.533
N6205 X-2.441 Y15.844
N6210 X-2.808 Y16.464
N6215 X-3.026 Y16.882
N6220 X-3.267 Y17.288
N6225 X-3.577 Y17.695
N6230 X-3.811 Y17.946
N6235 X-4.045 Y18.161
N6240 X-4.513 Y18.508
N6245 X-5.361 Y18.28
N6250 X-6.209 Y18.01
N6255 X-6.415 Y17.467
N6260 X-6.541 Y16.924
N6265 X-6.596 Y16.381
N6270 X-6.581 Y15.838
N6275 X-6.518 Y15.068
N6280 X-6.511 Y14.767
N6285 X-6.527 Y14.32
N6290 X-6.572 Y13.872
N6295 X-6.613 Y13.644
N6300 X-6.677 Y13.415
N6305 X-6.764 Y13.186
N6310 X-6.878 Y12.957
N6315 X-7.022 Y12.728
N6320 X-7.203 Y12.499
N6325 X-7.471 Y12.239
N6330 X-7.738 Y12.041
N6335 X-8.007 Y11.89
N6340 X-8.276 Y11.778
N6345 X-8.545 Y11.699
N6350 X-8.814 Y11.651
N6355 X-9.082 Y11.631
N6360 X-9.351 Y11.639
N6365 X-9.62 Y11.675
N6370 X-9.889 Y11.741
N6375 X-10.576 Y11.991
N6380 X-10.92 Y12.149
N6385 X-11.263 Y12.332
N6390 X-11.672 Y12.566
N6395 X-11.939 Y12.706
N6400 X-12.205 Y12.823
N6405 X-12.738 Y12.996
N6410 X-13.27 Y13.097
N6415 X-13.803 Y13.129
N6420 X-14.409 Y12.462
N6425 X-14.96 Y11.794
N6430 X-14.856 Y11.287
N6435 X-14.686 Y10.78
N6440 X-14.439 Y10.273
N6445 X-14.282 Y10.019
N6450 X-14.099 Y9.765
N6455 X-13.809 Y9.394
N6460 X-13.576 Y9.074
N6465 X-13.37 Y8.755
N6470 X-13.029 Y8.117
N6475 X-12.92 Y7.844
N6480 X-12.844 Y7.57
N6485 X-12.8 Y7.296
N6490 X-12.786 Y7.022
N6495 X-12.805 Y6.711
N6500 X-12.862 Y6.399
N6505 X-12.96 Y6.088
N6510 X-13.105 Y5.777
N6515 X-13.239 Y5.558
N6520 X-13.406 Y5.34
N6525 X-13.646 Y5.094
N6530 X-13.886 Y4.903
N6535 X-14.078 Y4.781
N6540 X-14.276 Y4.677
N6545 X-14.667 Y4.531
N6550 X-15.036 Y4.437
N6555 X-15.404 Y4.365
N6560 X-15.773 Y4.315
N6565 X-16.142 Y4.285
N6570 X-16.613 Y4.26
N6575 X-17.137 Y4.2
N6580 X-17.662 Y4.073
N6585 X-18.186 Y3.871
N6590 X-18.448 Y3.739
N6595 X-18.71 Y3.583
N6600 X-18.857 Y2.708
N6605 X-18.962 Y1.834
N6610 X-18.734 Y1.59
N6615 X-18.506 Y1.38
N6620 X-18.051 Y1.04
N6625 X-17.596 Y0.783
N6630 X-17.14 Y0.593
N6635 X-16.696 Y0.436
N6640 X-16.022 Y0.157
N6645 X-15.686 Y-0.016
N6650 X-15.349 Y-0.215
N6655 X-15.039 Y-0.445
N6660 X-14.729 Y-0.763
N6665 X-14.533 Y-1.037
N6670 X-14.384 Y-1.31
N6675 X-14.275 Y-1.584
N6680 X-14.2 Y-1.858
N6685 X-14.156 Y-2.132
N6690 X-14.141 Y-2.406
N6695 X-14.177 Y-2.834
N6700 X-14.287 Y-3.262
N6705 X-14.373 Y-3.476
N6710 X-14.482 Y-3.69
N6715 X-14.619 Y-3.904
N6720 X-14.788 Y-4.118
N6725 X-15.049 Y-4.397
N6730 X-15.342 Y-4.677
N6735 X-15.897 Y-5.123
N6740 X-16.279 Y-5.398
N6745 X-16.721 Y-5.763
N6750 X-16.959 Y-6.006
N6755 X-17.162 Y-6.25
N6760 X-17.453 Y-6.676
N6765 X-17.677 Y-7.101
N6770 X-17.332 Y-7.905
N6775 X-16.943 Y-8.709
N6780 X-16.392 Y-8.833
N6785 X-15.841 Y-8.883
N6790 X-15.291 Y-8.862
N6795 X-14.74 Y-8.768
N6800 X-14.281 Y-8.659
N6805 X-13.91 Y-8.582
N6810 X-13.539 Y-8.527
N6815 X-13.167 Y-8.493
N6820 X-12.796 Y-8.479
N6825 X-12.565 Y-8.488
N6830 X-12.335 Y-8.517
N6835 X-12.104 Y-8.568
N6840 X-11.873 Y-8.641
N6845 X-11.643 Y-8.74
N6850 X-11.412 Y-8.867
N6855 X-11.181 Y-9.028
N6860 X-10.951 Y-9.231
N6865 X-10.745 Y-9.461
N6870 X-10.582 Y-9.691
N6875 X-10.454 Y-9.92
N6880 X-10.353 Y-10.15
N6885 X-10.278 Y-10.38
N6890 X-10.226 Y-10.61
N6895 X-10.195 Y-10.84
N6900 X-10.185 Y-11.07
N6905 X-10.192 Y-11.265
N6910 X-10.214 Y-11.459
N6915 X-10.279 Y-11.82
N6920 X-10.365 Y-12.181
N6925 X-10.473 Y-12.542
N6930 X-10.604 Y-12.904
N6935 X-10.777 Y-13.342
N6940 X-10.951 Y-13.889
N6945 X-11.049 Y-14.436
N6950 X-11.075 Y-14.984
N6955 X-11.031 Y-15.531
N6960 X-10.288 Y-16.033
N6965 X-9.545 Y-16.486
N6970 X-9.074 Y-16.318
N6975 X-8.602 Y-16.083
N6980 X-8.131 Y-15.767
N6985 X-7.895 Y-15.572
N6990 X-7.66 Y-15.345
N6995 X-7.333 Y-15.006
N7000 X-7.045 Y-14.724
N7005 X-6.757 Y-14.474
N7010 X-6.18 Y-14.051
N7015 X-5.921 Y-13.902
N7020 X-5.661 Y-13.79
N7025 X-5.402 Y-13.709
N7030 X-5.142 Y-13.657
N7035 X-4.882 Y-13.632
N7040 X-4.623 Y-13.633
N7045 X-4.363 Y-13.66
N7050 X-4.033 Y-13.734
N7055 X-3.624 Y-13.892
N7060 X-3.419 Y-14.004
N7065 X-3.215 Y-14.142
N7070 X-2.957 Y-14.361
N7075 X-2.7 Y-14.652
N7080 X-2.529 Y-14.907
N7085 X-2.397 Y-15.162
N7090 X-2.25 Y-15.519
N7095 X-2.126 Y-15.875
N7100 X-2.025 Y-16.231
N7105 X-1.944 Y-16.588
N7110 X-1.853 Y-17.05
N7115 X-1.724 Y-17.545
N7120 X-1.528 Y-18.04
N7125 X-1.254 Y-18.535
N7130 X-1.083 Y-18.782
N7135 X-0.884 Y-19.029
N7140 X0. Y-19.05
N7145 X0.884 Y-19.029
N7150 X1.083 Y-18.782
N7155 X1.254 Y-18.535
N7160 X1.528 Y-18.04
N7165 X1.724 Y-17.545
N7170 X1.853 Y-17.05
N7175 X1.944 Y-16.588
N7180 X2.025 Y-16.231
N7185 X2.126 Y-15.875
N7190 X2.25 Y-15.519
N7195 X2.397 Y-15.162
N7200 X2.529 Y-14.907
N7205 X2.7 Y-14.652
N7210 X2.957 Y-14.361
N7215 X3.215 Y-14.142
N7220 X3.419 Y-14.004
N7225 X3.624 Y-13.892
N7230 X4.068 Y-13.724
N7235 X4.363 Y-13.66
N7240 X4.623 Y-13.633
N7245 X4.882 Y-13.632
N7250 X5.142 Y-13.657
N7255 X5.402 Y-13.709
N7260 X5.661 Y-13.79
N7265 X5.921 Y-13.902
N7270 X6.18 Y-14.051
N7275 X6.757 Y-14.474
N7280 X7.045 Y-14.724
N7285 X7.333 Y-15.006
N7290 X7.66 Y-15.345
N7295 X7.895 Y-15.572
N7300 X8.131 Y-15.767
N7305 X8.602 Y-16.083
N7310 X9.074 Y-16.318
N7315 X9.545 Y-16.486
N7320 X10.288 Y-16.033
N7325 X11.031 Y-15.531
N7330 X11.065 Y-15.223
N7335 X11.076 Y-14.915
N7340 X11.058 Y-14.522
N7345 X11.003 Y-14.128
N7350 X10.91 Y-13.735
N7355 X10.777 Y-13.342
N7360 X10.604 Y-12.904
N7365 X10.473 Y-12.542
N7370 X10.365 Y-12.181
N7375 X10.279 Y-11.82
N7380 X10.214 Y-11.459
N7385 X10.188 Y-11.198
N7390 Y-10.938
N7395 X10.215 Y-10.677
N7400 X10.268 Y-10.416
N7405 X10.351 Y-10.155
N7410 X10.467 Y-9.895
N7415 X10.515 Y-9.811
N7420 M183 (LASER OFF)
N7425 X10.625 Y-9.624 Z0.783
N7430 X10.734 Y-9.438 Z0.805
N7435 X10.842 Y-9.253 Z0.842
N7440 X10.948 Y-9.072 Z0.893
N7445 X11.052 Y-8.893 Z0.959
N7450 X11.154 Y-8.719 Z1.038
N7455 X11.253 Y-8.55 Z1.131
N7460 X11.348 Y-8.387 Z1.238
N7465 X11.44 Y-8.23 Z1.357
N7470 X11.527 Y-8.081 Z1.488
N7475 X11.609 Y-7.94 Z1.63
N7480 X11.687 Y-7.808 Z1.783
N7485 X11.759 Y-7.685 Z1.947
N7490 X11.825 Y-7.572 Z2.119
N7495 X11.885 Y-7.469 Z2.301
N7500 X11.938 Y-7.378 Z2.49
N7505 X11.985 Y-7.297 Z2.685
N7510 X12.026 Y-7.229 Z2.887
N7515 X12.059 Y-7.172 Z3.094
N7520 X12.085 Y-7.128 Z3.304
N7525 X12.103 Y-7.096 Z3.518
N7530 X12.114 Y-7.077 Z3.734
N7535 X12.118 Y-7.07 Z3.95
N7540 G00 Z7.214
N7545 X18.695 Y-1.254
N7550 Z5.982
N7555 G01 Z3.95 F250.
N7560 G19 G03 Y1.921 Z0.775 J3.175 F500.
N7565 G01 Y1.922 M182 (LASER ON)
N7570 Y2.734 M183 (LASER OFF)
N7575 G17 G03 X18.522 Y3.337 I-1.139
N7580 G01 X18.092 Y4.026
N7585 G03 X17.489 Y3.853 I-0.277 J-0.173
N7590 G01 Y1.014 M182 (LASER ON)
N7595 Y0.808 M183 (LASER OFF)
N7600 G02 X17.078 Y0.205 I-0.648
N7605 G01 X16.886 Y0.129
N7610 G02 X16.283 Y0.54 I-0.162 J0.411
N7615 G01 Y4.023 M182 (LASER ON)
N7620 G19 G03 Y7.198 Z3.95 K3.175 M183 (LASER OFF)
N7625 G00 Z7.214
N7630 Y-11.763
N7635 Z5.982
N7640 G01 Z3.95 F250.
N7645 G03 Y-8.588 Z0.775 J3.175 F500.
N7650 G01 Y-5.73 M182 (LASER ON)
N7655 Y-5.333 M183 (LASER OFF)
N7660 G17 G03 X15.991 Y-4.73 I-0.769
N7665 G01 X15.68 Y-4.483
N7670 G03 X15.077 Y-4.775 I-0.231 J-0.292
N7675 G01 Y-8.568 M182 (LASER ON)
N7680 G19 G02 Y-11.743 Z3.95 K3.175 M183 (LASER OFF)
N7685 G00 Z7.214
N7690 Y7.345
N7695 Z5.982
N7700 G01 Z3.95 F250.
N7705 G02 Y4.17 Z0.775 J-3.175 F500.
N7710 G01 Y-0.099 M182 (LASER ON)
N7715 G02 Y-3.274 Z3.95 K3.175 M183 (LASER OFF)
N7720 G00 Z7.214
N7725 X13.871 Y-11.495
N7730 Z5.982
N7735 G01 Z3.95 F250.
N7740 G03 Y-8.32 Z0.775 J3.175 F500.
N7745 G01 Y4.611 M182 (LASER ON)
N7750 G03 Y7.786 Z3.95 K3.175 M183 (LASER OFF)
N7755 G00 Z7.214
N7760 Y6.71
N7765 Z5.982
N7770 G01 Z3.95 F250.
N7775 G03 Y9.885 Z0.775 J3.175 F500.
N7780 G01 Y12.677 M182 (LASER ON)
N7785 Y12.691 M183 (LASER OFF)
N7790 G17 G03 X13.282 Y13.294 I-0.603
N7795 G01 X13.267
N7800 G03 X12.664 Y12.705 I-0.014 J-0.589
N7805 G01 Y7.873 M182 (LASER ON)
N7810 Y6.17 M183 (LASER OFF)
N7815 Y-8.23 M182 (LASER ON)
N7820 Y-8.374 M183 (LASER OFF)
N7825 G02 X12.2 Y-8.977 I-0.624
N7830 G01 X12.061 Y-9.014
N7835 G02 X11.458 Y-8.549 I-0.123 J0.464
N7840 G01 Y12.15 M182 (LASER ON)
N7845 G03 X10.855 Y12.539 I-0.427 M183 (LASER OFF)
N7850 G01 X10.641 Y12.441
N7855 G03 X10.252 Y11.838 I0.274 J-0.603
N7860 G01 Y11.603
N7865 Y-9.759 M182 (LASER ON)
N7870 G19 G02 Y-12.934 Z3.95 K3.175 M183 (LASER OFF)
N7875 G00 Z7.214
N7880 Y-9.505
N7885 Z5.982
N7890 G01 Z3.95 F250.
N7895 G02 Y-12.68 Z0.775 J-3.175 F500.
N7900 G01 Y-15.752 M182 (LASER ON)
N7905 Y-15.875 M183 (LASER OFF)
N7910 G17 G02 X9.769 Y-16.478 I-0.618
N7915 G01 X9.649 Y-16.504
N7920 G02 X9.046 Y-16.021 I-0.108 J0.484
N7925 G01 Y11.379 M182 (LASER ON)
N7930 Y11.52 M183 (LASER OFF)
N7935 G03 X8.58 Y12.123 I-0.623
N7940 G01 X8.443 Y12.159
N7945 G03 X7.84 Y11.693 I-0.122 J-0.466
N7950 G01 Y-15.166 M182 (LASER ON)
N7955 G02 X7.237 Y-15.433 I-0.36 M183 (LASER OFF)
N7960 G01 X6.9 Y-15.127
N7965 G02 X6.634 Y-14.524 I0.549 J0.603
N7970 G01 Y-14.069
N7975 Y12.877 M182 (LASER ON)
N7980 G19 G03 Y16.052 Z3.95 K3.175 M183 (LASER OFF)
N7985 G00 Z7.214
N7990 X5.428 Y21.167
N7995 Z5.982
N8000 G01 Z3.95 F250.
N8005 G02 Y17.992 Z0.775 J-3.175 F500.
N8010 G01 Y3.756 M182 (LASER ON)
N8015 G02 Y0.581 Z3.95 K3.175 M183 (LASER OFF)
N8020 G00 Z7.214
N8025 Y-0.581
N8030 Z5.982
N8035 G01 Z3.95 F250.
N8040 G02 Y-3.756 Z0.775 J-3.175 F500.
N8045 G01 Y-13.455 M182 (LASER ON)
N8050 G17 G02 X4.825 Y-14.045 I-0.591 M183 (LASER OFF)
N8055 G01 X4.812
N8060 G02 X4.221 Y-13.442 I0.013 J0.603
N8065 G01 Y-13.43
N8070 Y-5.076 M182 (LASER ON)
N8075 G19 G03 Y-1.901 Z3.95 K3.175 M183 (LASER OFF)
N8080 G00 Z7.214
N8085 Y1.9
N8090 Z5.982
N8095 G01 Z3.95 F250.
N8100 G03 Y5.075 Z0.775 J3.175 F500.
N8105 G01 Y17.975 M182 (LASER ON)
N8110 G17 G03 X3.618 Y18.171 I-0.333 M183 (LASER OFF)
N8115 G01 X3.211 Y17.611
N8120 G03 X3.015 Y17.008 I0.83 J-0.603
N8125 G01 Y16.315
N8130 Y5.872 M182 (LASER ON)
N8135 G19 G02 Y2.697 Z3.95 K3.175 M183 (LASER OFF)
N8140 G00 Z7.214
N8145 Y-2.697
N8150 Z5.982
N8155 G01 Z3.95 F250.
N8160 G02 Y-5.872 Z0.775 J-3.175 F500.
N8165 G01 Y-13.977 M182 (LASER ON)
N8170 G02 Y-17.152 Z3.95 K3.175 M183 (LASER OFF)
N8175 G00 Z7.214
N8180 X1.809 Y-19.237
N8185 Z5.982
N8190 G01 Z3.95 F250.
N8195 G03 Y-16.062 Z0.775 J3.175 F500.
N8200 G01 Y-6.348 M182 (LASER ON)
N8205 G03 Y-3.173 Z3.95 K3.175 M183 (LASER OFF)
N8210 G00 Z7.214
N8215 Y3.173
N8220 Z5.982
N8225 G01 Z3.95 F250.
N8230 G03 Y6.348 Z0.775 J3.175 F500.
N8235 G01 Y14.714 M182 (LASER ON)
N8240 G17 G03 X1.206 Y15.091 I-0.419 M183 (LASER OFF)
N8245 G01 X0.98 Y14.981
N8250 G03 X0.603 Y14.378 I0.294 J-0.603
N8255 G01 Y14.126
N8260 Y6.574 M182 (LASER ON)
N8265 G19 G02 Y3.399 Z3.95 K3.175 M183 (LASER OFF)
N8270 G00 Z7.214
N8275 Y-3.398
N8280 Z5.982
N8285 G01 Z3.95 F250.
N8290 G02 Y-6.573 Z0.775 J-3.175 F500.
N8295 G01 Y-18.782 M182 (LASER ON)
N8300 G17 G02 X0. Y-19.385 I-0.603
N8305 X-0.603 Y-18.782 J0.603
N8310 G01 Y-6.574 M182 (LASER ON)
N8315 G19 G03 Y-3.399 Z3.95 K3.175 M183 (LASER OFF)
N8320 G00 Z7.214
N8325 Y3.398
N8330 Z5.982
N8335 G01 Z3.95 F250.
N8340 G03 Y6.573 Z0.775 J3.175 F500.
N8345 G01 Y14.126 M182 (LASER ON)
N8350 Y14.378 M183 (LASER OFF)
N8355 G17 G03 X-0.98 Y14.981 I-0.671
N8360 G01 X-1.206 Y15.091
N8365 G03 X-1.809 Y14.714 I-0.184 J-0.377
N8370 G01 Y6.348 M182 (LASER ON)
N8375 G19 G02 Y3.173 Z3.95 K3.175 M183 (LASER OFF)
N8380 G00 Z7.214
N8385 Y-3.173
N8390 Z5.982
N8395 G01 Z3.95 F250.
N8400 G02 Y-6.348 Z0.775 J-3.175 F500.
N8405 G01 Y-16.061 M182 (LASER ON)
N8410 G02 Y-19.236 Z3.95 K3.175 M183 (LASER OFF)
N8415 G00 Z7.214
N8420 X-3.015 Y-17.154
N8425 Z5.982
N8430 G01 Z3.95 F250.
N8435 G03 Y-13.979 Z0.775 J3.175 F500.
N8440 G01 Y-5.872 M182 (LASER ON)
N8445 G03 Y-2.697 Z3.95 K3.175 M183 (LASER OFF)
N8450 G00 Z7.214
N8455 Y2.697
N8460 Z5.982
N8465 G01 Z3.95 F250.
N8470 G03 Y5.872 Z0.775 J3.175 F500.
N8475 G01 Y16.315 M182 (LASER ON)
N8480 Y17.007 M183 (LASER OFF)
N8485 G17 G03 X-3.211 Y17.611 I-1.026
N8490 G01 X-3.618 Y18.171
N8495 G03 X-4.221 Y17.975 I-0.27 J-0.196
N8500 G01 Y5.076 M182 (LASER ON)
N8505 G19 G02 Y1.901 Z3.95 K3.175 M183 (LASER OFF)
N8510 G00 Z7.214
N8515 Y-1.9
N8520 Z5.982
N8525 G01 Z3.95 F250.
N8530 G02 Y-5.075 Z0.775 J-3.175 F500.
N8535 G01 Y-13.43 M182 (LASER ON)
N8540 Y-13.442 M183 (LASER OFF)
N8545 G17 G02 X-4.812 Y-14.045 I-0.603
N8550 G01 X-4.825
N8555 G02 X-5.428 Y-13.455 I-0.012 J0.591
N8560 G01 Y-3.756 M182 (LASER ON)
N8565 G19 G03 Y-0.581 Z3.95 K3.175 M183 (LASER OFF)
N8570 G00 Z7.214
N8575 Y0.581
N8580 Z5.982
N8585 G01 Z3.95 F250.
N8590 G03 Y3.756 Z0.775 J3.175 F500.
N8595 G01 Y17.993 M182 (LASER ON)
N8600 G03 Y21.168 Z3.95 K3.175 M183 (LASER OFF)
N8605 G00 Z7.214
N8610 X-6.634 Y16.052
N8615 Z5.982
N8620 G01 Z3.95 F250.
N8625 G02 Y12.877 Z0.775 J-3.175 F500.
N8630 G01 Y-14.069 M182 (LASER ON)
N8635 Y-14.523 M183 (LASER OFF)
N8640 G17 G02 X-6.9 Y-15.126 I-0.815
N8645 G01 X-7.237 Y-15.432
N8650 G02 X-7.84 Y-15.166 I-0.243 J0.267
N8655 G01 Y11.693 M182 (LASER ON)
N8660 G03 X-8.443 Y12.159 I-0.482 M183 (LASER OFF)
N8665 G01 X-8.58 Y12.123
N8670 G03 X-9.046 Y11.52 I0.157 J-0.603
N8675 G01 Y11.379
N8680 Y-16.021 M182 (LASER ON)
N8685 G02 X-9.649 Y-16.504 I-0.495 M183 (LASER OFF)
N8690 G01 X-9.769 Y-16.477
N8695 G02 X-10.252 Y-15.874 I0.135 J0.603
N8700 G01 Y-15.751
N8705 Y-12.68 M182 (LASER ON)
N8710 G19 G03 Y-9.505 Z3.95 K3.175 M183 (LASER OFF)
N8715 G00 Z7.214
N8720 Y-12.935
N8725 Z5.982
N8730 G01 Z3.95 F250.
N8735 G03 Y-9.76 Z0.775 J3.175 F500.
N8740 G01 Y11.603 M182 (LASER ON)
N8745 Y11.838 M183 (LASER OFF)
N8750 G17 G03 X-10.64 Y12.442 I-0.662
N8755 G01 X-10.855 Y12.539
N8760 G03 X-11.458 Y12.151 I-0.177 J-0.388
N8765 G01 Y-8.551 M182 (LASER ON)
N8770 G02 X-12.061 Y-9.015 I-0.48 M183 (LASER OFF)
N8775 G01 X-12.201 Y-8.977
N8780 G02 X-12.664 Y-8.374 I0.161 J0.603
N8785 G01 Y-8.23
N8790 Y6.18 M182 (LASER ON)
N8795 Y7.873 M183 (LASER OFF)
N8800 Y12.705 M182 (LASER ON)
N8805 G03 X-13.267 Y13.294 I-0.589 M183 (LASER OFF)
N8810 G01 X-13.282
N8815 G03 X-13.871 Y12.691 I0.014 J-0.603
N8820 G01 Y12.677
N8825 Y9.886 M182 (LASER ON)
N8830 G19 G02 Y6.711 Z3.95 K3.175 M183 (LASER OFF)
N8835 G00 Z7.214
N8840 Y7.786
N8845 Z5.982
N8850 G01 Z3.95 F250.
N8855 G02 Y4.611 Z0.775 J-3.175 F500.
N8860 G01 Y-8.319 M182 (LASER ON)
N8865 Y-8.433 M183 (LASER OFF)
N8870 G17 G02 X-14.362 Y-9.036 I-0.616
N8875 G01 X-14.474 Y-9.059
N8880 G02 X-15.077 Y-8.568 I-0.101 J0.491
N8885 G01 Y-4.775 M182 (LASER ON)
N8890 G19 G03 Y-1.6 Z3.95 K3.175 M183 (LASER OFF)
N8895 G00 Z7.214
N8900 Y-3.276
N8905 Z5.982
N8910 G01 Z3.95 F250.
N8915 G03 Y-0.101 Z0.775 J3.175 F500.
N8920 G01 Y4.17 M182 (LASER ON)
N8925 G17 G03 X-15.68 Y4.704 I-0.538 M183 (LASER OFF)
N8930 G01 X-15.749 Y4.696
N8935 G03 X-16.283 Y4.093 I0.073 J-0.603
N8940 G01 Y4.023
N8945 Y0.541 M182 (LASER ON)
N8950 G19 G02 Y-2.634 Z3.95 K3.175 M183 (LASER OFF)
N8955 G00 Z7.214
N8960 Y-2.555
N8965 Z5.982
N8970 G01 Z3.95 F250.
N8975 G02 Y-5.73 Z0.775 J-3.175 F500.
N8980 G01 Y-8.588 M182 (LASER ON)
N8985 G02 Y-11.763 Z3.95 K3.175 M183 (LASER OFF)
N8990 G00 Z7.214
N8995 X-17.489 Y-2.161
N9000 Z5.982
N9005 G01 Z3.95 F250.
N9010 G03 Y1.014 Z0.775 J3.175 F500.
N9015 G01 Y3.853 M182 (LASER ON)
N9020 G17 G03 X-18.092 Y4.026 I-0.326 M183 (LASER OFF)
N9025 G01 X-18.522 Y3.337
N9030 G03 X-18.695 Y2.734 I0.966 J-0.603
N9035 G01 Y1.922
N9040 Y1.921 M182 (LASER ON)
N9045 G19 G02 Y-1.254 Z3.95 K3.175 M183 (LASER OFF)
(---- LAYER 1 FINISHED----)
N9050 G00 Z7.214
N9055 X-3.553 Y6.239
N9060 Z6.732
N9065 G01 Z4.7 F250.
N9070 X-3.546 Z4.484 F500.
N9075 X-3.524 Y6.24 Z4.268
N9080 X-3.487 Y6.241 Z4.054
N9085 X-3.436 Y6.243 Z3.844
N9090 X-3.37 Y6.245 Z3.637
N9095 X-3.291 Y6.247 Z3.435
N9100 X-3.197 Y6.25 Z3.24
N9105 X-3.091 Y6.253 Z3.051
N9110 X-2.972 Y6.257 Z2.869
N9115 X-2.841 Y6.261 Z2.697
N9120 X-2.699 Y6.266 Z2.533
N9125 X-2.546 Y6.27 Z2.38
N9130 X-2.383 Y6.275 Z2.238
N9135 X-2.21 Y6.281 Z2.107
N9140 X-2.029 Y6.287 Z1.988
N9145 X-1.84 Y6.292 Z1.881
N9150 X-1.644 Y6.299 Z1.788
N9155 X-1.443 Y6.305 Z1.709
N9160 X-1.236 Y6.311 Z1.643
N9165 X-1.025 Y6.318 Z1.592
N9170 X-0.812 Y6.325 Z1.555
N9175 X-0.596 Y6.331 Z1.533
N9180 X-0.38 Y6.338 Z1.525
N9185 X0. Y6.35 M182 (LASER ON)
N9190 X0.397 Y6.338
N9195 X0.794 Y6.3
N9200 X1.191 Y6.237
N9205 X1.587 Y6.148
N9210 X1.984 Y6.032
N9215 X2.381 Y5.887
N9220 X2.778 Y5.71
N9225 X3.175 Y5.499
N9230 X3.588 Y5.239
N9235 X4.002 Y4.93
N9240 X4.415 Y4.564
N9245 X4.828 Y4.124
N9250 X5.102 Y3.781
N9255 X5.339 Y3.437
N9260 X5.546 Y3.093
N9265 X5.724 Y2.75
N9270 X5.877 Y2.406
N9275 X6.006 Y2.062
N9280 X6.113 Y1.719
N9285 X6.199 Y1.375
N9290 X6.266 Y1.03
N9295 X6.313 Y0.687
N9300 X6.341 Y0.341
N9305 X6.35 Y0.
N9310 X6.341 Y-0.341
N9315 X6.313 Y-0.687
N9320 X6.266 Y-1.03
N9325 X6.199 Y-1.375
N9330 X6.113 Y-1.719
N9335 X6.006 Y-2.062
N9340 X5.877 Y-2.406
N9345 X5.724 Y-2.75
N9350 X5.546 Y-3.093
N9355 X5.339 Y-3.437
N9360 X5.102 Y-3.781
N9365 X4.828 Y-4.124
N9370 X4.415 Y-4.564
N9375 X4.002 Y-4.93
N9380 X3.588 Y-5.239
N9385 X3.175 Y-5.499
N9390 X2.778 Y-5.71
N9395 X2.381 Y-5.887
N9400 X1.984 Y-6.032
N9405 X1.587 Y-6.148
N9410 X1.191 Y-6.237
N9415 X0.794 Y-6.3
N9420 X0.397 Y-6.338
N9425 X0. Y-6.35
N9430 X-0.397 Y-6.338
N9435 X-0.794 Y-6.3
N9440 X-1.191 Y-6.237
N9445 X-1.587 Y-6.148
N9450 X-1.984 Y-6.032
N9455 X-2.381 Y-5.887
N9460 X-2.778 Y-5.71
N9465 X-3.175 Y-5.499
N9470 X-3.588 Y-5.239
N9475 X-4.002 Y-4.93
N9480 X-4.415 Y-4.564
N9485 X-4.828 Y-4.124
N9490 X-5.102 Y-3.781
N9495 X-5.339 Y-3.437
N9500 X-5.546 Y-3.093
N9505 X-5.724 Y-2.75
N9510 X-5.877 Y-2.406
N9515 X-6.006 Y-2.062
N9520 X-6.113 Y-1.719
N9525 X-6.199 Y-1.375
N9530 X-6.266 Y-1.03
N9535 X-6.313 Y-0.687
N9540 X-6.341 Y-0.341
N9545 X-6.35 Y0.
N9550 X-6.341 Y0.341
N9555 X-6.313 Y0.687
N9560 X-6.266 Y1.03
N9565 X-6.199 Y1.375
N9570 X-6.113 Y1.719
N9575 X-6.006 Y2.062
N9580 X-5.877 Y2.406
N9585 X-5.724 Y2.75
N9590 X-5.546 Y3.093
N9595 X-5.339 Y3.437
N9600 X-5.102 Y3.781
N9605 X-4.828 Y4.124
N9610 X-4.415 Y4.564
N9615 X-4.002 Y4.93
N9620 X-3.588 Y5.239
N9625 X-3.175 Y5.499
N9630 X-2.778 Y5.71
N9635 X-2.381 Y5.887
N9640 X-1.984 Y6.032
N9645 X-1.587 Y6.148
N9650 X-1.191 Y6.237
N9655 X-0.794 Y6.3
N9660 X-0.397 Y6.338
N9665 X-0.38
N9670 M183 (LASER OFF)
N9675 X-0.163 Y6.345 Z1.533
N9680 X0.052 Y6.352 Z1.555
N9685 X0.266 Y6.358 Z1.592
N9690 X0.476 Y6.365 Z1.643
N9695 X0.683 Y6.371 Z1.709
N9700 X0.884 Y6.378 Z1.788
N9705 X1.08 Y6.384 Z1.881
N9710 X1.269 Y6.39 Z1.988
N9715 X1.45 Y6.395 Z2.107
N9720 X1.623 Y6.401 Z2.238
N9725 X1.786 Y6.406 Z2.38
N9730 X1.939 Y6.411 Z2.533
N9735 X2.082 Y6.415 Z2.697
N9740 X2.213 Y6.419 Z2.869
N9745 X2.332 Y6.423 Z3.051
N9750 X2.438 Y6.426 Z3.24
N9755 X2.531 Y6.429 Z3.435
N9760 X2.61 Y6.432 Z3.637
N9765 X2.676 Y6.434 Z3.844
N9770 X2.727 Y6.435 Z4.054
N9775 X2.764 Y6.436 Z4.268
N9780 X2.786 Y6.437 Z4.484
N9785 X2.794 Z4.7
N9790 G00 Z7.214
N9795 X-12.876 Y-11.163
N9800 Z6.732
N9805 G01 Z4.7 F250.
N9810 X-12.871 Y-11.168 Z4.484 F500.
N9815 X-12.853 Y-11.181 Z4.268
N9820 X-12.824 Y-11.204 Z4.054
N9825 X-12.784 Y-11.236 Z3.844
N9830 X-12.733 Y-11.277 Z3.637
N9835 X-12.67 Y-11.326 Z3.435
N9840 X-12.597 Y-11.384 Z3.24
N9845 X-12.514 Y-11.45 Z3.051
N9850 X-12.421 Y-11.524 Z2.869
N9855 X-12.318 Y-11.605 Z2.697
N9860 X-12.206 Y-11.693 Z2.533
N9865 X-12.086 Y-11.789 Z2.38
N9870 X-11.958 Y-11.89 Z2.238
N9875 X-11.823 Y-11.997 Z2.107
N9880 X-11.681 Y-12.11 Z1.988
N9885 X-11.532 Y-12.227 Z1.881
N9890 X-11.379 Y-12.349 Z1.788
N9895 X-11.221 Y-12.474 Z1.709
N9900 X-11.059 Y-12.602 Z1.643
N9905 X-10.894 Y-12.733 Z1.592
N9910 X-10.726 Y-12.865 Z1.555
N9915 X-10.557 Y-12.999 Z1.533
N9920 X-10.387 Y-13.134 Z1.525
N9925 X-10.164 Y-13.31 M182 (LASER ON)
N9930 X-9.676 Y-13.669
N9935 X-9.188 Y-14.002
N9940 X-8.7 Y-14.311
N9945 X-8.216 Y-14.594
N9950 X-7.723 Y-14.86
N9955 X-7.366 Y-15.04
N9960 X-7.045 Y-14.724
N9965 X-6.757 Y-14.474
N9970 X-6.18 Y-14.051
N9975 X-5.921 Y-13.902
N9980 X-5.661 Y-13.79
N9985 X-5.402 Y-13.709
N9990 X-5.142 Y-13.657
N9995 X-4.882 Y-13.632
N10000 X-4.623 Y-13.633
N10005 X-4.363 Y-13.66
N10010 X-4.033 Y-13.734
N10015 X-3.624 Y-13.892
N10020 X-3.419 Y-14.004
N10025 X-3.215 Y-14.142
N10030 X-2.957 Y-14.361
N10035 X-2.7 Y-14.652
N10040 X-2.529 Y-14.907
N10045 X-2.397 Y-15.162
N10050 X-2.25 Y-15.519
N10055 X-2.126 Y-15.875
N10060 X-2.025 Y-16.231
N10065 X-1.935 Y-16.635
N10070 X-1.16 Y-16.707
N10075 X-0.581 Y-16.737
N10080 X0. Y-16.747
N10085 X0.581 Y-16.737
N10090 X1.16 Y-16.707
N10095 X1.935 Y-16.635
N10100 X2.025 Y-16.231
N10105 X2.126 Y-15.875
N10110 X2.25 Y-15.519
N10115 X2.397 Y-15.162
N10120 X2.529 Y-14.907
N10125 X2.7 Y-14.652
N10130 X2.957 Y-14.361
N10135 X3.215 Y-14.142
N10140 X3.419 Y-14.004
N10145 X3.624 Y-13.892
N10150 X4.068 Y-13.724
N10155 X4.363 Y-13.66
N10160 X4.623 Y-13.633
N10165 X4.882 Y-13.632
N10170 X5.142 Y-13.657
N10175 X5.402 Y-13.709
N10180 X5.661 Y-13.79
N10185 X5.921 Y-13.902
N10190 X6.18 Y-14.051
N10195 X6.757 Y-14.474
N10200 X7.045 Y-14.724
N10205 X7.366 Y-15.04
N10210 X7.723 Y-14.86
N10215 X8.216 Y-14.594
N10220 X8.7 Y-14.311
N10225 X9.188 Y-14.002
N10230 X9.676 Y-13.669
N10235 X10.164 Y-13.31
N10240 X10.621 Y-12.948
N10245 X10.473 Y-12.542
N10250 X10.365 Y-12.181
N10255 X10.279 Y-11.82
N10260 X10.214 Y-11.459
N10265 X10.188 Y-11.198
N10270 Y-10.938
N10275 X10.215 Y-10.677
N10280 X10.268 Y-10.416
N10285 X10.351 Y-10.155
N10290 X10.467 Y-9.895
N10295 X10.619 Y-9.634
N10300 X10.817 Y-9.373
N10305 X11.065 Y-9.124
N10310 X11.312 Y-8.932
N10315 X11.559 Y-8.782
N10320 X11.807 Y-8.667
N10325 X12.054 Y-8.582
N10330 X12.301 Y-8.523
N10335 X12.549 Y-8.489
N10340 X12.796 Y-8.479
N10345 X13.167 Y-8.493
N10350 X13.539 Y-8.527
N10355 X13.91 Y-8.582
N10360 X14.328 Y-8.67
N10365 X14.564 Y-8.268
N10370 X14.851 Y-7.74
N10375 X15.115 Y-7.212
N10380 X15.356 Y-6.685
N10385 X15.573 Y-6.16
N10390 X15.773 Y-5.629
N10395 X15.936 Y-5.151
N10400 X15.342 Y-4.677
N10405 X15.049 Y-4.397
N10410 X14.788 Y-4.118
N10415 X14.587 Y-3.858
N10420 X14.432 Y-3.598
N10425 X14.315 Y-3.338
N10430 X14.23 Y-3.077
N10435 X14.174 Y-2.817
N10440 X14.146 Y-2.557
N10445 X14.144 Y-2.297
N10450 X14.168 Y-2.037
N10455 X14.211 Y-1.809
N10460 X14.276 Y-1.582
N10465 X14.365 Y-1.354
N10470 X14.48 Y-1.126
N10475 X14.625 Y-0.898
N10480 X14.808 Y-0.671
N10485 X15.079 Y-0.411
N10490 X15.349 Y-0.215
N10495 X15.686 Y-0.016
N10500 X16.022 Y0.157
N10505 X16.741 Y0.452
N10510 X16.708 Y1.141
N10515 X16.659 Y1.717
N10520 X16.59 Y2.29
N10525 X16.5 Y2.866
N10530 X16.391 Y3.439
N10535 X16.191 Y4.282
N10540 X15.773 Y4.315
N10545 X15.404 Y4.365
N10550 X15.036 Y4.437
N10555 X14.667 Y4.531
N10560 X14.255 Y4.687
N10565 X14.049 Y4.798
N10570 X13.843 Y4.934
N10575 X13.584 Y5.152
N10580 X13.325 Y5.44
N10585 X13.153 Y5.693
N10590 X13.02 Y5.946
N10595 X12.914 Y6.217
N10600 X12.841 Y6.489
N10605 X12.799 Y6.76
N10610 X12.786 Y7.032
N10615 X12.801 Y7.303
N10620 X12.845 Y7.574
N10625 X12.92 Y7.846
N10630 X13.029 Y8.117
N10635 X13.37 Y8.755
N10640 X13.576 Y9.074
N10645 X13.839 Y9.432
N10650 X13.356 Y10.104
N10655 X13.017 Y10.538
N10660 X12.589 Y11.045
N10665 X12.125 Y11.553
N10670 X11.597 Y12.083
N10675 X11.305 Y12.356
N10680 X10.92 Y12.149
N10685 X10.576 Y11.991
N10690 X9.889 Y11.741
N10695 X9.62 Y11.675
N10700 X9.351 Y11.639
N10705 X9.082 Y11.631
N10710 X8.814 Y11.651
N10715 X8.545 Y11.699
N10720 X8.276 Y11.778
N10725 X8.007 Y11.89
N10730 X7.738 Y12.041
N10735 X7.471 Y12.239
N10740 X7.203 Y12.499
N10745 X7.022 Y12.728
N10750 X6.878 Y12.957
N10755 X6.764 Y13.186
N10760 X6.677 Y13.415
N10765 X6.613 Y13.644
N10770 X6.572 Y13.872
N10775 X6.532 Y14.246
N10780 X6.513 Y14.62
N10785 X6.515 Y14.994
N10790 X6.543 Y15.416
N10795 X6.204 Y15.556
N10800 X5.647 Y15.767
N10805 X5.09 Y15.955
N10810 X4.533 Y16.122
N10815 X3.979 Y16.268
N10820 X3.42 Y16.394
N10825 X2.83 Y16.506
N10830 X2.441 Y15.844
N10835 X2.22 Y15.533
N10840 X1.971 Y15.223
N10845 X1.725 Y14.971
N10850 X1.479 Y14.777
N10855 X1.232 Y14.625
N10860 X0.986 Y14.508
N10865 X0.739 Y14.421
N10870 X0.493 Y14.361
N10875 X0.246 Y14.325
N10880 X0. Y14.314
N10885 X-0.246 Y14.325
N10890 X-0.493 Y14.361
N10895 X-0.739 Y14.421
N10900 X-0.986 Y14.508
N10905 X-1.232 Y14.625
N10910 X-1.479 Y14.777
N10915 X-1.725 Y14.971
N10920 X-1.971 Y15.223
N10925 X-2.22 Y15.533
N10930 X-2.441 Y15.844
N10935 X-2.83 Y16.506
N10940 X-3.42 Y16.394
N10945 X-3.979 Y16.268
N10950 X-4.533 Y16.122
N10955 X-5.09 Y15.955
N10960 X-5.647 Y15.767
N10965 X-6.204 Y15.556
N10970 X-6.543 Y15.416
N10975 X-6.518 Y15.068
N10980 X-6.511 Y14.767
N10985 X-6.527 Y14.32
N10990 X-6.572 Y13.872
N10995 X-6.613 Y13.644
N11000 X-6.677 Y13.415
N11005 X-6.764 Y13.186
N11010 X-6.878 Y12.957
N11015 X-7.022 Y12.728
N11020 X-7.203 Y12.499
N11025 X-7.471 Y12.239
N11030 X-7.738 Y12.041
N11035 X-8.007 Y11.89
N11040 X-8.276 Y11.778
N11045 X-8.545 Y11.699
N11050 X-8.814 Y11.651
N11055 X-9.082 Y11.631
N11060 X-9.351 Y11.639
N11065 X-9.62 Y11.675
N11070 X-9.889 Y11.741
N11075 X-10.576 Y11.991
N11080 X-10.92 Y12.149
N11085 X-11.305 Y12.356
N11090 X-11.597 Y12.083
N11095 X-12.125 Y11.553
N11100 X-12.589 Y11.045
N11105 X-13.017 Y10.538
N11110 X-13.356 Y10.104
N11115 X-13.839 Y9.432
N11120 X-13.576 Y9.074
N11125 X-13.37 Y8.755
N11130 X-13.029 Y8.117
N11135 X-12.92 Y7.844
N11140 X-12.844 Y7.57
N11145 X-12.8 Y7.296
N11150 X-12.786 Y7.022
N11155 X-12.805 Y6.711
N11160 X-12.862 Y6.399
N11165 X-12.96 Y6.088
N11170 X-13.105 Y5.777
N11175 X-13.239 Y5.558
N11180 X-13.406 Y5.34
N11185 X-13.646 Y5.094
N11190 X-13.886 Y4.903
N11195 X-14.078 Y4.781
N11200 X-14.276 Y4.677
N11205 X-14.667 Y4.531
N11210 X-15.036 Y4.437
N11215 X-15.404 Y4.365
N11220 X-15.773 Y4.315
N11225 X-16.191 Y4.282
N11230 X-16.39 Y3.442
N11235 X-16.547 Y2.582
N11240 X-16.659 Y1.721
N11245 X-16.725 Y0.861
N11250 X-16.741 Y0.452
N11255 X-16.022 Y0.157
N11260 X-15.686 Y-0.016
N11265 X-15.349 Y-0.215
N11270 X-15.039 Y-0.445
N11275 X-14.729 Y-0.763
N11280 X-14.533 Y-1.037
N11285 X-14.384 Y-1.31
N11290 X-14.275 Y-1.584
N11295 X-14.2 Y-1.858
N11300 X-14.156 Y-2.132
N11305 X-14.141 Y-2.406
N11310 X-14.177 Y-2.834
N11315 X-14.287 Y-3.262
N11320 X-14.373 Y-3.476
N11325 X-14.482 Y-3.69
N11330 X-14.619 Y-3.904
N11335 X-14.788 Y-4.118
N11340 X-15.049 Y-4.397
N11345 X-15.342 Y-4.677
N11350 X-15.936 Y-5.151
N11355 X-15.773 Y-5.629
N11360 X-15.573 Y-6.16
N11365 X-15.356 Y-6.685
N11370 X-15.115 Y-7.212
N11375 X-14.851 Y-7.74
N11380 X-14.564 Y-8.268
N11385 X-14.328 Y-8.67
N11390 X-13.91 Y-8.582
N11395 X-13.539 Y-8.527
N11400 X-13.167 Y-8.493
N11405 X-12.796 Y-8.479
N11410 X-12.565 Y-8.488
N11415 X-12.335 Y-8.517
N11420 X-12.104 Y-8.568
N11425 X-11.873 Y-8.641
N11430 X-11.643 Y-8.74
N11435 X-11.412 Y-8.867
N11440 X-11.181 Y-9.028
N11445 X-10.951 Y-9.231
N11450 X-10.745 Y-9.461
N11455 X-10.582 Y-9.691
N11460 X-10.454 Y-9.92
N11465 X-10.353 Y-10.15
N11470 X-10.278 Y-10.38
N11475 X-10.226 Y-10.61
N11480 X-10.195 Y-10.84
N11485 X-10.185 Y-11.07
N11490 X-10.192 Y-11.265
N11495 X-10.214 Y-11.459
N11500 X-10.279 Y-11.82
N11505 X-10.365 Y-12.181
N11510 X-10.473 Y-12.542
N11515 X-10.621 Y-12.948
N11520 X-10.387 Y-13.134
N11525 M183 (LASER OFF)
N11530 X-10.217 Y-13.268 Z1.533
N11535 X-10.048 Y-13.402 Z1.555
N11540 X-9.881 Y-13.535 Z1.592
N11545 X-9.716 Y-13.665 Z1.643
N11550 X-9.554 Y-13.794 Z1.709
N11555 X-9.395 Y-13.919 Z1.788
N11560 X-9.242 Y-14.04 Z1.881
N11565 X-9.094 Y-14.158 Z1.988
N11570 X-8.952 Y-14.27 Z2.107
N11575 X-8.816 Y-14.377 Z2.238
N11580 X-8.688 Y-14.479 Z2.38
N11585 X-8.568 Y-14.574 Z2.533
N11590 X-8.456 Y-14.663 Z2.697
N11595 X-8.354 Y-14.744 Z2.869
N11600 X-8.26 Y-14.818 Z3.051
N11605 X-8.177 Y-14.884 Z3.24
N11610 X-8.104 Y-14.941 Z3.435
N11615 X-8.042 Y-14.991 Z3.637
N11620 X-7.99 Y-15.031 Z3.844
N11625 X-7.95 Y-15.063 Z4.054
N11630 X-7.921 Y-15.086 Z4.268
N11635 X-7.904 Y-15.1 Z4.484
N11640 X-7.898 Y-15.105 Z4.7
N11645 G00 Z7.214
N11650 X0.214 Y16.223
N11655 Z6.732
N11660 G01 Z4.7 F250.
N11665 G18 G03 X-2.961 Z1.525 I-3.175 F500.
N11670 X-6.136 Z4.7 K3.175 M183 (LASER OFF)
N11675 G00 Z7.214
N11680 X6.136
N11685 Z6.732
N11690 G01 Z4.7 F250.
N11695 G03 X2.961 Z1.525 I-3.175 F500.
N11700 G01 X2.609 M183 (LASER OFF)
N11705 G17 G03 X2.003 Y15.906 J-0.737
N11710 G01 X1.803 Y15.617
N11715 G03 X2.12 Y15.011 I0.317 J-0.22
N11720 G01 X6.262 M182 (LASER ON)
N11725 G18 G02 X9.437 Z4.7 K3.175 M183 (LASER OFF)
N11730 G00 Z7.214
N11735 X-9.438
N11740 Z6.732
N11745 G01 Z4.7 F250.
N11750 G02 X-6.263 Z1.525 I3.175 F500.
N11755 G01 X-2.12 M182 (LASER ON)
N11760 G02 X1.055 Z4.7 K3.175 M183 (LASER OFF)
N11765 G00 Z7.214
N11770 X9.502 Y13.8
N11775 Z6.732
N11780 G01 Z4.7 F250.
N11785 G03 X6.327 Z1.525 I-3.175 F500.
N11790 G01 X-6.327 M182 (LASER ON)
N11795 X-6.537 M183 (LASER OFF)
N11800 G17 G03 X-7.143 Y13.389 J-0.652
N11805 G01 X-7.221 Y13.194
N11810 G03 X-6.81 Y12.588 I0.411 J-0.164
N11815 G01 X6.811 M182 (LASER ON)
N11820 G18 G02 X9.986 Z4.7 K3.175 M183 (LASER OFF)
N11825 G00 Z7.214
N11830 X15.116 Y11.376
N11835 Z6.732
N11840 G01 Z4.7 F250.
N11845 G03 X11.941 Z1.525 I-3.175 F500.
N11850 G01 X-11.941 M182 (LASER ON)
N11855 X-12.375 M183 (LASER OFF)
N11860 G17 G03 X-12.981 Y11.099 J-0.8
N11865 G01 X-13.264 Y10.77
N11870 G03 X-12.986 Y10.164 I0.278 J-0.239
N11875 G01 X12.986 M182 (LASER ON)
N11880 X13.083 M183 (LASER OFF)
N11885 G02 X13.689 Y9.654 J-0.615
N11890 G01 X13.705 Y9.559
N11895 G02 X13.194 Y8.953 I-0.511 J-0.088
N11900 G01 X-13.194 M182 (LASER ON)
N11905 G03 X-13.58 Y8.347 J-0.426 M183 (LASER OFF)
N11910 G01 X-13.477 Y8.127
N11915 G03 X-12.871 Y7.741 I0.606 J0.283
N11920 G01 X-12.628
N11925 X12.628 M182 (LASER ON)
N11930 G02 X13.209 Y7.135 J-0.582 M183 (LASER OFF)
N11935 G01 X13.208 Y7.111
N11940 G02 X12.603 Y6.529 I-0.606 J0.025
N11945 G01 X12.578
N11950 X0.971 M182 (LASER ON)
N11955 X-0.972 M183 (LASER OFF)
N11960 X-12.58 M182 (LASER ON)
N11965 X-12.806 M183 (LASER OFF)
N11970 G03 X-13.412 Y6.131 J-0.66
N11975 G01 X-13.502 Y5.923
N11980 G03 X-13.103 Y5.318 I0.398 J-0.172
N11985 G01 X-3.908 M182 (LASER ON)
N11990 G18 G02 X-0.733 Z4.7 K3.175 M183 (LASER OFF)
N11995 G00 Z7.214
N12000 X0.732
N12005 Z6.732
N12010 G01 Z4.7 F250.
N12015 G02 X3.907 Z1.525 I3.175 F500.
N12020 G01 X13.101 M182 (LASER ON)
N12025 G02 X16.276 Z4.7 K3.175 M183 (LASER OFF)
N12030 G00 Z7.214
N12035 X18.598 Y4.106
N12040 Z6.732
N12045 G01 Z4.7 F250.
N12050 G03 X15.423 Z1.525 I-3.175 F500.
N12055 G01 X5.168 M182 (LASER ON)
N12060 G03 X1.993 Z4.7 K3.175 M183 (LASER OFF)
N12065 G00 Z7.214
N12070 X-1.993
N12075 Z6.732
N12080 G01 Z4.7 F250.
N12085 G03 X-5.168 Z1.525 I-3.175 F500.
N12090 G01 X-15.423 M182 (LASER ON)
N12095 X-15.762 M183 (LASER OFF)
N12100 G17 G03 X-16.368 Y3.782 J-0.728
N12105 G01 X-16.556 Y3.5
N12110 G03 X-16.232 Y2.894 I0.324 J-0.216
N12115 G01 X-5.935 M182 (LASER ON)
N12120 G18 G02 X-2.76 Z4.7 K3.175 M183 (LASER OFF)
N12125 G00 Z7.214
N12130 X2.76
N12135 Z6.732
N12140 G01 Z4.7 F250.
N12145 G02 X5.935 Z1.525 I3.175 F500.
N12150 G01 X16.237 M182 (LASER ON)
N12155 X16.317 M183 (LASER OFF)
N12160 G17 G02 X16.923 Y2.368 J-0.612
N12165 G01 X16.934 Y2.288
N12170 G02 X16.407 Y1.682 I-0.527 J-0.074
N12175 G01 X6.384 M182 (LASER ON)
N12180 G18 G03 X3.209 Z4.7 K3.175 M183 (LASER OFF)
N12185 G00 Z7.214
N12190 X-3.21
N12195 Z6.732
N12200 G01 Z4.7 F250.
N12205 G03 X-6.385 Z1.525 I-3.175 F500.
N12210 G01 X-16.407 M182 (LASER ON)
N12215 G17 G03 X-16.883 Y1.077 J-0.49 M183 (LASER OFF)
N12220 G01 X-16.852 Y0.947
N12225 G03 X-16.246 Y0.471 I0.606 J0.147
N12230 G01 X-16.113
N12235 X-6.585 M182 (LASER ON)
N12240 G18 G02 X-3.41 Z4.7 K3.175 M183 (LASER OFF)
N12245 G00 Z7.214
N12250 X3.41
N12255 Z6.732
N12260 G01 Z4.7 F250.
N12265 G02 X6.585 Z1.525 I3.175 F500.
N12270 G01 X16.115 M182 (LASER ON)
N12275 G17 G02 X16.31 Y-0.135 J-0.334 M183 (LASER OFF)
N12280 G01 X15.737 Y-0.546
N12285 G02 X15.131 Y-0.741 I-0.606 J0.844
N12290 G01 X14.427
N12295 X6.561 M182 (LASER ON)
N12300 G18 G03 X3.386 Z4.7 K3.175 M183 (LASER OFF)
N12305 G00 Z7.214
N12310 X-3.386
N12315 Z6.732
N12320 G01 Z4.7 F250.
N12325 G03 X-6.561 Z1.525 I-3.175 F500.
N12330 G01 X-14.432 M182 (LASER ON)
N12335 G17 G03 X-14.836 Y-1.347 J-0.438 M183 (LASER OFF)
N12340 G01 X-14.752 Y-1.549
N12345 G03 X-14.146 Y-1.953 I0.606 J0.252
N12350 G01 X-13.927
N12355 X-6.307 M182 (LASER ON)
N12360 G18 G02 X-3.132 Z4.7 K3.175 M183 (LASER OFF)
N12365 G00 Z7.214
N12370 X3.132
N12375 Z6.732
N12380 G01 Z4.7 F250.
N12385 G02 X6.307 Z1.525 I3.175 F500.
N12390 G01 X13.925 M182 (LASER ON)
N12395 X13.957 M183 (LASER OFF)
N12400 G17 G02 X14.563 Y-2.527 J-0.607
N12405 G01 X14.565 Y-2.559
N12410 G02 X13.991 Y-3.164 I-0.574 J-0.031
N12415 G01 X5.795 M182 (LASER ON)
N12420 G18 G03 X2.62 Z4.7 K3.175 M183 (LASER OFF)
N12425 G00 Z7.214
N12430 X-2.62
N12435 Z6.732
N12440 G01 Z4.7 F250.
N12445 G03 X-5.795 Z1.525 I-3.175 F500.
N12450 G01 X-14. M182 (LASER ON)
N12455 X-14.288 M183 (LASER OFF)
N12460 G17 G03 X-14.894 Y-3.519 J-0.695
N12465 G01 X-15.036 Y-3.77
N12470 G03 X-14.681 Y-4.376 I0.354 J-0.199
N12475 G01 X-4.942 M182 (LASER ON)
N12480 G18 G02 X-1.767 Z4.7 K3.175 M183 (LASER OFF)
N12485 G00 Z7.214
N12490 X1.765
N12495 Z6.732
N12500 G01 Z4.7 F250.
N12505 G02 X4.94 Z1.525 I3.175 F500.
N12510 G01 X14.681 M182 (LASER ON)
N12515 X15.031 M183 (LASER OFF)
N12520 G17 G02 X15.637 Y-4.694 J-0.736
N12525 G01 X15.835 Y-4.982
N12530 G02 X15.517 Y-5.588 I-0.318 J-0.219
N12535 G01 X3.511 M182 (LASER ON)
N12540 G18 G03 X0.336 Z4.7 K3.175 M183 (LASER OFF)
N12545 G00 Z7.214
N12550 X-0.336
N12555 Z6.732
N12560 G01 Z4.7 F250.
N12565 G03 X-3.511 Z1.525 I-3.175 F500.
N12570 G01 X-15.517 M182 (LASER ON)
N12575 G17 G03 X-15.925 Y-6.194 J-0.44 M183 (LASER OFF)
N12580 G01 X-15.844 Y-6.392
N12585 G03 X-15.238 Y-6.8 I0.606 J0.247
N12590 G01 X-15.024
N12595 X15.024 M182 (LASER ON)
N12600 G02 X15.397 Y-7.405 J-0.418 M183 (LASER OFF)
N12605 G01 X15.281 Y-7.638
N12610 G02 X14.675 Y-8.011 I-0.606 J0.305
N12615 G01 X14.415
N12620 X-14.415 M182 (LASER ON)
N12625 G18 G03 X-17.59 Z4.7 K3.175 M183 (LASER OFF)
N12630 G00 Z7.214
N12635 X-13.792 Y-9.223
N12640 Z6.732
N12645 G01 Z4.7 F250.
N12650 G02 X-10.617 Z1.525 I3.175 F500.
N12655 G01 X10.613 M182 (LASER ON)
N12660 G17 G02 X10.987 Y-9.829 J-0.418 M183 (LASER OFF)
N12665 G01 X10.87 Y-10.061
N12670 G02 X10.265 Y-10.435 I-0.606 J0.304
N12675 G01 X10.005
N12680 X-10.005 M182 (LASER ON)
N12685 G03 X-10.603 Y-11.041 J-0.598 M183 (LASER OFF)
N12690 G01 Y-11.048
N12695 G03 X-9.997 Y-11.646 I0.606 J0.008
N12700 G01 X-9.99
N12705 X9.99 M182 (LASER ON)
N12710 X10.137 M183 (LASER OFF)
N12715 G02 X10.743 Y-12.11 J-0.628
N12720 G01 X10.781 Y-12.252
N12725 G02 X10.317 Y-12.858 I-0.464 J-0.125
N12730 G01 X-10.317 M182 (LASER ON)
N12735 G03 X-10.51 Y-13.464 J-0.334 M183 (LASER OFF)
N12740 G01 X-9.927 Y-13.877
N12745 G03 X-9.321 Y-14.07 I0.606 J0.855
N12750 G01 X-8.606
N12755 X-6.635 M182 (LASER ON)
N12760 G18 G02 X-3.46 Z4.7 K3.175 M183 (LASER OFF)
N12765 G00 Z7.214
N12770 X-6.083
N12775 Z6.732
N12780 G01 Z4.7 F250.
N12785 G02 X-2.908 Z1.525 I3.175 F500.
N12790 G01 X2.908 M182 (LASER ON)
N12795 G02 X6.083 Z4.7 K3.175 M183 (LASER OFF)
N12800 G00 Z7.214
N12805 X3.46
N12810 Z6.732
N12815 G01 Z4.7 F250.
N12820 G02 X6.635 Z1.525 I3.175 F500.
N12825 G01 X8.605 M182 (LASER ON)
N12830 G02 X11.78 Z4.7 K3.175 M183 (LASER OFF)
N12835 G00 Z7.214
N12840 X5.248 Y-15.281
N12845 Z6.732
N12850 G01 Z4.7 F250.
N12855 G03 X2.073 Z1.525 I-3.175 F500.
N12860 G01 X-2.073 M182 (LASER ON)
N12865 G17 G03 X-2.238 Y-15.887 J-0.325 M183 (LASER OFF)
N12870 G01 X-1.486 Y-16.329
N12875 G03 X-0.88 Y-16.493 I0.606 J1.033
N12880 G01 X-0.008
N12885 X0.011 M182 (LASER ON)
N12890 G18 G02 X3.186 Z4.7 K3.175 M183 (LASER OFF)
(---- LAYER 2 FINISHED----)
N12895 G00 Z17.374
N12900 G17
N12905 /M185

N12910 M05
N12915 G28 G91 Z0.
N12920 G90
N12925 G49
N12930 G5.1 Q0
N12935 M11
N12940 M211
N12945 M11
N12950 M211
N12955 G00 A0. C0.
N12960 M10
N12965 M210
N12970 G28 G91 X0. Y0.
N12975 G90
N12980 G91
N12985 G00 Y160
N12990 G90
N12995 M30
%
