%
O1001
(JDH - Laser WIRE DED at RIT, Hardinge GX250 with AMBIT FLEX)
(JDH - laser power, powder flow rate, gas flow rates are specified in recipe R01)
(JDH - recipes are defined in the DED controller, NOT in the G-code)
(JDH - G-code calls individual recipes; recipes can be changed on-the-fly)
(JDH - Code generated using Autodesk Fusion 360 + Custom Fanuc Post Processor)
(JDH - IMPORTANT M CODES)
(M98 <RXX> - Recipe assignment for recipe XX, e.g. R01, R02, etc.)
(M184 - Turn Media on, media includes powder and gas flows)
(M185 - Turn Media off)
(M182 - Turn Laser on)
(M183 - Turn Laser off)
(T17 D=0. CR=0. - LASER WIRE)
N10 G90 G94 G17 G49 G40 G80
N15 G21
N20 G49
N25 G28 G91 Z0.
N30 G90
N35 M11
N40 M211
N45 M11
N50 M211
N55 G00 A0. C0.

(FEATURE CONSTRUCTION1)
N60 G54
N65 M11
N70 M211
N75 G00 A1.934 C57.261
N80 M98 <R01>
N85 /M184
N90 G04 P25000
N95 G5.1 Q1 R10
N100 G00 X-5.866 Y10.587
N105 G43.4 Z88.265 H17
N110 G49
N115 G28 G91 Z0.
N120 G90
N125 G49
N130 M11
N135 M211
N140 G68.2 X0. Y0. Z0. I57.261 J1.934 K0.
N145 G53.1
N150 G00 X5.733 Y13.633
N155 G69
N160 G43.4 H17 L1
N165 G00 X-5.866 Y10.587 Z88.265 A1.934 C57.261
N170 X-5.866 Y10.587 Z5.207
N175 G01 X-5.866 Y10.587 Z3.175 F250.
N180 X-5.866 Y10.587 Z3.175 F400.
N185 X-5.862 Y10.601 Z2.87
N190 X-5.851 Y10.646 Z2.558
N195 X-5.832 Y10.723 Z2.242
N200 X-5.804 Y10.834 Z1.928
N205 X-5.767 Y10.98 Z1.622
N210 X-5.722 Y11.16 Z1.33
N215 X-5.668 Y11.372 Z1.057
N220 X-5.608 Y11.612 Z0.809
N225 X-5.542 Y11.877 Z0.591
N230 X-5.47 Y12.16 Z0.406
N235 X-5.396 Y12.457 Z0.255
N240 X-5.319 Y12.761 Z0.14
N245 X-5.242 Y13.068 Z0.061
N250 X-5.166 Y13.371 Z0.015
N255 X-5.092 Y13.666 Z0.
N260 /M184 (MEDIA ON)
N265 G04 P2000
N270 M182 (LASER ON)
N275 G04 P750
N280 X-5.092 Y13.666 Z0.
N285 X-5.005 Y14.013 Z0. A1.957
N290 X-4.949 Y14.285 Z0. A1.971
N295 X-4.907 Y14.549 Z0. A1.982
N300 X-4.877 Y14.815 Z0. A1.991
N305 X-4.854 Y15.148 Z0. A1.998
N310 X-4.849 Y15.482 Z0. A2.
N315 X-4.862 Y15.815 Z0. A1.996
N320 X-4.881 Y16.065 Z0. A1.99
N325 X-4.929 Y16.426 Z0. A1.975
N330 X-4.998 Y16.788 Z0. A1.954
N335 X-5.09 Y17.149 Z0. A1.926
N340 X-5.204 Y17.511 Z0. A1.89
N345 X-5.336 Y17.854 Z0. A1.849
N350 X-5.491 Y18.197 Z0. A1.8
N355 X-5.672 Y18.54 Z0. A1.744
N360 X-5.88 Y18.884 Z0. A1.678
N365 X-6.077 Y19.168 Z0. A1.616
N370 X-6.299 Y19.452 Z0. A1.546
N375 X-6.548 Y19.737 Z0. A1.468
N380 X-6.829 Y20.021 Z0. A1.38
N385 X-7.094 Y20.258 Z0. A1.296
N390 X-7.425 Y20.518 Z0. A1.188
N395 X-7.689 Y20.703 Z0. A1.104
N400 X-7.97 Y20.879 Z0. A1.017
N405 X-8.214 Y21.016 Z0. A0.939
N410 X-8.457 Y21.139 Z0. A0.862
N415 X-8.683 Y21.242 Z0. A0.79
N420 X-8.86 Y21.316 Z0. A0.73
N425 X-9.311 Y21.475 Z0. A0.59
N430 X-9.762 Y21.597 Z0. A0.448
N435 X-10.213 Y21.685 Z0. A0.306
N440 X-10.664 Y21.739 Z0. A0.164
N445 X-11.126 Y21.761 Z0. A0.019
N450 X-11.589 Y21.75 Z0. A-0.127
N455 X-12.051 Y21.704 Z0. A-0.272
N460 X-12.514 Y21.624 Z0. A-0.413
N465 X-12.907 Y21.526 Z0. A-0.544
N470 X-13.222 Y21.428 Z0. A-0.643
N475 X-13.536 Y21.313 Z0. A-0.742
N480 X-13.851 Y21.178 Z0. A-0.84
N485 X-14.087 Y21.066 Z0. A-0.91
N490 X-14.402 Y20.894 Z0. A-1.008
N495 X-14.716 Y20.697 Z0. A-1.107
N500 X-15.087 Y20.431 Z0. A-1.222
N505 X-15.386 Y20.184 Z0. A-1.319
N510 X-15.673 Y19.916 Z0. A-1.408
N515 X-15.893 Y19.685 Z0. A-1.478
N520 X-16.135 Y19.405 Z0. A-1.554
N525 X-16.355 Y19.113 Z0. A-1.626
N530 X-16.536 Y18.848 Z0. A-1.682
N535 X-16.669 Y18.631 Z0. A-1.725
N540 X-16.815 Y18.368 Z0. A-1.772
N545 X-16.968 Y18.057 Z0. A-1.82
N550 X-17.101 Y17.746 Z0. A-1.861
N555 X-17.215 Y17.435 Z0. A-1.897
N560 X-17.29 Y17.201 Z0. A-1.919
N565 X-17.386 Y16.834 Z0. A-1.949
N570 X-17.459 Y16.467 Z0. A-1.972
N575 X-17.51 Y16.1 Z0. A-1.988
N580 X-17.539 Y15.733 Z0. A-1.997
N585 X-17.547 Y15.337 Z0. A-1.999
N590 X-17.53 Y14.942 Z0. A-1.994
N595 X-17.488 Y14.547 Z0. A-1.98
N600 X-17.421 Y14.152 Z0. A-1.959
N605 X-17.33 Y13.765 Z0. A-1.93
N610 X-17.213 Y13.379 Z0. A-1.893
N615 X-17.068 Y12.992 Z0. A-1.847
N620 X-16.894 Y12.606 Z0. A-1.793
N625 X-16.713 Y12.266 Z0. A-1.735
N630 X-16.505 Y11.926 Z0. A-1.669
N635 X-16.265 Y11.586 Z0. A-1.594
N640 X-15.99 Y11.246 Z0. A-1.507
N645 X-15.714 Y10.948 Z0. A-1.42
N650 X-15.399 Y10.651 Z0. A-1.323
N655 X-15.104 Y10.406 Z0. A-1.23
N660 X-14.809 Y10.189 Z0. A-1.136
N665 X-14.48 Y9.976 Z0. A-1.033
N670 X-14.15 Y9.79 Z0. A-0.93
N675 X-13.821 Y9.629 Z0. A-0.827
N680 X-13.492 Y9.491 Z0. A-0.723
N685 X-13.167 Y9.375 Z0. A-0.621
N690 X-12.761 Y9.259 Z0. A-0.489
N695 X-12.437 Y9.185 Z0. A-0.387
N700 X-12.12 Y9.13 Z0. A-0.288
N705 X-11.806 Y9.092 Z0. A-0.191
N710 X-11.543 Y9.072 Z0. A-0.107
N715 X-11.228 Y9.063 Z0. A-0.01
N720 X-10.963 Y9.067 Z0. A0.072
N725 X-10.586 Y9.091 Z0. A0.19
N730 X-10.276 Y9.13 Z0. A0.289
N735 X-9.899 Y9.196 Z0. A0.409
N740 X-9.521 Y9.287 Z0. A0.538
N745 X-9.097 Y9.419 Z0. A0.666
N750 X-8.672 Y9.585 Z0. A0.799
N755 X-8.248 Y9.788 Z0. A0.933
N760 X-7.824 Y10.032 Z0. A1.061
N765 X-7.483 Y10.263 Z0. A1.174
N770 X-7.278 Y10.415 Z0. A1.234
N775 X-7.005 Y10.642 Z0. A1.32
N780 X-6.678 Y10.953 Z0. A1.423
N785 X-6.414 Y11.235 Z0. A1.508
N790 X-6.165 Y11.539 Z0. A1.585
N795 X-5.945 Y11.843 Z0. A1.654
N800 X-5.752 Y12.146 Z0. A1.715
N805 X-5.581 Y12.45 Z0. A1.77
N810 X-5.398 Y12.83 Z0. A1.832
N815 X-5.272 Y13.134 Z0. A1.874
N820 X-5.163 Y13.438 Z0. A1.913
N825 X-5.092 Y13.666 Z0. A1.934
N830 /M185 (MEDIA OFF)
N835 G00 Z10.
N840 M183 (LASER OFF)
N845 G01 Z0.
G04 P1000
N850 X-5.092 Y13.666 Z0.

(CODE SHORTENED FOR BREVITY)

N203575 X16.326 Y-12.098 Z72.39 A-1.608
N203580 X15.904 Y-12.648 Z72.39 A-1.567
N203585 X15.45 Y-13.198 Z72.39 A-1.522
N203590 X14.82 Y-13.902 Z72.39 A-1.462
N203595 X14.403 Y-14.326 Z72.39 A-1.42
N203600 /M185 (MEDIA OFF)
N203605 G00 Z82.39
N203610 M183 (LASER OFF)
N203615 G01 Z72.39
G04 P1000
N203620 X14.403 Y-14.326 Z72.39
N203625 X14.099 Y-14.634 Z72.405
N203630 X13.789 Y-14.95 Z72.451
N203635 X13.474 Y-15.269 Z72.53
N203640 X13.157 Y-15.591 Z72.643
N203645 X12.841 Y-15.911 Z72.793
N203650 X12.529 Y-16.228 Z72.979
N203655 X12.224 Y-16.538 Z73.201
N203660 X11.929 Y-16.838 Z73.459
N203665 X11.646 Y-17.125 Z73.752
N203670 X11.379 Y-17.396 Z74.076
N203675 X11.131 Y-17.649 Z74.43
N203680 X10.903 Y-17.88 Z74.811
N203685 X10.698 Y-18.088 Z75.213
N203690 X10.517 Y-18.272 Z75.635
N203695 X10.361 Y-18.431 Z76.07
N203700 X10.23 Y-18.563 Z76.514
N203705 X10.125 Y-18.67 Z76.965
N203710 X10.045 Y-18.751 Z77.416
N203715 X9.99 Y-18.807 Z77.864
N203720 X9.958 Y-18.84 Z78.307
N203725 X9.947 Y-18.85 Z78.74
(---- LAYER 57 FINISHED----)
N203730 G00 X9.947 Y-18.85 Z78.74
N203735 X9.947 Y-18.85 Z88.265
N203740 /M185
N203745 G04 P25000

N203750 M05
N203755 G49
N203760 G28 G91 Z0.
N203765 G90
N203770 G49
N203775 G5.1 Q0
N203780 M11
N203785 M211
N203790 M11
N203795 M211
N203800 G00 A0. C0.
N203805 G49
N203810 G28 G91 X0. Y0.
N203815 G90
N203820 G91
N203825 G00 Y160
N203830 G90
N203835 M30
%
